<?xml version="1.0" encoding="UTF-8"?>
<map version="1.10" tiledversion="1.11.2" orientation="orthogonal" renderorder="right-down" compressionlevel="0" width="50" height="30" tilewidth="16" tileheight="16" infinite="0" nextlayerid="15" nextobjectid="38">
 <tileset firstgid="1" name="Paths" tilewidth="16" tileheight="16" tilecount="64" columns="4">
  <image source=".paths.png" width="64" height="256"/>
 </tileset>
 <tileset firstgid="65" name="untitled tile sheet" tilewidth="16" tileheight="16" tilecount="2176" columns="32">
  <image source=".townInterior.png" width="512" height="1088"/>
 </tileset>
 <tileset firstgid="2241" name="untitled tile sheet2" tilewidth="16" tileheight="16" tilecount="1312" columns="32">
  <image source=".townInterior_2.png" width="512" height="656"/>
 </tileset>
 <tileset firstgid="3553" name="zlumi_towninterior" tilewidth="16" tileheight="16" tilecount="3425" columns="25">
  <image source=".lumi_towninterior.png" width="400" height="2192"/>
 </tileset>
 <tileset firstgid="6978" name="zwalls_and_floors" tilewidth="16" tileheight="16" tilecount="688" columns="16">
  <image source=".walls_and_floors.png" width="256" height="688"/>
 </tileset>
 <layer id="1" name="Back" width="50" height="30">
  <data encoding="csv">
0,0,0,0,0,0,0,0,0,0,0,0,0,0,0,0,0,0,0,0,0,0,0,0,0,0,370,0,0,0,0,0,0,0,0,0,0,0,0,0,0,0,0,0,0,0,0,0,0,0,
0,0,0,0,0,0,0,0,3219,3220,3220,3220,3220,3220,3220,3220,3220,3220,3220,3220,3220,3220,3220,3221,0,0,3190,3191,3191,3191,3191,3191,3191,3191,3191,3191,3191,3191,669,99,99,99,99,99,99,99,99,99,100,65,
0,0,0,0,0,0,0,0,3251,3252,3252,3252,3252,3252,3252,3252,3252,3252,3252,3252,3252,3252,3252,3253,0,0,3222,3223,3223,3223,3223,3223,3223,3223,3223,3223,3223,3223,668,131,131,131,131,131,131,131,131,131,132,65,
65,0,0,0,0,0,0,0,3283,255,255,255,255,255,255,255,255,255,255,255,255,255,255,3285,65,65,3254,65,65,65,65,65,736,65,65,833,833,833,833,163,163,163,163,163,163,163,163,163,164,65,
65,3219,3220,3220,3220,3220,3220,3220,638,507,507,507,507,507,736,507,507,507,507,507,507,507,736,670,65,65,638,639,736,639,736,639,736,639,736,639,736,639,3198,1062,1062,1062,1062,1062,1062,1062,1062,1062,1060,65,
65,3251,3252,3252,3252,3252,3252,3252,671,605,605,605,605,605,768,605,605,605,605,605,605,605,768,2209,65,671,672,671,768,671,768,671,768,671,768,671,768,671,1059,1063,1063,1063,1063,1064,1067,1063,1063,1063,1063,65,
65,3283,65,65,65,65,65,65,703,704,703,704,703,704,2363,704,703,704,703,704,703,704,2364,2177,65,703,507,2178,704,507,507,507,507,507,507,507,507,703,3232,1063,1063,1063,1063,1063,1063,1063,1063,1063,1063,65,
65,638,736,639,640,639,640,640,2178,671,672,671,672,671,2395,671,672,671,672,671,672,671,2396,2209,672,671,507,2209,3296,507,507,507,507,507,507,507,507,3296,3232,1063,1063,1063,1063,1063,1063,1063,1063,1063,1063,65,
65,671,768,671,672,671,672,703,2177,703,507,507,507,507,2363,507,507,507,507,507,507,703,2364,2177,704,703,507,2969,639,639,640,639,640,639,640,639,640,639,3232,3264,1063,1062,1062,1062,1062,1062,3264,1063,3264,65,
65,703,704,703,704,703,704,703,2209,639,605,605,605,605,2395,605,605,605,605,605,605,671,2396,2209,672,671,507,2178,672,671,672,671,672,671,672,671,672,671,1059,1062,1062,1062,1062,1062,1062,1062,1062,1063,1062,65,
65,640,639,640,639,640,639,640,2177,671,1214,1215,1216,703,2363,703,573,703,704,573,704,507,2364,2177,3220,3220,507,2177,704,507,507,507,507,507,507,507,704,2211,704,703,704,703,704,735,767,735,767,703,704,65,
65,703,704,2211,2211,2211,2211,703,2209,703,1246,1247,1248,671,2395,671,672,671,672,671,672,640,2396,2209,3252,3252,507,2209,3296,507,507,507,507,507,507,507,3296,2178,672,671,672,3226,3287,671,672,671,2178,3287,3226,65,
65,671,672,2211,672,2211,672,671,2177,671,672,671,672,703,2363,2211,704,703,573,2211,704,703,2364,2177,704,703,3296,2938,640,639,640,639,640,639,640,639,640,2209,704,703,704,3286,3258,703,704,703,2209,3258,3286,65,
65,703,704,703,704,703,704,703,2209,507,704,2211,672,671,2395,2211,672,671,2211,2211,704,671,2396,2937,639,640,639,2211,672,2178,672,639,639,640,639,2211,2210,2177,672,671,672,671,672,320,320,320,3263,189,672,65,
65,671,672,2211,672,2211,672,671,2938,639,672,2211,704,703,2363,703,704,703,2211,2211,672,2211,2364,672,671,703,704,703,704,2209,672,671,672,671,672,2211,672,2209,3226,3287,3226,157,157,3262,3262,3262,3262,157,157,65,
0,703,704,703,704,703,704,703,704,703,704,703,704,703,2395,2211,704,671,672,703,2210,2211,2396,704,2211,671,672,2178,672,507,507,507,507,507,507,507,672,2177,3258,3286,3258,3261,189,189,189,189,189,189,189,65,
0,671,672,2211,672,2211,672,671,671,671,672,671,672,671,2363,2211,672,703,704,2211,672,2211,2364,2178,703,703,704,2177,704,507,507,507,507,507,507,507,704,2209,215,215,215,3293,189,189,189,189,189,189,189,65,
0,703,704,703,704,703,704,703,704,703,704,703,704,703,704,703,704,703,704,703,704,703,704,2209,704,671,672,2209,3296,507,507,507,507,507,507,507,3296,2969,640,639,3260,3293,3295,189,189,189,189,3295,189,65,
0,671,672,2211,672,2211,672,671,672,2211,672,671,672,671,672,671,672,671,672,671,672,671,672,2177,65,703,704,2938,640,639,640,639,640,639,640,639,640,671,672,671,3292,3294,157,157,157,157,157,157,189,65,
0,703,704,703,704,703,704,703,704,671,704,2179,704,703,704,703,704,703,704,703,704,703,704,2209,704,65,65,65,65,65,65,65,65,65,65,65,65,703,2211,703,2211,703,2211,703,2211,703,2211,703,2211,65,
0,671,672,671,0,0,672,671,704,704,672,671,672,671,672,671,672,671,672,671,704,704,672,2177,672,0,0,0,0,0,0,0,0,0,0,7135,7135,671,672,671,7135,7135,7135,7135,7135,7135,7135,7135,7135,0,
0,703,704,703,0,0,2211,2178,671,671,704,703,704,703,704,703,704,703,704,2178,671,671,704,2209,3327,3327,3327,3327,3327,3327,3327,3327,3327,3327,3327,7151,7151,703,2211,703,7151,7151,7151,7151,7151,7151,7151,7151,7151,0,
65,671,672,671,0,0,672,2177,703,703,672,671,672,671,672,671,672,671,672,2177,703,703,672,2177,3359,3359,3359,3359,3359,3359,3359,3359,3359,3359,3359,7167,7167,671,672,671,7167,7167,7167,7167,7167,7167,7167,7167,7167,0,
65,703,704,703,0,0,704,2209,639,639,704,703,704,703,704,703,704,703,704,2209,639,639,704,2209,3391,3391,3391,3391,3391,3391,3391,3391,3391,3391,3391,639,640,703,2211,703,640,639,640,640,639,640,639,640,639,703,
65,65,65,671,65,671,672,2177,671,671,672,671,672,671,672,671,672,671,672,2177,671,671,672,2937,669,669,669,669,669,669,669,669,669,669,672,671,672,2178,672,671,672,671,672,671,672,671,672,671,672,671,
0,0,65,767,65,703,704,2209,703,703,704,703,704,703,704,703,704,703,704,2209,703,703,704,703,700,700,700,700,700,700,700,700,700,700,2211,703,2211,2177,2211,703,2211,703,2211,703,2211,703,2211,703,2211,703,
0,0,0,65,0,671,672,2177,671,671,672,671,672,671,672,671,672,671,672,2177,671,671,672,671,668,668,668,668,668,668,668,668,668,668,672,671,672,2209,672,671,672,671,672,671,672,671,672,671,672,671,
0,0,0,0,0,703,704,2209,507,507,704,703,704,703,704,703,704,703,704,2209,507,507,2211,703,0,0,0,0,0,0,0,0,0,0,0,703,2211,2969,640,639,640,639,640,639,640,639,640,639,2211,703,
0,0,0,0,0,671,672,2938,640,639,672,671,672,671,672,671,672,671,672,2938,640,639,672,671,0,0,0,0,0,0,0,0,0,0,0,671,672,671,672,671,672,671,672,671,672,671,672,671,672,671,
0,0,0,0,0,703,704,703,704,703,704,671,704,671,704,671,704,671,704,703,704,703,704,2177,704,0,0,0,0,0,0,0,0,0,0,700,700,0,0,0,0,0,0,0,0,0,0,0,0,0
</data>
 </layer>
 <layer id="2" name="Back2" width="50" height="30">
  <properties>
   <property name="Draw" value="Back"/>
  </properties>
  <data encoding="csv">
0,0,0,0,0,0,0,0,0,0,0,0,0,0,0,0,0,0,0,0,0,0,0,0,0,0,0,0,0,0,0,0,0,0,0,0,0,0,0,0,0,0,0,0,0,0,0,0,0,0,
0,0,0,0,0,0,0,0,0,0,0,0,0,0,0,0,0,0,0,0,0,0,0,0,0,0,0,0,0,0,0,0,0,0,0,0,0,0,0,0,0,0,0,0,0,0,0,0,0,0,
0,0,0,0,0,0,0,0,0,0,0,0,0,0,0,0,0,0,0,0,0,0,0,0,0,0,0,0,0,0,0,0,0,0,0,0,0,0,0,0,0,0,0,0,0,0,0,0,0,0,
0,0,0,0,0,0,0,0,0,0,0,0,0,0,0,0,0,0,0,0,0,0,0,0,0,0,0,0,0,0,0,0,0,0,0,0,0,0,0,0,0,0,0,0,0,0,0,0,0,0,
0,0,0,0,0,0,0,0,0,0,0,0,0,0,0,0,0,0,0,0,0,0,0,0,0,0,0,0,0,0,0,0,0,0,0,0,0,0,0,0,0,0,0,0,0,0,0,0,0,0,
0,0,0,0,0,0,0,0,0,0,0,0,0,0,0,0,0,0,2997,0,0,0,0,0,0,0,0,0,0,0,0,0,0,0,0,0,0,0,0,0,0,0,0,0,0,0,0,0,0,0,
0,0,0,0,0,0,0,0,0,0,0,0,0,0,0,0,0,0,0,0,0,0,0,0,0,0,0,0,0,0,0,0,0,0,0,0,0,0,0,0,0,0,0,0,0,0,0,0,0,0,
0,0,0,0,0,0,0,0,0,0,0,0,0,0,0,0,0,0,0,0,0,0,0,0,0,0,0,0,0,0,0,0,0,0,0,0,0,0,0,0,0,0,0,0,0,0,0,0,0,0,
0,0,0,0,0,0,0,0,0,0,0,0,0,0,0,0,0,0,0,0,0,0,0,0,0,0,0,0,0,0,0,0,0,0,0,0,0,0,0,0,0,0,0,0,0,0,0,0,0,0,
0,0,0,0,0,0,0,0,0,0,2997,0,0,0,0,0,0,0,0,0,0,0,0,0,0,0,0,0,0,0,0,0,0,0,0,0,0,0,0,0,0,0,0,0,0,0,0,0,0,0,
0,0,6828,6829,6830,6831,0,0,0,0,0,0,0,0,0,0,0,0,0,0,0,0,0,0,0,0,0,0,0,0,0,0,0,0,0,0,0,0,0,0,0,0,0,0,0,0,0,0,0,0,
0,0,6853,6854,6855,6856,0,0,0,0,0,0,0,0,0,0,0,0,0,0,0,0,0,0,0,0,0,0,0,0,0,0,0,0,0,0,0,0,0,0,0,0,0,2462,2463,2463,2464,0,0,0,
0,0,6878,6879,6880,6881,0,0,0,0,0,0,0,0,0,0,0,0,0,0,0,0,0,0,0,0,0,0,0,0,0,0,0,0,0,0,0,0,0,0,0,0,0,2494,2495,2495,2496,0,0,0,
0,0,0,0,0,0,0,0,0,0,0,0,0,0,0,0,0,0,0,0,0,0,0,2524,2525,2526,2527,0,0,0,0,0,0,0,0,0,0,0,0,0,0,0,0,0,0,0,0,0,0,0,
0,0,0,0,0,0,0,0,0,0,0,0,0,0,0,0,0,0,0,0,0,0,0,2556,2557,2558,2559,0,0,0,0,0,0,0,0,0,0,0,0,0,0,0,0,0,0,0,0,0,0,0,
0,0,0,0,0,0,0,0,0,0,0,0,0,0,0,0,0,0,0,0,0,0,0,2588,2589,2590,2591,0,0,0,0,0,0,0,0,0,0,0,0,0,0,0,0,0,0,0,0,0,0,0,
0,0,0,0,0,0,0,0,0,0,0,0,0,0,0,0,0,0,0,0,0,0,0,0,0,0,0,0,0,0,0,0,0,0,0,0,0,0,0,0,0,0,0,0,0,0,0,0,0,0,
0,0,0,0,0,0,0,0,0,0,0,0,0,0,0,0,0,0,0,0,0,0,0,0,0,0,0,0,0,0,0,0,0,0,0,0,0,0,0,0,3038,0,0,0,0,0,0,0,0,0,
0,0,0,0,0,0,0,0,0,0,0,0,0,0,0,0,0,0,0,0,0,0,0,0,0,0,0,0,0,0,0,0,0,0,0,0,0,0,2211,0,3040,0,0,0,0,0,0,0,0,0,
0,0,0,0,0,0,0,0,0,0,0,0,0,0,0,0,0,0,0,0,0,0,0,0,0,0,0,0,0,0,0,0,0,0,0,0,0,0,0,0,0,0,0,0,0,0,0,0,0,0,
0,0,0,0,0,0,0,0,0,0,0,0,0,0,0,0,0,0,0,0,0,0,0,0,0,0,0,0,0,0,0,0,0,0,0,3524,3524,0,0,0,3524,3524,3524,3524,3524,3524,3524,3524,3524,0,
0,0,0,0,0,0,0,0,0,0,2821,2822,3303,3303,3303,3303,3303,3303,2823,2824,0,0,0,0,0,0,0,0,0,0,0,0,0,0,0,0,0,0,0,0,0,0,0,0,0,0,0,0,0,0,
0,0,0,0,0,0,0,0,0,0,2853,2854,3335,3335,3335,3335,3335,3335,2855,2856,0,0,0,0,0,0,0,0,0,0,0,0,0,0,0,0,0,0,0,0,0,0,0,0,0,0,0,0,0,0,
0,0,0,0,0,0,0,0,0,0,2885,2886,3367,3367,3367,3367,3367,3367,2887,2888,0,0,0,0,0,0,0,0,0,0,0,0,0,0,0,0,0,0,0,0,0,0,0,0,0,0,0,0,0,0,
0,0,0,0,0,0,0,0,0,0,2821,2822,3303,3303,3303,3303,3303,3303,2823,2824,0,0,0,0,3038,0,0,0,0,0,0,0,0,0,3040,0,0,0,0,0,0,0,0,0,0,0,0,0,0,0,
0,0,0,0,0,0,0,0,0,0,2853,2854,3335,3335,3335,3335,3335,3335,2855,2856,0,0,0,0,3040,0,0,0,0,0,0,0,0,0,3038,0,0,0,0,0,0,0,0,0,0,0,0,0,0,0,
0,0,0,0,0,0,0,0,0,0,2885,2886,3367,3367,3367,3367,3367,3367,2887,2888,0,0,0,0,3040,0,0,0,0,0,0,0,0,0,3040,0,0,0,0,0,0,0,0,0,0,0,0,0,0,0,
0,0,0,0,0,0,0,0,0,0,0,0,0,0,0,0,0,0,0,0,0,0,0,0,0,0,0,0,0,0,0,0,0,0,0,0,0,0,0,0,0,0,0,0,0,0,0,0,0,0,
0,0,0,0,0,0,0,0,0,0,0,0,0,0,0,0,0,0,0,0,0,0,0,0,0,0,0,0,0,0,0,0,0,0,0,0,0,0,0,0,0,0,0,0,0,0,0,0,0,0,
0,0,0,0,0,0,0,0,0,0,0,0,0,0,0,0,0,0,0,0,0,0,0,0,0,0,0,0,0,0,0,0,0,0,0,0,0,0,0,0,0,0,0,0,0,0,0,0,0,0
</data>
 </layer>
 <layer id="3" name="Buildings" width="50" height="30">
  <data encoding="csv">
0,0,0,0,0,0,0,65,65,65,65,65,65,65,65,65,65,65,65,65,65,65,65,65,65,65,65,65,65,65,65,65,65,65,65,65,65,65,65,65,65,65,65,65,65,65,65,65,65,65,
0,0,0,0,0,0,0,0,0,1491,1491,705,1491,1491,0,1491,705,1491,1491,1491,705,1491,0,0,65,65,2781,0,0,0,0,0,0,0,0,0,0,0,3108,0,0,0,0,0,0,0,0,0,3204,65,
0,0,0,0,0,0,0,0,6260,145,145,145,145,145,6261,145,145,145,145,145,145,145,6261,6262,65,65,144,145,145,145,145,145,145,145,145,145,145,145,3140,2269,2269,2269,2269,797,798,2269,2269,2269,2270,65,
0,0,0,0,0,0,0,0,6285,177,177,177,177,177,6286,177,177,177,177,177,177,177,6286,6287,65,65,176,177,177,177,177,177,177,177,177,177,177,177,3172,2301,2301,2301,2301,829,830,2301,2301,2301,2302,65,
65,0,0,0,0,0,0,6185,6310,708,769,769,769,709,0,708,769,769,769,769,769,709,0,6312,65,65,208,428,0,0,0,0,0,0,0,0,0,0,465,0,0,0,0,861,862,0,0,0,2334,65,
65,6260,6261,6261,644,6261,6261,6210,0,0,0,0,0,0,0,0,0,0,803,0,0,0,0,0,65,65,1139,0,0,1302,1138,1138,1138,1138,1138,1138,1303,0,0,0,0,0,0,0,0,0,0,0,1137,65,
65,6285,6286,6286,676,677,6286,6235,0,0,0,0,0,0,0,0,0,0,0,0,0,0,0,0,65,65,1139,0,1137,1138,1138,1138,1138,1138,1138,1138,1138,1139,0,1137,1138,1138,1138,1138,1138,1138,1139,0,1137,65,
65,6310,0,0,708,709,0,0,0,833,676,737,738,677,0,676,738,737,737,835,677,833,0,0,65,65,1139,0,1169,1170,1170,1170,1170,1170,1170,1170,1170,1171,0,1137,1138,1138,1138,1138,1138,1138,1139,0,1137,65,
65,599,983,0,586,2296,0,958,0,833,708,769,769,709,0,708,769,769,769,769,709,833,0,0,65,65,1139,0,0,0,0,0,0,0,0,0,0,0,0,1169,1170,1170,1170,1170,1170,1170,1171,0,1169,65,
65,1015,1015,1015,1015,1015,1015,3288,0,833,803,0,0,0,0,0,0,0,0,0,609,865,0,0,65,65,1139,0,1137,1138,1138,1138,1138,1138,1138,1138,1139,0,0,0,0,0,0,0,0,0,0,0,0,65,
65,909,0,0,0,0,0,0,0,833,0,0,0,0,0,0,0,720,722,0,0,929,0,0,6184,6185,1139,0,1137,1138,1138,1138,1138,1138,1138,1138,1139,0,65,65,65,65,65,0,0,0,0,65,65,65,
65,0,0,0,0,0,0,0,0,865,0,0,0,0,0,0,0,752,754,0,0,0,0,0,6209,6210,1139,0,1169,1170,1170,1170,1170,1170,1170,1170,1171,0,65,65,65,0,6185,0,0,0,0,6184,0,65,
65,0,0,0,0,0,0,0,0,897,0,0,0,0,0,0,0,0,0,0,0,0,0,0,6234,6235,1171,0,0,0,0,0,0,0,0,0,0,0,65,65,65,6261,6210,0,0,0,0,6209,6261,65,
65,0,0,0,0,0,0,0,0,929,0,0,0,0,0,0,0,0,0,0,0,0,0,0,0,0,0,0,0,0,1137,1138,1138,1138,1139,0,0,0,65,65,65,6286,6235,0,0,0,0,6234,6286,65,
65,0,0,0,0,0,0,0,0,0,0,0,0,586,0,0,0,0,0,0,0,0,0,0,0,0,0,0,0,0,1302,1138,1138,1138,1303,0,0,0,6184,0,6185,0,0,0,0,0,0,0,0,65,
129,0,0,0,0,0,0,0,0,840,841,0,0,840,841,0,0,840,841,0,0,0,0,0,0,0,0,0,1137,1138,1138,1138,1138,1138,1138,1138,1139,0,6209,6261,6210,0,1137,1138,1138,1138,1138,1139,0,65,
129,0,0,0,0,0,0,0,0,587,0,0,0,0,0,0,0,0,0,0,0,0,0,0,65,65,0,0,1137,1138,1138,1138,1138,1138,1138,1138,1139,0,6234,6286,6235,0,1137,1138,1138,1138,1138,1139,0,65,
129,0,0,0,0,0,0,0,0,840,841,0,0,840,841,0,0,840,841,0,0,0,0,0,65,65,0,0,1169,1170,1170,1170,1170,1170,1170,1170,1171,0,0,0,0,0,1169,1170,1170,1170,1170,1171,0,65,
129,0,0,0,0,0,0,0,0,0,0,0,0,587,0,0,0,587,0,0,0,0,0,0,65,65,600,0,0,0,0,0,0,0,0,0,0,0,0,0,0,0,0,0,0,0,0,0,0,65,
129,0,0,0,65,65,0,0,0,0,0,0,0,0,0,0,0,0,0,0,0,0,0,0,65,65,65,65,65,65,65,65,65,65,65,65,65,0,0,0,65,65,65,65,65,65,65,65,65,65,
129,0,0,0,65,65,0,0,0,0,0,0,0,0,0,0,0,0,0,0,0,0,0,0,65,65,65,65,65,65,65,65,65,65,65,0,6185,0,0,0,6184,0,0,0,0,0,0,0,0,6359,
129,0,0,0,65,65,0,0,833,833,0,0,720,721,722,0,0,0,0,0,833,833,0,0,6184,0,0,0,0,0,0,0,0,0,6185,6261,6210,0,0,0,6209,6261,6261,6261,6261,6261,6261,6261,6261,6359,
65,0,0,0,65,65,0,0,833,833,0,0,752,753,754,0,0,0,0,0,833,833,0,0,6209,6261,6261,6261,6261,6261,6261,6261,6261,6261,6210,6286,6235,0,0,0,6234,6286,6286,6286,6286,6286,6286,6286,6286,6359,
65,0,0,0,65,65,0,0,833,833,0,0,0,0,0,0,0,0,0,0,833,833,0,0,6234,6286,6286,6286,6286,6286,6286,6286,6286,6286,6235,0,0,0,0,0,0,0,0,0,0,0,0,0,0,6359,
65,65,65,0,65,65,0,0,833,833,0,0,0,0,0,0,0,0,0,0,833,833,0,0,0,0,0,0,0,0,0,0,0,0,0,0,0,0,1137,1138,1138,1138,1138,1138,1138,1138,1138,1139,0,6359,
0,0,65,0,65,65,0,0,865,865,0,0,0,0,0,720,721,722,0,0,865,865,0,0,0,0,0,0,0,0,0,0,0,0,0,0,0,0,1137,1138,1138,1138,1138,1138,1138,1138,1138,1139,0,6359,
0,0,0,65,0,65,0,0,897,897,0,0,0,0,0,752,753,754,0,0,897,897,0,0,0,0,0,0,0,0,0,0,0,0,0,0,0,0,1169,1170,1170,1170,1170,1170,1170,1170,1170,1171,0,6359,
0,0,0,0,0,65,0,0,929,929,0,0,0,0,0,0,0,0,0,0,929,929,0,0,6359,65,65,65,65,65,65,65,65,65,6353,0,0,0,0,0,0,0,0,0,0,0,0,0,0,6359,
0,0,0,0,0,65,0,0,0,0,0,0,0,0,0,0,0,0,0,0,0,0,0,0,6384,65,65,65,65,65,65,65,65,65,6378,0,0,0,0,0,0,0,0,0,0,0,0,0,0,6384,
0,0,0,0,0,65,65,65,65,65,65,65,65,65,65,65,65,65,65,65,65,65,65,65,65,65,65,65,65,65,65,65,65,65,65,65,65,65,65,65,65,65,65,65,65,65,65,65,65,65
</data>
 </layer>
 <layer id="4" name="Front" width="50" height="30">
  <data encoding="csv">
0,0,0,0,0,0,0,6278,6279,6280,6280,6280,6281,6280,6280,6280,6280,6280,6280,6280,6281,6280,6280,6283,6284,6278,6279,6280,6281,6280,6280,6280,6280,6280,6280,6280,6280,6281,6280,6280,6280,6280,6280,6280,6280,6281,6280,6280,6283,6284,
0,0,0,0,0,0,0,6303,6304,644,705,899,705,645,321,644,399,705,705,705,898,645,321,6308,6309,6303,6304,0,321,0,321,0,321,0,321,0,321,0,0,0,0,0,0,765,766,0,0,0,6308,6309,
0,0,0,0,0,0,0,6353,0,676,737,737,737,677,353,676,737,738,677,835,737,677,353,0,6359,6353,2813,0,353,0,353,0,353,0,353,0,353,0,0,0,0,0,0,797,798,0,0,0,3236,6359,
6278,6279,6280,6280,6281,6280,6280,6205,0,676,835,737,738,677,0,676,835,737,677,737,738,677,0,0,6359,6353,0,396,0,0,0,0,0,0,0,0,0,0,433,0,0,0,0,0,0,0,0,0,0,6359,
6303,6304,321,2532,631,632,2479,2480,0,0,0,0,0,0,0,0,0,0,771,0,0,0,0,0,6334,6353,1107,0,0,1105,1106,1106,1106,1106,1106,1106,1107,0,0,0,0,0,0,0,0,0,0,0,1105,6359,
6353,0,353,2564,899,645,2511,2512,0,801,644,705,705,645,0,0,0,0,0,0,0,0,0,0,6359,6353,0,0,1105,0,0,0,0,0,0,0,0,1107,0,1105,1106,1106,1106,1106,1106,1106,1107,0,0,6359,
6353,0,0,0,0,0,0,0,0,833,676,835,737,677,0,644,705,705,705,705,645,801,0,0,6359,6353,0,0,0,0,0,0,0,0,0,0,0,0,0,0,0,0,0,0,0,0,0,0,0,6334,
6353,567,0,0,554,0,0,894,0,0,676,737,738,677,0,676,738,737,737,835,677,833,0,0,6359,6353,0,0,0,0,0,0,0,0,0,0,0,0,0,0,0,0,0,0,0,0,0,0,0,6359,
6353,983,739,983,983,983,2345,958,0,0,771,0,0,0,0,0,0,0,0,0,0,0,0,0,6359,6328,0,0,1105,1106,1106,1106,1106,1106,1106,1106,1107,0,0,0,0,0,0,0,0,0,0,0,0,6359,
6328,877,0,0,0,0,0,0,0,898,0,0,0,0,0,0,0,688,690,0,0,0,0,0,6204,6205,0,0,0,0,0,0,0,0,0,0,0,0,6355,6356,6356,6356,6357,0,0,0,0,6355,6379,6380,
6353,0,0,0,0,0,0,0,0,0,0,0,0,0,0,0,0,0,545,0,0,0,0,0,2503,2504,0,0,0,0,0,0,0,0,0,0,0,0,6359,65,6182,6280,6205,0,0,0,0,6204,6280,6183,
6353,0,0,0,0,0,0,0,0,0,0,0,0,0,0,0,0,0,0,0,0,0,0,0,2535,2536,0,0,0,0,0,0,0,0,0,0,0,0,6359,65,6353,0,0,0,0,0,0,0,0,6359,
6353,0,0,0,0,0,0,0,0,897,0,0,0,0,0,0,0,0,0,0,0,0,0,0,0,0,0,0,0,0,1105,1106,1106,1106,1107,0,0,0,6359,65,6353,0,0,0,0,0,0,0,0,6359,
6353,0,0,0,0,0,0,0,0,0,0,0,0,554,0,0,0,0,0,0,0,0,0,0,0,0,0,0,0,0,0,0,0,0,0,0,0,0,6204,6280,6205,0,0,0,0,0,0,0,0,6359,
6353,0,0,0,0,0,0,0,0,744,745,0,0,744,842,0,0,744,745,0,0,0,0,0,0,0,0,0,1105,1106,0,0,0,0,0,1106,1107,0,0,0,0,0,1105,1106,1106,1106,1106,1107,0,6334,
6353,0,0,0,0,0,0,0,0,555,0,0,0,0,0,0,0,0,0,0,0,0,0,0,6355,6357,0,0,0,0,0,0,0,0,0,0,0,0,0,0,0,0,0,0,0,0,0,0,0,6359,
6353,0,0,0,0,0,0,0,0,744,842,0,0,744,745,0,0,744,842,0,0,0,0,0,6359,6353,0,0,0,0,0,0,0,0,0,0,0,0,0,0,0,0,0,0,0,0,0,0,0,6359,
6353,0,0,0,0,0,0,0,0,0,0,0,0,555,0,0,0,555,0,0,0,0,0,0,6359,6353,568,0,0,0,0,0,0,0,0,0,0,0,0,0,0,0,0,0,0,0,0,0,0,6359,
6328,0,0,0,6355,6357,0,0,0,0,0,0,0,0,0,0,0,0,0,0,0,0,0,0,6334,6382,6383,6356,6356,6356,6356,6331,6356,6356,6356,6356,6357,0,0,0,6355,6356,6356,6356,6356,6331,6356,6356,6379,6380,
6353,0,0,0,6359,6353,0,0,0,0,0,0,0,0,0,0,0,0,0,0,0,0,0,0,6359,0,0,0,0,0,0,0,0,0,6182,6280,6205,0,0,0,6204,6280,6280,6280,6280,6280,6280,6280,6280,6183,
6353,0,0,0,6359,6353,0,0,0,0,0,0,688,689,690,0,0,0,0,0,0,0,0,0,6204,6280,6280,6280,6280,6280,6280,6280,6280,6280,6205,0,0,0,0,0,0,0,0,0,0,0,0,0,0,0,
6353,0,0,0,6359,6328,0,0,0,0,0,0,0,0,0,0,0,0,0,0,0,0,0,0,0,4484,3621,0,3752,0,3746,3751,3746,3747,0,0,0,0,0,0,0,0,0,0,0,0,0,0,0,0,
6353,0,0,0,6359,6353,0,0,0,0,0,0,0,0,0,0,0,0,0,0,0,0,0,0,0,0,0,0,0,0,0,0,0,0,0,0,0,0,0,0,0,0,0,0,0,0,0,0,0,0,
225,3217,3218,0,6334,6353,0,0,0,0,0,0,0,0,0,0,0,0,0,0,0,0,0,0,0,0,0,0,0,0,0,0,0,0,0,0,0,0,1105,1106,1106,1106,1106,1106,1106,1106,1106,1107,0,0,
0,0,6353,0,6359,6353,0,0,0,0,0,0,0,0,0,688,689,690,0,0,0,0,0,0,0,0,0,0,0,0,0,0,0,0,0,0,0,0,0,0,0,0,0,0,0,0,0,0,0,0,
65,65,6378,6356,6384,6353,0,0,0,0,0,0,0,0,0,0,0,0,0,0,0,0,0,0,0,0,0,0,0,0,0,0,0,0,0,0,0,0,0,0,0,0,0,0,0,0,0,0,0,0,
65,65,65,65,65,6353,0,0,897,897,0,0,0,0,0,0,0,0,0,0,897,897,0,0,6355,6356,6356,6356,6356,6356,6356,6356,6356,6331,6357,0,0,0,0,0,0,0,0,0,0,0,0,0,0,0,
65,65,65,65,65,6328,0,0,0,0,0,0,0,0,0,0,0,0,0,0,0,0,0,0,0,0,0,0,0,0,0,0,0,0,0,0,0,0,0,0,0,0,0,0,0,0,0,0,0,0,
65,65,65,65,65,6382,6383,6356,6356,6356,6356,6356,6331,6356,6356,6356,6356,6356,6356,6331,6356,6356,6356,6356,0,0,0,0,0,0,0,0,0,0,0,6356,6356,6356,6356,6356,6356,6356,6356,6356,6331,6356,6356,6356,6356,0,
65,65,65,65,65,0,0,0,0,0,0,0,0,0,0,0,0,0,0,0,0,0,0,0,0,0,0,0,0,0,0,0,0,0,0,0,0,0,0,0,0,0,0,0,0,0,0,0,0,0
</data>
 </layer>
 <layer id="5" name="Front2" width="50" height="30">
  <properties>
   <property name="Draw" value="Back"/>
  </properties>
  <data encoding="csv">
0,0,0,0,0,0,0,0,0,0,0,0,0,0,0,0,0,0,0,0,0,0,0,0,0,0,0,0,0,0,0,0,0,0,0,0,0,0,0,0,0,0,0,0,0,0,0,0,0,0,
0,0,0,0,0,0,0,0,0,0,2296,0,0,0,0,0,0,0,0,0,0,0,0,0,0,0,0,0,0,0,0,0,0,0,0,0,0,0,0,0,0,0,0,0,0,0,0,0,0,0,
0,0,0,0,0,0,0,0,0,0,0,0,0,0,0,0,0,0,0,0,0,0,0,0,0,0,0,0,0,0,0,0,0,0,0,0,0,0,0,0,0,0,0,0,0,0,0,0,0,0,
0,0,0,0,0,0,0,0,0,0,0,0,0,0,0,0,0,0,0,0,0,0,0,0,0,0,0,0,0,0,0,0,0,0,0,0,0,0,0,0,0,0,0,0,0,0,0,0,0,0,
0,2685,0,0,0,0,0,0,0,0,0,0,0,0,0,0,0,0,0,0,0,0,0,0,0,0,0,0,0,0,0,0,0,0,0,0,0,0,0,0,0,0,0,0,0,0,0,0,0,0,
0,2717,0,0,0,0,0,0,0,0,0,0,0,0,0,0,0,0,0,0,0,0,0,0,0,0,0,0,0,0,0,0,0,0,0,0,0,0,0,0,0,0,0,0,0,0,0,0,0,0,
0,0,0,0,0,0,0,0,0,0,0,0,0,0,0,0,0,0,0,0,0,0,0,0,0,0,0,0,0,0,0,0,0,0,0,0,0,0,0,0,0,0,0,0,0,0,0,0,0,0,
0,0,0,0,0,0,0,0,0,0,0,0,0,0,0,0,0,0,0,0,0,0,0,0,0,0,0,0,0,0,0,0,0,0,0,0,0,0,0,0,0,0,0,0,0,0,0,0,0,0,
0,716,0,0,0,0,0,0,0,0,0,0,0,0,0,0,0,0,0,0,0,0,0,0,0,0,0,0,0,0,0,0,0,0,0,0,0,0,0,0,0,0,0,0,0,0,0,0,0,0,
0,0,0,0,0,0,0,0,0,0,0,0,0,0,0,0,0,0,0,0,0,0,0,0,0,0,0,0,0,0,0,0,0,0,0,0,0,0,0,0,0,0,0,0,0,0,0,0,0,0,
0,0,0,0,0,0,0,0,0,0,0,0,0,0,0,0,0,0,0,0,0,0,0,0,0,0,0,0,0,0,0,0,0,0,0,0,0,0,0,0,0,0,0,0,0,0,0,0,0,0,
0,0,0,0,0,0,0,0,0,0,0,0,0,0,0,0,0,0,0,0,0,0,0,0,0,0,0,0,0,0,0,0,0,0,0,0,0,0,0,0,0,0,0,0,0,0,0,0,0,0,
0,0,0,0,0,0,0,0,0,0,0,0,0,0,0,0,0,0,0,0,0,0,0,0,0,0,0,0,0,0,0,0,0,0,0,0,0,0,0,0,0,0,0,0,0,0,0,0,0,0,
0,0,0,0,0,0,0,0,0,0,0,0,0,0,0,0,0,0,0,0,0,0,0,0,0,0,0,0,0,0,0,0,0,0,0,0,0,0,0,0,0,0,0,0,0,0,0,0,0,0,
0,0,0,0,0,0,0,0,0,0,0,0,0,0,0,0,0,0,0,0,0,0,0,0,0,0,0,0,0,0,0,0,0,0,0,0,0,0,0,0,0,0,0,0,0,0,0,0,0,0,
0,0,0,0,0,0,0,0,0,0,0,0,0,0,0,0,0,0,0,0,0,0,0,0,0,0,0,0,0,0,0,0,0,0,0,0,0,0,0,0,0,0,0,0,0,0,0,0,0,0,
0,0,0,0,0,0,0,0,0,0,0,0,0,0,0,0,0,0,0,0,0,0,0,0,0,0,0,0,0,0,0,0,0,0,0,0,0,0,0,0,0,0,0,0,0,0,0,0,0,0,
0,0,0,0,0,0,0,0,0,0,0,0,0,0,0,0,0,0,0,0,0,0,0,0,0,0,0,0,0,0,0,0,0,0,0,0,0,0,0,0,0,0,0,0,0,0,0,0,0,0,
0,0,0,0,0,0,0,0,0,0,0,0,0,0,0,0,0,0,0,0,0,0,0,0,0,0,0,0,0,0,0,0,0,0,0,0,0,0,0,0,0,0,0,0,0,0,0,0,0,0,
0,0,0,0,0,0,0,0,0,0,0,0,0,0,0,0,0,0,0,0,0,0,0,0,0,0,0,0,0,0,0,0,0,0,0,0,0,0,0,0,0,0,0,0,0,0,0,0,0,0,
0,0,0,0,0,0,0,0,0,0,0,0,0,0,0,0,0,0,0,0,0,0,0,0,0,0,0,0,0,0,0,0,0,0,0,0,0,0,0,0,0,0,0,0,0,0,0,0,0,0,
0,0,0,0,0,0,0,0,0,0,0,0,0,0,0,0,0,0,0,0,0,0,0,0,0,0,0,0,0,0,0,0,0,0,0,0,0,0,0,0,0,0,0,0,0,0,0,0,0,0,
0,0,0,0,0,0,0,0,0,0,0,0,0,0,0,0,0,0,0,0,0,0,0,0,0,0,0,0,0,0,0,0,0,0,0,0,0,0,0,0,0,0,0,0,0,0,0,0,0,0,
0,226,227,0,0,0,0,0,0,0,0,0,0,0,0,0,0,0,0,0,0,0,0,0,0,0,0,0,0,0,0,0,0,0,0,0,0,0,0,0,0,0,0,0,0,0,0,0,0,0,
0,0,0,0,0,0,0,0,0,0,0,0,0,0,0,0,0,0,0,0,0,0,0,0,0,0,0,0,0,0,0,0,0,0,0,0,0,0,0,0,0,0,0,0,0,0,0,0,0,0,
0,0,0,0,0,0,0,0,0,0,0,0,0,0,0,0,0,0,0,0,0,0,0,0,0,0,0,0,0,0,0,0,0,0,0,0,0,0,0,0,0,0,0,0,0,0,0,0,0,0,
0,0,0,0,0,0,0,0,0,0,0,0,0,0,0,0,0,0,0,0,0,0,0,0,0,0,0,0,0,0,0,0,0,0,0,0,0,0,0,0,0,0,0,0,0,0,0,0,0,0,
0,0,0,0,0,0,0,0,0,0,0,0,0,0,0,0,0,0,0,0,0,0,0,0,0,0,0,0,0,0,0,0,0,0,0,0,0,0,0,0,0,0,0,0,0,0,0,0,0,0,
0,0,0,0,0,0,0,0,0,0,0,0,0,0,0,0,0,0,0,0,0,0,0,0,0,0,0,0,0,0,0,0,0,0,0,0,0,0,0,0,0,0,0,0,0,0,0,0,0,0,
0,0,0,0,0,0,0,0,0,0,0,0,0,0,0,0,0,0,0,0,0,0,0,0,0,0,0,0,0,0,0,0,0,0,0,0,0,0,0,0,0,0,0,0,0,0,0,0,0,0
</data>
 </layer>
 <layer id="6" name="Paths" width="50" height="30">
  <data encoding="csv">
0,0,0,0,0,0,0,0,0,0,0,0,0,0,0,0,0,0,0,0,0,0,0,0,0,0,0,0,0,0,0,0,0,0,0,0,0,0,0,0,0,0,0,0,0,0,0,0,0,0,
0,0,0,0,0,0,0,0,0,0,0,0,0,0,0,0,0,0,0,0,0,0,0,0,0,0,0,0,0,0,0,0,0,0,0,0,0,0,0,0,0,0,0,0,0,0,0,0,0,0,
0,0,0,0,0,0,0,0,0,0,0,0,0,0,0,0,0,0,0,0,0,0,0,0,0,0,0,0,0,0,0,0,0,0,0,0,0,0,0,0,0,0,0,0,0,0,0,0,0,0,
0,0,0,0,0,0,0,0,0,0,0,0,0,0,0,0,0,0,0,0,0,0,0,0,0,0,0,0,0,0,0,0,0,0,0,0,0,0,0,0,0,0,0,0,0,0,0,0,0,0,
0,0,0,0,0,0,0,1492,0,0,9,0,9,0,0,0,0,0,0,0,0,0,0,0,0,0,0,0,0,0,0,0,0,0,0,0,0,0,0,0,0,0,0,0,0,0,0,0,0,0,
0,0,0,0,0,0,0,0,0,0,0,0,0,0,0,0,9,0,9,0,9,0,0,0,0,0,0,0,0,0,0,0,9,0,0,0,0,0,0,0,0,0,0,0,0,0,0,0,0,0,
0,0,0,0,0,9,0,0,0,0,0,0,0,0,0,0,0,0,0,0,0,0,0,0,0,0,9,0,0,9,0,0,0,9,0,0,9,0,0,0,9,0,0,0,0,0,9,0,9,0,
0,0,0,0,0,0,0,0,0,0,0,0,0,0,0,0,0,0,0,0,0,0,0,0,0,0,0,0,0,0,0,0,0,0,0,0,0,0,0,0,0,0,0,9,0,0,0,0,0,0,
0,0,0,9,0,0,0,0,0,0,0,0,0,0,0,0,0,0,0,0,0,0,0,0,0,0,0,0,0,0,0,0,0,0,0,0,0,0,0,0,0,0,0,0,0,0,0,0,0,0,
0,0,0,0,0,0,0,0,0,0,0,0,9,0,0,0,0,0,0,0,0,0,0,0,0,0,9,0,0,9,0,0,9,0,0,9,0,0,0,0,0,0,0,0,0,0,0,0,0,0,
0,0,0,0,0,0,0,0,0,0,0,0,0,0,0,0,0,0,0,0,0,0,0,0,1490,1492,0,0,0,0,0,0,0,0,0,0,0,0,0,0,0,0,0,0,0,0,0,0,0,0,
0,0,0,9,0,0,0,0,0,0,0,0,0,0,0,0,0,0,0,0,0,0,0,0,0,0,0,0,0,0,0,0,0,0,0,0,0,0,0,0,0,0,0,0,0,0,0,0,0,0,
0,0,0,0,0,0,0,0,0,0,9,0,0,0,9,0,0,0,0,0,0,0,0,0,0,0,0,0,0,0,0,0,0,0,0,0,0,0,0,0,0,0,0,0,0,0,0,0,0,0,
0,0,0,9,0,0,0,0,0,0,0,0,0,0,0,0,0,0,0,0,9,0,0,0,0,0,0,0,0,0,0,0,9,0,0,0,0,0,0,0,0,0,0,0,0,0,0,0,0,0,
0,0,0,0,0,0,0,0,9,0,0,0,0,0,0,0,0,0,0,0,0,0,0,0,9,0,0,0,0,0,0,0,0,0,0,0,0,0,0,0,0,0,0,0,0,0,0,0,0,0,
0,0,0,0,0,0,9,0,0,0,0,0,0,0,9,0,0,0,0,0,0,0,0,0,0,0,0,0,0,0,9,0,0,0,9,0,0,0,0,0,0,0,0,0,0,0,9,0,0,0,
0,0,0,0,0,0,0,0,0,0,0,0,0,0,0,0,0,0,0,0,0,0,0,0,0,0,0,0,0,0,0,0,0,0,0,0,0,0,0,0,0,0,0,9,0,0,0,0,0,0,
0,0,0,0,0,0,0,0,0,0,0,0,0,0,0,0,0,0,0,0,0,0,0,0,0,0,0,0,0,0,0,0,0,0,0,0,0,0,0,0,0,0,0,0,0,0,0,0,0,0,
0,0,0,0,0,0,0,0,0,0,0,0,0,0,0,0,0,0,0,0,0,0,0,0,0,0,0,0,0,0,0,0,0,0,0,0,0,0,0,0,0,0,0,0,0,0,0,0,0,0,
0,0,0,0,0,0,0,0,0,0,0,0,0,0,0,0,0,0,0,0,0,0,9,0,0,0,0,0,0,0,0,0,0,0,0,0,0,0,9,0,0,0,0,0,0,0,0,0,0,0,
0,0,0,0,0,0,0,0,0,0,0,0,0,0,0,0,0,0,0,0,0,0,0,0,0,0,0,0,0,0,0,0,0,0,0,0,0,0,0,0,0,0,0,0,0,0,0,0,0,0,
0,0,0,0,0,0,0,0,0,0,0,0,0,9,0,0,0,0,0,0,0,0,0,0,0,0,0,0,9,0,0,0,0,0,0,0,0,0,0,0,0,0,0,0,0,0,0,0,0,0,
0,0,0,0,0,0,0,0,0,0,0,0,0,0,0,0,0,0,0,0,0,0,0,0,0,0,0,0,0,0,0,0,0,0,0,0,0,0,0,0,0,0,0,0,0,0,0,0,0,0,
0,0,0,0,0,0,0,0,0,0,0,0,0,0,0,0,0,0,0,0,0,0,0,0,0,0,0,0,0,0,0,0,0,0,0,0,0,0,0,0,0,0,0,0,0,0,0,0,0,0,
0,0,0,9,0,0,0,9,0,0,0,0,0,0,0,0,0,0,0,0,0,0,0,0,0,0,0,0,0,0,0,0,0,0,0,0,0,0,9,0,0,0,0,0,0,0,9,0,0,0,
0,0,0,0,0,0,0,0,0,0,0,0,0,0,0,0,9,0,0,0,0,0,0,0,0,0,0,0,0,0,0,0,0,0,0,0,0,0,0,0,0,0,9,0,0,0,0,0,0,0,
0,0,0,0,0,0,0,0,0,0,0,0,0,0,0,0,0,0,0,0,0,0,0,0,0,0,0,0,0,0,0,0,0,0,0,0,0,0,0,0,0,0,0,0,0,0,0,0,0,0,
0,0,0,0,0,0,0,0,0,0,0,0,0,0,0,0,0,0,0,0,0,0,9,0,0,0,0,0,0,0,0,0,0,0,0,0,0,0,0,0,0,0,0,0,0,0,0,0,0,0,
0,0,0,0,0,0,0,0,0,0,0,0,0,0,0,0,0,0,0,0,0,0,0,0,0,0,0,0,0,0,0,0,0,0,0,0,0,0,0,0,0,0,0,0,0,0,0,0,0,0,
0,0,0,0,0,0,0,0,0,0,0,0,0,0,0,0,0,0,0,0,0,0,0,0,0,0,0,0,0,0,0,0,0,0,0,0,0,0,0,0,0,0,0,0,0,0,0,0,0,0
</data>
 </layer>
 <layer id="7" name="AlwaysFront" width="50" height="30">
  <data encoding="csv">
0,0,0,0,0,0,0,0,0,0,0,0,0,0,0,0,0,0,0,0,0,0,0,0,0,0,0,0,0,0,0,0,0,0,0,0,0,0,0,0,0,0,0,0,0,0,0,0,0,0,
0,0,0,0,0,0,0,0,0,0,0,0,0,0,0,0,0,0,0,0,0,0,0,0,0,0,0,0,0,0,0,0,0,0,0,0,0,0,0,0,0,0,0,0,0,0,0,0,0,0,
0,0,0,0,0,0,0,0,1526,0,0,0,0,0,0,0,0,0,0,0,0,0,0,0,0,0,0,0,0,0,0,0,0,0,0,0,0,400,401,402,0,0,0,0,0,0,0,0,0,0,
0,0,0,0,0,0,0,0,0,0,0,0,0,0,0,0,0,0,0,0,0,0,0,0,0,0,0,0,0,0,0,0,0,0,0,0,0,0,0,0,0,0,0,0,0,0,0,0,0,0,
0,0,0,0,0,0,0,0,0,0,0,0,0,0,0,0,0,0,0,0,0,0,0,0,0,0,0,0,0,0,0,0,0,0,0,0,0,0,0,0,0,0,0,0,0,0,0,0,0,0,
0,1526,0,0,0,0,0,0,0,801,644,705,705,645,0,0,0,0,0,0,0,0,0,0,0,0,0,0,0,0,0,0,0,0,0,0,0,0,0,0,0,0,0,0,0,0,0,0,0,0,
0,0,0,0,0,0,0,0,0,833,676,835,737,677,0,644,705,705,705,705,645,801,0,0,0,0,0,0,0,0,0,0,0,0,0,0,0,0,0,0,0,0,0,0,0,0,0,0,0,0,
0,0,0,0,0,0,0,894,0,833,0,0,0,0,0,0,0,0,0,0,0,0,0,0,0,0,0,0,0,0,0,0,0,0,0,0,0,0,0,0,0,0,0,0,0,0,0,0,0,0,
0,0,0,0,0,0,0,0,0,833,0,0,0,0,0,0,0,0,0,0,0,0,0,0,0,0,0,0,0,0,0,0,0,0,0,0,0,0,0,0,0,0,0,0,0,0,0,0,0,0,
0,0,0,0,0,0,0,0,0,833,0,0,0,0,0,0,0,0,0,0,0,0,0,0,0,0,0,0,0,0,0,0,0,0,0,0,0,0,0,0,0,0,0,0,0,0,0,0,0,0,
0,0,0,0,0,0,0,0,0,833,0,0,0,0,0,0,0,0,0,0,0,0,0,0,0,0,0,0,0,0,0,0,0,0,0,0,0,0,0,0,0,0,0,0,0,0,0,0,0,0,
0,0,0,0,0,0,0,0,0,865,0,0,0,0,0,0,0,0,0,0,0,0,0,0,0,0,0,0,0,0,0,0,0,0,0,0,0,0,0,0,0,0,0,0,0,0,0,0,0,0,
0,0,0,0,0,0,0,0,0,0,0,0,0,0,0,0,0,0,0,0,0,0,0,0,0,0,0,0,0,0,0,0,0,0,0,0,0,0,0,0,0,0,0,0,0,0,0,0,0,0,
0,0,0,0,0,0,0,0,0,0,0,0,0,0,0,0,0,0,0,0,0,0,0,0,0,0,0,0,0,0,0,0,0,0,0,0,0,0,0,0,0,0,0,0,0,0,0,0,0,0,
0,0,0,0,0,0,0,0,0,0,0,0,0,0,0,0,0,0,0,0,0,0,0,0,0,0,0,0,0,0,0,0,0,0,0,0,0,0,0,0,0,0,0,0,0,0,0,0,0,0,
0,0,0,0,0,0,0,0,0,0,0,0,0,0,0,0,0,0,0,0,0,0,0,0,0,0,0,0,0,0,0,0,0,0,0,0,0,0,0,0,0,0,0,0,0,0,0,0,0,0,
0,0,0,0,0,0,0,0,0,0,0,0,0,0,0,0,0,0,0,0,0,0,0,0,0,0,0,0,0,0,0,0,0,0,0,0,0,0,0,0,0,0,0,0,0,0,0,0,0,0,
0,0,0,0,0,0,0,0,0,0,0,0,0,0,0,0,0,0,0,0,0,0,0,0,0,0,0,0,0,0,0,0,0,0,0,0,0,0,0,0,0,0,0,0,0,0,0,0,0,0,
0,0,0,0,0,0,0,0,0,0,0,0,0,0,0,0,0,0,0,0,0,0,0,0,0,0,0,0,0,0,0,0,0,0,0,0,0,0,0,0,0,0,0,0,0,0,0,0,0,0,
0,0,0,0,0,0,0,0,0,0,0,0,0,0,0,0,0,0,0,0,0,0,0,0,0,0,0,0,0,0,0,0,0,0,0,0,0,0,0,0,0,0,0,0,0,0,0,0,0,0,
0,0,0,0,0,0,0,0,801,801,0,0,0,0,0,0,0,0,0,0,801,801,0,0,0,0,0,0,0,0,0,0,0,0,0,0,0,0,0,0,0,0,0,0,0,0,0,0,0,0,
0,0,0,0,0,0,0,0,833,833,0,0,0,0,0,0,0,0,0,0,0,0,0,0,0,0,0,0,0,0,0,0,0,0,0,0,0,0,0,0,0,0,0,0,0,0,0,0,0,0,
0,0,0,0,0,0,0,0,833,833,0,0,0,0,0,0,0,0,0,0,0,0,0,0,0,0,0,0,0,0,0,0,0,0,0,0,0,0,0,0,0,0,0,0,0,0,0,0,0,0,
6382,6383,6357,0,0,0,0,0,833,833,0,0,0,0,0,0,0,0,0,0,0,0,0,0,0,0,0,0,0,0,0,0,0,0,0,0,0,0,0,0,0,0,0,0,0,0,0,0,0,0,
0,0,0,0,0,0,0,0,833,833,0,0,0,0,0,0,0,0,0,0,0,0,0,0,0,0,0,0,0,0,0,0,0,0,0,0,0,0,0,0,0,0,0,0,0,0,0,0,0,0,
0,0,0,0,0,0,0,0,865,865,0,0,0,0,0,0,0,0,0,0,0,0,0,0,0,0,0,0,0,0,0,0,0,0,0,0,0,0,0,0,0,0,0,0,0,0,0,0,0,0,
0,0,0,0,0,0,0,0,0,0,0,0,0,0,0,0,0,0,0,0,0,0,0,0,0,0,0,0,0,0,0,0,0,0,0,0,0,0,0,0,0,0,0,0,0,0,0,0,0,0,
0,0,0,0,0,0,0,0,0,0,0,0,0,0,0,0,0,0,0,0,0,0,0,0,0,0,0,0,0,0,0,0,0,0,0,0,0,0,0,0,0,0,0,0,0,0,0,0,0,0,
0,0,0,0,0,0,0,0,0,0,0,0,0,0,0,0,0,0,0,0,0,0,0,0,0,0,0,0,0,0,0,0,0,0,0,0,0,0,0,0,0,0,0,0,0,0,0,0,0,0,
0,0,0,0,0,0,0,0,0,0,0,0,0,0,0,0,0,0,0,0,0,0,0,0,0,0,0,0,0,0,0,0,0,0,0,0,0,0,0,0,0,0,0,0,0,0,0,0,0,0
</data>
 </layer>
 <objectgroup id="8" name="Back"/>
 <objectgroup id="9" name="Back2"/>
 <objectgroup id="10" name="Buildings">
  <object id="1" name="TileData" x="144" y="64" width="16" height="16">
   <properties>
    <property name="Action" value="Notes 4"/>
   </properties>
  </object>
  <object id="2" name="TileData" x="160" y="64" width="16" height="16">
   <properties>
    <property name="Action" value="Notes 5"/>
   </properties>
  </object>
  <object id="3" name="TileData" x="176" y="64" width="16" height="16">
   <properties>
    <property name="Action" value="Notes 6"/>
   </properties>
  </object>
  <object id="4" name="TileData" x="192" y="64" width="16" height="16">
   <properties>
    <property name="Action" value="Notes 7"/>
   </properties>
  </object>
  <object id="5" name="TileData" x="208" y="64" width="16" height="16">
   <properties>
    <property name="Action" value="Notes 8"/>
   </properties>
  </object>
  <object id="6" name="TileData" x="240" y="64" width="16" height="16">
   <properties>
    <property name="Action" value="Notes 9"/>
   </properties>
  </object>
  <object id="7" name="TileData" x="256" y="64" width="16" height="16">
   <properties>
    <property name="Action" value="Notes 10"/>
   </properties>
  </object>
  <object id="8" name="TileData" x="272" y="64" width="16" height="16">
   <properties>
    <property name="Action" value="Notes 11"/>
   </properties>
  </object>
  <object id="9" name="TileData" x="304" y="64" width="16" height="16">
   <properties>
    <property name="Action" value="Notes 12"/>
   </properties>
  </object>
  <object id="10" name="TileData" x="320" y="64" width="16" height="16">
   <properties>
    <property name="Action" value="Notes 13"/>
   </properties>
  </object>
  <object id="11" name="TileData" x="336" y="64" width="16" height="16">
   <properties>
    <property name="Action" value="Notes 14"/>
   </properties>
  </object>
  <object id="12" name="TileData" x="144" y="112" width="16" height="16">
   <properties>
    <property name="Action" value="Notes 20"/>
   </properties>
  </object>
  <object id="13" name="TileData" x="144" y="128" width="16" height="16">
   <properties>
    <property name="Action" value="Notes 19"/>
   </properties>
  </object>
  <object id="14" name="TileData" x="176" y="128" width="16" height="16">
   <properties>
    <property name="Action" value="Notes 15"/>
   </properties>
  </object>
  <object id="15" name="TileData" x="192" y="128" width="16" height="16">
   <properties>
    <property name="Action" value="Notes 16"/>
   </properties>
  </object>
  <object id="16" name="TileData" x="208" y="128" width="16" height="16">
   <properties>
    <property name="Action" value="Notes 17"/>
   </properties>
  </object>
  <object id="17" name="TileData" x="240" y="128" width="16" height="16">
   <properties>
    <property name="Action" value="Message &quot;ArchaeologyHouse.1&quot;"/>
   </properties>
  </object>
  <object id="18" name="TileData" x="256" y="128" width="16" height="16">
   <properties>
    <property name="Action" value="Message &quot;ArchaeologyHouse.2&quot;"/>
   </properties>
  </object>
  <object id="19" name="TileData" x="272" y="128" width="16" height="16">
   <properties>
    <property name="Action" value="Message &quot;ArchaeologyHouse.3&quot;"/>
   </properties>
  </object>
  <object id="20" name="TileData" x="288" y="128" width="16" height="16">
   <properties>
    <property name="Action" value="Message &quot;ArchaeologyHouse.4&quot;"/>
   </properties>
  </object>
  <object id="21" name="TileData" x="304" y="128" width="16" height="16">
   <properties>
    <property name="Action" value="Message &quot;ArchaeologyHouse.5&quot;"/>
   </properties>
  </object>
  <object id="22" name="TileData" x="336" y="128" width="16" height="16">
   <properties>
    <property name="Action" value="Message &quot;ArchaeologyHouse.6&quot;"/>
   </properties>
  </object>
  <object id="23" name="TileData" x="32" y="144" width="16" height="16">
   <properties>
    <property name="Action" value="Rearrange"/>
   </properties>
  </object>
  <object id="24" name="TileData" x="48" y="144" width="16" height="16">
   <properties>
    <property name="Action" value="Gunther"/>
   </properties>
  </object>
  <object id="25" name="TileData" x="96" y="144" width="16" height="16">
   <properties>
    <property name="Action" value="DropBox GuntherBox"/>
   </properties>
  </object>
  <object id="26" name="TileData" x="144" y="144" width="16" height="16">
   <properties>
    <property name="Action" value="Notes 18"/>
   </properties>
  </object>
  <object id="27" name="TileData" x="320" y="144" width="16" height="16">
   <properties>
    <property name="Action" value="Message &quot;ArchaeologyHouse.7&quot;"/>
   </properties>
  </object>
  <object id="28" name="TileData" x="336" y="144" width="16" height="16">
   <properties>
    <property name="Action" value="Message &quot;ArchaeologyHouse.8&quot;"/>
   </properties>
  </object>
  <object id="29" name="TileData" x="144" y="160" width="16" height="16">
   <properties>
    <property name="Action" value="Notes 3"/>
   </properties>
  </object>
  <object id="30" name="TileData" x="336" y="160" width="16" height="16">
   <properties>
    <property name="Action" value="Message &quot;ArchaeologyHouse.9&quot;"/>
   </properties>
  </object>
  <object id="31" name="TileData" x="144" y="176" width="16" height="16">
   <properties>
    <property name="Action" value="Notes 2"/>
   </properties>
  </object>
  <object id="32" name="TileData" x="144" y="192" width="16" height="16">
   <properties>
    <property name="Action" value="Notes 1"/>
   </properties>
  </object>
  <object id="33" name="TileData" x="144" y="208" width="16" height="16">
   <properties>
    <property name="Action" value="Notes 0"/>
   </properties>
  </object>
 </objectgroup>
 <objectgroup id="11" name="Front">
  <object id="34" name="TileData" x="144" y="192" width="16" height="16">
   <properties>
    <property name="Action" value="Notes 1"/>
   </properties>
  </object>
 </objectgroup>
 <objectgroup id="12" name="Front2"/>
 <objectgroup id="13" name="Paths"/>
 <objectgroup id="14" name="AlwaysFront">
  <object id="35" name="TileData" x="144" y="144" width="16" height="16">
   <properties>
    <property name="Action" value="Notes 18"/>
   </properties>
  </object>
  <object id="36" name="TileData" x="144" y="160" width="16" height="16">
   <properties>
    <property name="Action" value="Notes 3"/>
   </properties>
  </object>
  <object id="37" name="TileData" x="144" y="176" width="16" height="16">
   <properties>
    <property name="Action" value="Notes 2"/>
   </properties>
  </object>
 </objectgroup>
</map>
