<?xml version="1.0" encoding="UTF-8"?>
<map version="1.10" tiledversion="1.11.2" orientation="orthogonal" renderorder="right-down" compressionlevel="0" width="120" height="120" tilewidth="16" tileheight="16" infinite="0" nextlayerid="23" nextobjectid="41">
 <properties>
  <property name="BrookSounds" value="54 99 5 64 101 4 40 66 5 63 69 4"/>
  <property name="LoadTreesFrom" value="Forest"/>
 </properties>
 <tileset firstgid="1" name="characters" tilewidth="16" tileheight="16" tilecount="144" columns="8">
  <image source=".characterSheet.png" width="128" height="288"/>
 </tileset>
 <tileset firstgid="145" name="fest" tilewidth="16" tileheight="16" tilecount="1024" columns="32">
  <image source=".Festivals.png" width="512" height="512"/>
  <tile id="746">
   <animation>
    <frame tileid="746" duration="400"/>
    <frame tileid="747" duration="400"/>
    <frame tileid="748" duration="400"/>
   </animation>
  </tile>
  <tile id="778">
   <animation>
    <frame tileid="778" duration="400"/>
    <frame tileid="779" duration="400"/>
    <frame tileid="780" duration="400"/>
   </animation>
  </tile>
  <tile id="812">
   <properties>
    <property name="Type" value="Stone"/>
   </properties>
  </tile>
  <tile id="841">
   <properties>
    <property name="Type" value="Stone"/>
   </properties>
  </tile>
  <tile id="844">
   <properties>
    <property name="Type" value="Stone"/>
   </properties>
  </tile>
  <tile id="876">
   <properties>
    <property name="Type" value="Stone"/>
   </properties>
  </tile>
  <tile id="904">
   <properties>
    <property name="Type" value="Stone"/>
   </properties>
  </tile>
  <tile id="905">
   <properties>
    <property name="Water" value="T"/>
   </properties>
  </tile>
  <tile id="906">
   <properties>
    <property name="Water" value="T"/>
   </properties>
  </tile>
  <tile id="908">
   <properties>
    <property name="Type" value="Stone"/>
   </properties>
  </tile>
  <tile id="937">
   <properties>
    <property name="Water" value="T"/>
   </properties>
  </tile>
  <tile id="938">
   <properties>
    <property name="Water" value="T"/>
   </properties>
  </tile>
  <tile id="939">
   <properties>
    <property name="Water" value="T"/>
   </properties>
  </tile>
  <tile id="940">
   <properties>
    <property name="Water" value="T"/>
   </properties>
  </tile>
  <tile id="942">
   <animation>
    <frame tileid="942" duration="100"/>
    <frame tileid="942" duration="100"/>
    <frame tileid="942" duration="100"/>
    <frame tileid="942" duration="100"/>
    <frame tileid="942" duration="100"/>
    <frame tileid="942" duration="100"/>
    <frame tileid="942" duration="100"/>
    <frame tileid="942" duration="100"/>
    <frame tileid="945" duration="100"/>
    <frame tileid="946" duration="100"/>
    <frame tileid="945" duration="100"/>
    <frame tileid="942" duration="100"/>
    <frame tileid="942" duration="100"/>
    <frame tileid="942" duration="100"/>
    <frame tileid="942" duration="100"/>
    <frame tileid="942" duration="100"/>
    <frame tileid="942" duration="100"/>
    <frame tileid="942" duration="100"/>
    <frame tileid="942" duration="100"/>
    <frame tileid="942" duration="100"/>
    <frame tileid="942" duration="100"/>
    <frame tileid="942" duration="100"/>
    <frame tileid="942" duration="100"/>
    <frame tileid="942" duration="100"/>
    <frame tileid="942" duration="100"/>
    <frame tileid="942" duration="100"/>
    <frame tileid="942" duration="100"/>
    <frame tileid="942" duration="100"/>
    <frame tileid="942" duration="100"/>
    <frame tileid="942" duration="100"/>
    <frame tileid="942" duration="100"/>
    <frame tileid="942" duration="100"/>
    <frame tileid="942" duration="100"/>
    <frame tileid="942" duration="100"/>
    <frame tileid="942" duration="100"/>
    <frame tileid="942" duration="100"/>
    <frame tileid="945" duration="100"/>
    <frame tileid="946" duration="100"/>
    <frame tileid="945" duration="100"/>
    <frame tileid="942" duration="100"/>
    <frame tileid="942" duration="100"/>
    <frame tileid="942" duration="100"/>
    <frame tileid="942" duration="100"/>
    <frame tileid="942" duration="100"/>
    <frame tileid="945" duration="100"/>
    <frame tileid="946" duration="100"/>
    <frame tileid="945" duration="100"/>
    <frame tileid="942" duration="100"/>
    <frame tileid="942" duration="100"/>
    <frame tileid="942" duration="100"/>
    <frame tileid="942" duration="100"/>
    <frame tileid="942" duration="100"/>
    <frame tileid="942" duration="100"/>
    <frame tileid="942" duration="100"/>
    <frame tileid="942" duration="100"/>
    <frame tileid="942" duration="100"/>
    <frame tileid="942" duration="100"/>
    <frame tileid="942" duration="100"/>
    <frame tileid="942" duration="100"/>
    <frame tileid="942" duration="100"/>
    <frame tileid="942" duration="100"/>
    <frame tileid="942" duration="100"/>
    <frame tileid="942" duration="100"/>
    <frame tileid="942" duration="100"/>
    <frame tileid="942" duration="100"/>
    <frame tileid="942" duration="100"/>
    <frame tileid="942" duration="100"/>
    <frame tileid="942" duration="100"/>
    <frame tileid="942" duration="100"/>
   </animation>
  </tile>
  <tile id="971">
   <properties>
    <property name="Water" value="T"/>
   </properties>
  </tile>
  <tile id="972">
   <properties>
    <property name="Water" value="T"/>
   </properties>
  </tile>
  <tile id="977">
   <animation>
    <frame tileid="977" duration="1000"/>
    <frame tileid="980" duration="1000"/>
   </animation>
  </tile>
  <tile id="978">
   <animation>
    <frame tileid="978" duration="1000"/>
    <frame tileid="981" duration="1000"/>
   </animation>
  </tile>
  <tile id="1008">
   <animation>
    <frame tileid="1008" duration="1000"/>
    <frame tileid="1011" duration="1000"/>
   </animation>
  </tile>
  <tile id="1009">
   <animation>
    <frame tileid="1009" duration="1000"/>
    <frame tileid="1012" duration="1000"/>
   </animation>
  </tile>
  <tile id="1010">
   <animation>
    <frame tileid="1010" duration="1000"/>
    <frame tileid="1013" duration="1000"/>
   </animation>
  </tile>
 </tileset>
 <tileset firstgid="1169" name="v16_Waterfalls" tilewidth="16" tileheight="16" tilecount="900" columns="36">
  <image source=".winter_Waterfalls.png" width="576" height="400"/>
  <tile id="145">
   <animation>
    <frame tileid="145" duration="100"/>
    <frame tileid="151" duration="100"/>
    <frame tileid="157" duration="100"/>
    <frame tileid="163" duration="100"/>
    <frame tileid="169" duration="100"/>
    <frame tileid="175" duration="100"/>
    <frame tileid="397" duration="100"/>
    <frame tileid="403" duration="100"/>
    <frame tileid="409" duration="100"/>
    <frame tileid="415" duration="100"/>
    <frame tileid="421" duration="100"/>
    <frame tileid="427" duration="100"/>
    <frame tileid="649" duration="100"/>
    <frame tileid="655" duration="100"/>
    <frame tileid="661" duration="100"/>
    <frame tileid="667" duration="100"/>
    <frame tileid="673" duration="100"/>
   </animation>
  </tile>
  <tile id="146">
   <animation>
    <frame tileid="146" duration="100"/>
    <frame tileid="152" duration="100"/>
    <frame tileid="158" duration="100"/>
    <frame tileid="164" duration="100"/>
    <frame tileid="170" duration="100"/>
    <frame tileid="176" duration="100"/>
    <frame tileid="398" duration="100"/>
    <frame tileid="404" duration="100"/>
    <frame tileid="410" duration="100"/>
    <frame tileid="416" duration="100"/>
    <frame tileid="422" duration="100"/>
    <frame tileid="428" duration="100"/>
    <frame tileid="650" duration="100"/>
    <frame tileid="656" duration="100"/>
    <frame tileid="662" duration="100"/>
    <frame tileid="668" duration="100"/>
    <frame tileid="674" duration="100"/>
   </animation>
  </tile>
  <tile id="147">
   <animation>
    <frame tileid="147" duration="100"/>
    <frame tileid="153" duration="100"/>
    <frame tileid="159" duration="100"/>
    <frame tileid="165" duration="100"/>
    <frame tileid="171" duration="100"/>
    <frame tileid="177" duration="100"/>
    <frame tileid="399" duration="100"/>
    <frame tileid="405" duration="100"/>
    <frame tileid="411" duration="100"/>
    <frame tileid="417" duration="100"/>
    <frame tileid="423" duration="100"/>
    <frame tileid="429" duration="100"/>
    <frame tileid="651" duration="100"/>
    <frame tileid="657" duration="100"/>
    <frame tileid="663" duration="100"/>
    <frame tileid="669" duration="100"/>
    <frame tileid="675" duration="100"/>
   </animation>
  </tile>
  <tile id="148">
   <animation>
    <frame tileid="148" duration="100"/>
    <frame tileid="154" duration="100"/>
    <frame tileid="160" duration="100"/>
    <frame tileid="166" duration="100"/>
    <frame tileid="172" duration="100"/>
    <frame tileid="178" duration="100"/>
    <frame tileid="400" duration="100"/>
    <frame tileid="406" duration="100"/>
    <frame tileid="412" duration="100"/>
    <frame tileid="418" duration="100"/>
    <frame tileid="424" duration="100"/>
    <frame tileid="430" duration="100"/>
    <frame tileid="652" duration="100"/>
    <frame tileid="658" duration="100"/>
    <frame tileid="664" duration="100"/>
    <frame tileid="670" duration="100"/>
    <frame tileid="676" duration="100"/>
   </animation>
  </tile>
  <tile id="181">
   <animation>
    <frame tileid="181" duration="100"/>
    <frame tileid="187" duration="100"/>
    <frame tileid="193" duration="100"/>
    <frame tileid="199" duration="100"/>
    <frame tileid="205" duration="100"/>
    <frame tileid="211" duration="100"/>
    <frame tileid="433" duration="100"/>
    <frame tileid="439" duration="100"/>
    <frame tileid="445" duration="100"/>
    <frame tileid="451" duration="100"/>
    <frame tileid="457" duration="100"/>
    <frame tileid="463" duration="100"/>
    <frame tileid="685" duration="100"/>
    <frame tileid="691" duration="100"/>
    <frame tileid="697" duration="100"/>
    <frame tileid="703" duration="100"/>
    <frame tileid="709" duration="100"/>
   </animation>
  </tile>
  <tile id="182">
   <animation>
    <frame tileid="182" duration="100"/>
    <frame tileid="188" duration="100"/>
    <frame tileid="194" duration="100"/>
    <frame tileid="200" duration="100"/>
    <frame tileid="206" duration="100"/>
    <frame tileid="212" duration="100"/>
    <frame tileid="434" duration="100"/>
    <frame tileid="440" duration="100"/>
    <frame tileid="446" duration="100"/>
    <frame tileid="452" duration="100"/>
    <frame tileid="458" duration="100"/>
    <frame tileid="464" duration="100"/>
    <frame tileid="686" duration="100"/>
    <frame tileid="692" duration="100"/>
    <frame tileid="698" duration="100"/>
    <frame tileid="704" duration="100"/>
    <frame tileid="710" duration="100"/>
   </animation>
  </tile>
  <tile id="183">
   <animation>
    <frame tileid="183" duration="100"/>
    <frame tileid="189" duration="100"/>
    <frame tileid="195" duration="100"/>
    <frame tileid="201" duration="100"/>
    <frame tileid="207" duration="100"/>
    <frame tileid="213" duration="100"/>
    <frame tileid="435" duration="100"/>
    <frame tileid="441" duration="100"/>
    <frame tileid="447" duration="100"/>
    <frame tileid="453" duration="100"/>
    <frame tileid="459" duration="100"/>
    <frame tileid="465" duration="100"/>
    <frame tileid="687" duration="100"/>
    <frame tileid="693" duration="100"/>
    <frame tileid="699" duration="100"/>
    <frame tileid="705" duration="100"/>
    <frame tileid="711" duration="100"/>
   </animation>
  </tile>
  <tile id="184">
   <animation>
    <frame tileid="184" duration="100"/>
    <frame tileid="190" duration="100"/>
    <frame tileid="196" duration="100"/>
    <frame tileid="202" duration="100"/>
    <frame tileid="208" duration="100"/>
    <frame tileid="214" duration="100"/>
    <frame tileid="436" duration="100"/>
    <frame tileid="442" duration="100"/>
    <frame tileid="448" duration="100"/>
    <frame tileid="454" duration="100"/>
    <frame tileid="460" duration="100"/>
    <frame tileid="466" duration="100"/>
    <frame tileid="688" duration="100"/>
    <frame tileid="694" duration="100"/>
    <frame tileid="700" duration="100"/>
    <frame tileid="706" duration="100"/>
    <frame tileid="712" duration="100"/>
   </animation>
  </tile>
  <tile id="217">
   <animation>
    <frame tileid="217" duration="100"/>
    <frame tileid="223" duration="100"/>
    <frame tileid="229" duration="100"/>
    <frame tileid="235" duration="100"/>
    <frame tileid="241" duration="100"/>
    <frame tileid="247" duration="100"/>
    <frame tileid="469" duration="100"/>
    <frame tileid="475" duration="100"/>
    <frame tileid="481" duration="100"/>
    <frame tileid="487" duration="100"/>
    <frame tileid="493" duration="100"/>
    <frame tileid="499" duration="100"/>
    <frame tileid="721" duration="100"/>
    <frame tileid="727" duration="100"/>
    <frame tileid="733" duration="100"/>
    <frame tileid="739" duration="100"/>
    <frame tileid="745" duration="100"/>
   </animation>
  </tile>
  <tile id="218">
   <animation>
    <frame tileid="218" duration="100"/>
    <frame tileid="224" duration="100"/>
    <frame tileid="230" duration="100"/>
    <frame tileid="236" duration="100"/>
    <frame tileid="242" duration="100"/>
    <frame tileid="248" duration="100"/>
    <frame tileid="470" duration="100"/>
    <frame tileid="476" duration="100"/>
    <frame tileid="482" duration="100"/>
    <frame tileid="488" duration="100"/>
    <frame tileid="494" duration="100"/>
    <frame tileid="500" duration="100"/>
    <frame tileid="722" duration="100"/>
    <frame tileid="728" duration="100"/>
    <frame tileid="734" duration="100"/>
    <frame tileid="740" duration="100"/>
    <frame tileid="746" duration="100"/>
   </animation>
  </tile>
  <tile id="219">
   <animation>
    <frame tileid="219" duration="100"/>
    <frame tileid="225" duration="100"/>
    <frame tileid="231" duration="100"/>
    <frame tileid="237" duration="100"/>
    <frame tileid="243" duration="100"/>
    <frame tileid="249" duration="100"/>
    <frame tileid="471" duration="100"/>
    <frame tileid="477" duration="100"/>
    <frame tileid="483" duration="100"/>
    <frame tileid="489" duration="100"/>
    <frame tileid="495" duration="100"/>
    <frame tileid="501" duration="100"/>
    <frame tileid="723" duration="100"/>
    <frame tileid="729" duration="100"/>
    <frame tileid="735" duration="100"/>
    <frame tileid="741" duration="100"/>
    <frame tileid="747" duration="100"/>
   </animation>
  </tile>
  <tile id="220">
   <animation>
    <frame tileid="220" duration="100"/>
    <frame tileid="226" duration="100"/>
    <frame tileid="232" duration="100"/>
    <frame tileid="238" duration="100"/>
    <frame tileid="244" duration="100"/>
    <frame tileid="250" duration="100"/>
    <frame tileid="472" duration="100"/>
    <frame tileid="478" duration="100"/>
    <frame tileid="484" duration="100"/>
    <frame tileid="490" duration="100"/>
    <frame tileid="496" duration="100"/>
    <frame tileid="502" duration="100"/>
    <frame tileid="724" duration="100"/>
    <frame tileid="730" duration="100"/>
    <frame tileid="736" duration="100"/>
    <frame tileid="742" duration="100"/>
    <frame tileid="748" duration="100"/>
   </animation>
  </tile>
  <tile id="253">
   <animation>
    <frame tileid="253" duration="100"/>
    <frame tileid="259" duration="100"/>
    <frame tileid="265" duration="100"/>
    <frame tileid="271" duration="100"/>
    <frame tileid="277" duration="100"/>
    <frame tileid="283" duration="100"/>
    <frame tileid="505" duration="100"/>
    <frame tileid="511" duration="100"/>
    <frame tileid="517" duration="100"/>
    <frame tileid="523" duration="100"/>
    <frame tileid="529" duration="100"/>
    <frame tileid="535" duration="100"/>
    <frame tileid="757" duration="100"/>
    <frame tileid="763" duration="100"/>
    <frame tileid="769" duration="100"/>
    <frame tileid="775" duration="100"/>
    <frame tileid="781" duration="100"/>
   </animation>
  </tile>
  <tile id="254">
   <animation>
    <frame tileid="254" duration="100"/>
    <frame tileid="260" duration="100"/>
    <frame tileid="266" duration="100"/>
    <frame tileid="272" duration="100"/>
    <frame tileid="278" duration="100"/>
    <frame tileid="284" duration="100"/>
    <frame tileid="506" duration="100"/>
    <frame tileid="512" duration="100"/>
    <frame tileid="518" duration="100"/>
    <frame tileid="524" duration="100"/>
    <frame tileid="530" duration="100"/>
    <frame tileid="536" duration="100"/>
    <frame tileid="758" duration="100"/>
    <frame tileid="764" duration="100"/>
    <frame tileid="770" duration="100"/>
    <frame tileid="776" duration="100"/>
    <frame tileid="782" duration="100"/>
   </animation>
  </tile>
  <tile id="255">
   <animation>
    <frame tileid="255" duration="100"/>
    <frame tileid="261" duration="100"/>
    <frame tileid="267" duration="100"/>
    <frame tileid="273" duration="100"/>
    <frame tileid="279" duration="100"/>
    <frame tileid="285" duration="100"/>
    <frame tileid="507" duration="100"/>
    <frame tileid="513" duration="100"/>
    <frame tileid="519" duration="100"/>
    <frame tileid="525" duration="100"/>
    <frame tileid="531" duration="100"/>
    <frame tileid="537" duration="100"/>
    <frame tileid="759" duration="100"/>
    <frame tileid="765" duration="100"/>
    <frame tileid="771" duration="100"/>
    <frame tileid="777" duration="100"/>
    <frame tileid="783" duration="100"/>
   </animation>
  </tile>
  <tile id="256">
   <animation>
    <frame tileid="256" duration="100"/>
    <frame tileid="262" duration="100"/>
    <frame tileid="268" duration="100"/>
    <frame tileid="274" duration="100"/>
    <frame tileid="280" duration="100"/>
    <frame tileid="286" duration="100"/>
    <frame tileid="508" duration="100"/>
    <frame tileid="514" duration="100"/>
    <frame tileid="520" duration="100"/>
    <frame tileid="526" duration="100"/>
    <frame tileid="532" duration="100"/>
    <frame tileid="538" duration="100"/>
    <frame tileid="760" duration="100"/>
    <frame tileid="766" duration="100"/>
    <frame tileid="772" duration="100"/>
    <frame tileid="778" duration="100"/>
    <frame tileid="784" duration="100"/>
   </animation>
  </tile>
  <tile id="288">
   <animation>
    <frame tileid="288" duration="100"/>
    <frame tileid="294" duration="100"/>
    <frame tileid="300" duration="100"/>
    <frame tileid="306" duration="100"/>
    <frame tileid="312" duration="100"/>
    <frame tileid="318" duration="100"/>
    <frame tileid="540" duration="100"/>
    <frame tileid="546" duration="100"/>
    <frame tileid="552" duration="100"/>
    <frame tileid="558" duration="100"/>
    <frame tileid="564" duration="100"/>
    <frame tileid="570" duration="100"/>
    <frame tileid="792" duration="100"/>
    <frame tileid="798" duration="100"/>
    <frame tileid="804" duration="100"/>
    <frame tileid="810" duration="100"/>
    <frame tileid="816" duration="100"/>
   </animation>
  </tile>
  <tile id="289">
   <animation>
    <frame tileid="289" duration="100"/>
    <frame tileid="295" duration="100"/>
    <frame tileid="301" duration="100"/>
    <frame tileid="307" duration="100"/>
    <frame tileid="313" duration="100"/>
    <frame tileid="319" duration="100"/>
    <frame tileid="541" duration="100"/>
    <frame tileid="547" duration="100"/>
    <frame tileid="553" duration="100"/>
    <frame tileid="559" duration="100"/>
    <frame tileid="565" duration="100"/>
    <frame tileid="571" duration="100"/>
    <frame tileid="793" duration="100"/>
    <frame tileid="799" duration="100"/>
    <frame tileid="805" duration="100"/>
    <frame tileid="811" duration="100"/>
    <frame tileid="817" duration="100"/>
   </animation>
  </tile>
  <tile id="290">
   <animation>
    <frame tileid="290" duration="100"/>
    <frame tileid="296" duration="100"/>
    <frame tileid="302" duration="100"/>
    <frame tileid="308" duration="100"/>
    <frame tileid="314" duration="100"/>
    <frame tileid="320" duration="100"/>
    <frame tileid="542" duration="100"/>
    <frame tileid="548" duration="100"/>
    <frame tileid="554" duration="100"/>
    <frame tileid="560" duration="100"/>
    <frame tileid="566" duration="100"/>
    <frame tileid="572" duration="100"/>
    <frame tileid="794" duration="100"/>
    <frame tileid="800" duration="100"/>
    <frame tileid="806" duration="100"/>
    <frame tileid="812" duration="100"/>
    <frame tileid="818" duration="100"/>
   </animation>
  </tile>
  <tile id="291">
   <animation>
    <frame tileid="291" duration="100"/>
    <frame tileid="297" duration="100"/>
    <frame tileid="303" duration="100"/>
    <frame tileid="309" duration="100"/>
    <frame tileid="315" duration="100"/>
    <frame tileid="321" duration="100"/>
    <frame tileid="543" duration="100"/>
    <frame tileid="549" duration="100"/>
    <frame tileid="555" duration="100"/>
    <frame tileid="561" duration="100"/>
    <frame tileid="567" duration="100"/>
    <frame tileid="573" duration="100"/>
    <frame tileid="795" duration="100"/>
    <frame tileid="801" duration="100"/>
    <frame tileid="807" duration="100"/>
    <frame tileid="813" duration="100"/>
    <frame tileid="819" duration="100"/>
   </animation>
  </tile>
  <tile id="292">
   <animation>
    <frame tileid="292" duration="100"/>
    <frame tileid="298" duration="100"/>
    <frame tileid="304" duration="100"/>
    <frame tileid="310" duration="100"/>
    <frame tileid="316" duration="100"/>
    <frame tileid="322" duration="100"/>
    <frame tileid="544" duration="100"/>
    <frame tileid="550" duration="100"/>
    <frame tileid="556" duration="100"/>
    <frame tileid="562" duration="100"/>
    <frame tileid="568" duration="100"/>
    <frame tileid="574" duration="100"/>
    <frame tileid="796" duration="100"/>
    <frame tileid="802" duration="100"/>
    <frame tileid="808" duration="100"/>
    <frame tileid="814" duration="100"/>
    <frame tileid="820" duration="100"/>
   </animation>
  </tile>
  <tile id="293">
   <animation>
    <frame tileid="293" duration="100"/>
    <frame tileid="299" duration="100"/>
    <frame tileid="305" duration="100"/>
    <frame tileid="311" duration="100"/>
    <frame tileid="317" duration="100"/>
    <frame tileid="323" duration="100"/>
    <frame tileid="545" duration="100"/>
    <frame tileid="551" duration="100"/>
    <frame tileid="557" duration="100"/>
    <frame tileid="563" duration="100"/>
    <frame tileid="569" duration="100"/>
    <frame tileid="575" duration="100"/>
    <frame tileid="797" duration="100"/>
    <frame tileid="803" duration="100"/>
    <frame tileid="809" duration="100"/>
    <frame tileid="815" duration="100"/>
    <frame tileid="821" duration="100"/>
   </animation>
  </tile>
  <tile id="324">
   <animation>
    <frame tileid="324" duration="100"/>
    <frame tileid="330" duration="100"/>
    <frame tileid="336" duration="100"/>
    <frame tileid="342" duration="100"/>
    <frame tileid="348" duration="100"/>
    <frame tileid="354" duration="100"/>
    <frame tileid="576" duration="100"/>
    <frame tileid="582" duration="100"/>
    <frame tileid="588" duration="100"/>
    <frame tileid="594" duration="100"/>
    <frame tileid="600" duration="100"/>
    <frame tileid="606" duration="100"/>
    <frame tileid="828" duration="100"/>
    <frame tileid="834" duration="100"/>
    <frame tileid="840" duration="100"/>
    <frame tileid="846" duration="100"/>
    <frame tileid="852" duration="100"/>
   </animation>
  </tile>
  <tile id="325">
   <animation>
    <frame tileid="325" duration="100"/>
    <frame tileid="331" duration="100"/>
    <frame tileid="337" duration="100"/>
    <frame tileid="343" duration="100"/>
    <frame tileid="349" duration="100"/>
    <frame tileid="355" duration="100"/>
    <frame tileid="577" duration="100"/>
    <frame tileid="583" duration="100"/>
    <frame tileid="589" duration="100"/>
    <frame tileid="595" duration="100"/>
    <frame tileid="601" duration="100"/>
    <frame tileid="607" duration="100"/>
    <frame tileid="829" duration="100"/>
    <frame tileid="835" duration="100"/>
    <frame tileid="841" duration="100"/>
    <frame tileid="847" duration="100"/>
    <frame tileid="853" duration="100"/>
   </animation>
  </tile>
  <tile id="326">
   <animation>
    <frame tileid="326" duration="100"/>
    <frame tileid="332" duration="100"/>
    <frame tileid="338" duration="100"/>
    <frame tileid="344" duration="100"/>
    <frame tileid="350" duration="100"/>
    <frame tileid="356" duration="100"/>
    <frame tileid="578" duration="100"/>
    <frame tileid="584" duration="100"/>
    <frame tileid="590" duration="100"/>
    <frame tileid="596" duration="100"/>
    <frame tileid="602" duration="100"/>
    <frame tileid="608" duration="100"/>
    <frame tileid="830" duration="100"/>
    <frame tileid="836" duration="100"/>
    <frame tileid="842" duration="100"/>
    <frame tileid="848" duration="100"/>
    <frame tileid="854" duration="100"/>
   </animation>
  </tile>
  <tile id="327">
   <animation>
    <frame tileid="327" duration="100"/>
    <frame tileid="333" duration="100"/>
    <frame tileid="339" duration="100"/>
    <frame tileid="345" duration="100"/>
    <frame tileid="351" duration="100"/>
    <frame tileid="357" duration="100"/>
    <frame tileid="579" duration="100"/>
    <frame tileid="585" duration="100"/>
    <frame tileid="591" duration="100"/>
    <frame tileid="597" duration="100"/>
    <frame tileid="603" duration="100"/>
    <frame tileid="609" duration="100"/>
    <frame tileid="831" duration="100"/>
    <frame tileid="837" duration="100"/>
    <frame tileid="843" duration="100"/>
    <frame tileid="849" duration="100"/>
    <frame tileid="855" duration="100"/>
   </animation>
  </tile>
  <tile id="328">
   <animation>
    <frame tileid="328" duration="100"/>
    <frame tileid="334" duration="100"/>
    <frame tileid="340" duration="100"/>
    <frame tileid="346" duration="100"/>
    <frame tileid="352" duration="100"/>
    <frame tileid="358" duration="100"/>
    <frame tileid="580" duration="100"/>
    <frame tileid="586" duration="100"/>
    <frame tileid="592" duration="100"/>
    <frame tileid="598" duration="100"/>
    <frame tileid="604" duration="100"/>
    <frame tileid="610" duration="100"/>
    <frame tileid="832" duration="100"/>
    <frame tileid="838" duration="100"/>
    <frame tileid="844" duration="100"/>
    <frame tileid="850" duration="100"/>
    <frame tileid="856" duration="100"/>
   </animation>
  </tile>
  <tile id="329">
   <animation>
    <frame tileid="329" duration="100"/>
    <frame tileid="335" duration="100"/>
    <frame tileid="341" duration="100"/>
    <frame tileid="347" duration="100"/>
    <frame tileid="353" duration="100"/>
    <frame tileid="359" duration="100"/>
    <frame tileid="581" duration="100"/>
    <frame tileid="587" duration="100"/>
    <frame tileid="593" duration="100"/>
    <frame tileid="599" duration="100"/>
    <frame tileid="605" duration="100"/>
    <frame tileid="611" duration="100"/>
    <frame tileid="833" duration="100"/>
    <frame tileid="839" duration="100"/>
    <frame tileid="845" duration="100"/>
    <frame tileid="851" duration="100"/>
    <frame tileid="857" duration="100"/>
   </animation>
  </tile>
  <tile id="360">
   <animation>
    <frame tileid="360" duration="100"/>
    <frame tileid="366" duration="100"/>
    <frame tileid="372" duration="100"/>
    <frame tileid="378" duration="100"/>
    <frame tileid="384" duration="100"/>
    <frame tileid="390" duration="100"/>
    <frame tileid="612" duration="100"/>
    <frame tileid="618" duration="100"/>
    <frame tileid="624" duration="100"/>
    <frame tileid="630" duration="100"/>
    <frame tileid="636" duration="100"/>
    <frame tileid="642" duration="100"/>
    <frame tileid="864" duration="100"/>
    <frame tileid="870" duration="100"/>
    <frame tileid="876" duration="100"/>
    <frame tileid="882" duration="100"/>
    <frame tileid="888" duration="100"/>
   </animation>
  </tile>
  <tile id="361">
   <animation>
    <frame tileid="361" duration="100"/>
    <frame tileid="367" duration="100"/>
    <frame tileid="373" duration="100"/>
    <frame tileid="379" duration="100"/>
    <frame tileid="385" duration="100"/>
    <frame tileid="391" duration="100"/>
    <frame tileid="613" duration="100"/>
    <frame tileid="619" duration="100"/>
    <frame tileid="625" duration="100"/>
    <frame tileid="631" duration="100"/>
    <frame tileid="637" duration="100"/>
    <frame tileid="643" duration="100"/>
    <frame tileid="865" duration="100"/>
    <frame tileid="871" duration="100"/>
    <frame tileid="877" duration="100"/>
    <frame tileid="883" duration="100"/>
    <frame tileid="889" duration="100"/>
   </animation>
  </tile>
  <tile id="362">
   <animation>
    <frame tileid="362" duration="100"/>
    <frame tileid="368" duration="100"/>
    <frame tileid="374" duration="100"/>
    <frame tileid="380" duration="100"/>
    <frame tileid="386" duration="100"/>
    <frame tileid="392" duration="100"/>
    <frame tileid="614" duration="100"/>
    <frame tileid="620" duration="100"/>
    <frame tileid="626" duration="100"/>
    <frame tileid="632" duration="100"/>
    <frame tileid="638" duration="100"/>
    <frame tileid="644" duration="100"/>
    <frame tileid="866" duration="100"/>
    <frame tileid="872" duration="100"/>
    <frame tileid="878" duration="100"/>
    <frame tileid="884" duration="100"/>
    <frame tileid="890" duration="100"/>
   </animation>
  </tile>
  <tile id="363">
   <animation>
    <frame tileid="363" duration="100"/>
    <frame tileid="369" duration="100"/>
    <frame tileid="375" duration="100"/>
    <frame tileid="381" duration="100"/>
    <frame tileid="387" duration="100"/>
    <frame tileid="393" duration="100"/>
    <frame tileid="615" duration="100"/>
    <frame tileid="621" duration="100"/>
    <frame tileid="627" duration="100"/>
    <frame tileid="633" duration="100"/>
    <frame tileid="639" duration="100"/>
    <frame tileid="645" duration="100"/>
    <frame tileid="867" duration="100"/>
    <frame tileid="873" duration="100"/>
    <frame tileid="879" duration="100"/>
    <frame tileid="885" duration="100"/>
    <frame tileid="891" duration="100"/>
   </animation>
  </tile>
  <tile id="364">
   <animation>
    <frame tileid="364" duration="100"/>
    <frame tileid="370" duration="100"/>
    <frame tileid="376" duration="100"/>
    <frame tileid="382" duration="100"/>
    <frame tileid="388" duration="100"/>
    <frame tileid="394" duration="100"/>
    <frame tileid="616" duration="100"/>
    <frame tileid="622" duration="100"/>
    <frame tileid="628" duration="100"/>
    <frame tileid="634" duration="100"/>
    <frame tileid="640" duration="100"/>
    <frame tileid="646" duration="100"/>
    <frame tileid="868" duration="100"/>
    <frame tileid="874" duration="100"/>
    <frame tileid="880" duration="100"/>
    <frame tileid="886" duration="100"/>
    <frame tileid="892" duration="100"/>
   </animation>
  </tile>
  <tile id="365">
   <animation>
    <frame tileid="365" duration="100"/>
    <frame tileid="371" duration="100"/>
    <frame tileid="377" duration="100"/>
    <frame tileid="383" duration="100"/>
    <frame tileid="389" duration="100"/>
    <frame tileid="395" duration="100"/>
    <frame tileid="617" duration="100"/>
    <frame tileid="623" duration="100"/>
    <frame tileid="629" duration="100"/>
    <frame tileid="635" duration="100"/>
    <frame tileid="641" duration="100"/>
    <frame tileid="647" duration="100"/>
    <frame tileid="869" duration="100"/>
    <frame tileid="875" duration="100"/>
    <frame tileid="881" duration="100"/>
    <frame tileid="887" duration="100"/>
    <frame tileid="893" duration="100"/>
   </animation>
  </tile>
  <tile id="409">
   <animation>
    <frame tileid="409" duration="100"/>
    <frame tileid="415" duration="100"/>
    <frame tileid="421" duration="100"/>
    <frame tileid="427" duration="100"/>
    <frame tileid="649" duration="100"/>
    <frame tileid="655" duration="100"/>
    <frame tileid="661" duration="100"/>
    <frame tileid="667" duration="100"/>
    <frame tileid="673" duration="100"/>
    <frame tileid="145" duration="100"/>
    <frame tileid="151" duration="100"/>
    <frame tileid="157" duration="100"/>
    <frame tileid="163" duration="100"/>
    <frame tileid="169" duration="100"/>
    <frame tileid="175" duration="100"/>
    <frame tileid="397" duration="100"/>
    <frame tileid="403" duration="100"/>
   </animation>
  </tile>
  <tile id="410">
   <animation>
    <frame tileid="410" duration="100"/>
    <frame tileid="416" duration="100"/>
    <frame tileid="422" duration="100"/>
    <frame tileid="428" duration="100"/>
    <frame tileid="650" duration="100"/>
    <frame tileid="656" duration="100"/>
    <frame tileid="662" duration="100"/>
    <frame tileid="668" duration="100"/>
    <frame tileid="674" duration="100"/>
    <frame tileid="146" duration="100"/>
    <frame tileid="152" duration="100"/>
    <frame tileid="158" duration="100"/>
    <frame tileid="164" duration="100"/>
    <frame tileid="170" duration="100"/>
    <frame tileid="176" duration="100"/>
    <frame tileid="398" duration="100"/>
    <frame tileid="404" duration="100"/>
   </animation>
  </tile>
  <tile id="411">
   <animation>
    <frame tileid="411" duration="100"/>
    <frame tileid="417" duration="100"/>
    <frame tileid="423" duration="100"/>
    <frame tileid="429" duration="100"/>
    <frame tileid="651" duration="100"/>
    <frame tileid="657" duration="100"/>
    <frame tileid="663" duration="100"/>
    <frame tileid="669" duration="100"/>
    <frame tileid="675" duration="100"/>
    <frame tileid="147" duration="100"/>
    <frame tileid="153" duration="100"/>
    <frame tileid="159" duration="100"/>
    <frame tileid="165" duration="100"/>
    <frame tileid="171" duration="100"/>
    <frame tileid="177" duration="100"/>
    <frame tileid="399" duration="100"/>
    <frame tileid="405" duration="100"/>
   </animation>
  </tile>
  <tile id="412">
   <animation>
    <frame tileid="412" duration="100"/>
    <frame tileid="418" duration="100"/>
    <frame tileid="424" duration="100"/>
    <frame tileid="430" duration="100"/>
    <frame tileid="652" duration="100"/>
    <frame tileid="658" duration="100"/>
    <frame tileid="664" duration="100"/>
    <frame tileid="670" duration="100"/>
    <frame tileid="676" duration="100"/>
    <frame tileid="148" duration="100"/>
    <frame tileid="154" duration="100"/>
    <frame tileid="160" duration="100"/>
    <frame tileid="166" duration="100"/>
    <frame tileid="172" duration="100"/>
    <frame tileid="178" duration="100"/>
    <frame tileid="400" duration="100"/>
    <frame tileid="406" duration="100"/>
   </animation>
  </tile>
  <tile id="445">
   <animation>
    <frame tileid="445" duration="100"/>
    <frame tileid="451" duration="100"/>
    <frame tileid="457" duration="100"/>
    <frame tileid="463" duration="100"/>
    <frame tileid="685" duration="100"/>
    <frame tileid="691" duration="100"/>
    <frame tileid="697" duration="100"/>
    <frame tileid="703" duration="100"/>
    <frame tileid="709" duration="100"/>
    <frame tileid="181" duration="100"/>
    <frame tileid="187" duration="100"/>
    <frame tileid="193" duration="100"/>
    <frame tileid="199" duration="100"/>
    <frame tileid="205" duration="100"/>
    <frame tileid="211" duration="100"/>
    <frame tileid="433" duration="100"/>
    <frame tileid="439" duration="100"/>
   </animation>
  </tile>
  <tile id="446">
   <animation>
    <frame tileid="446" duration="100"/>
    <frame tileid="452" duration="100"/>
    <frame tileid="458" duration="100"/>
    <frame tileid="464" duration="100"/>
    <frame tileid="686" duration="100"/>
    <frame tileid="692" duration="100"/>
    <frame tileid="698" duration="100"/>
    <frame tileid="704" duration="100"/>
    <frame tileid="710" duration="100"/>
    <frame tileid="182" duration="100"/>
    <frame tileid="188" duration="100"/>
    <frame tileid="194" duration="100"/>
    <frame tileid="200" duration="100"/>
    <frame tileid="206" duration="100"/>
    <frame tileid="212" duration="100"/>
    <frame tileid="434" duration="100"/>
    <frame tileid="440" duration="100"/>
   </animation>
  </tile>
  <tile id="447">
   <animation>
    <frame tileid="447" duration="100"/>
    <frame tileid="453" duration="100"/>
    <frame tileid="459" duration="100"/>
    <frame tileid="465" duration="100"/>
    <frame tileid="687" duration="100"/>
    <frame tileid="693" duration="100"/>
    <frame tileid="699" duration="100"/>
    <frame tileid="705" duration="100"/>
    <frame tileid="711" duration="100"/>
    <frame tileid="183" duration="100"/>
    <frame tileid="189" duration="100"/>
    <frame tileid="195" duration="100"/>
    <frame tileid="201" duration="100"/>
    <frame tileid="207" duration="100"/>
    <frame tileid="213" duration="100"/>
    <frame tileid="435" duration="100"/>
    <frame tileid="441" duration="100"/>
   </animation>
  </tile>
  <tile id="448">
   <animation>
    <frame tileid="448" duration="100"/>
    <frame tileid="454" duration="100"/>
    <frame tileid="460" duration="100"/>
    <frame tileid="466" duration="100"/>
    <frame tileid="688" duration="100"/>
    <frame tileid="694" duration="100"/>
    <frame tileid="700" duration="100"/>
    <frame tileid="706" duration="100"/>
    <frame tileid="712" duration="100"/>
    <frame tileid="184" duration="100"/>
    <frame tileid="190" duration="100"/>
    <frame tileid="196" duration="100"/>
    <frame tileid="202" duration="100"/>
    <frame tileid="208" duration="100"/>
    <frame tileid="214" duration="100"/>
    <frame tileid="436" duration="100"/>
    <frame tileid="442" duration="100"/>
   </animation>
  </tile>
  <tile id="481">
   <animation>
    <frame tileid="481" duration="100"/>
    <frame tileid="487" duration="100"/>
    <frame tileid="493" duration="100"/>
    <frame tileid="499" duration="100"/>
    <frame tileid="721" duration="100"/>
    <frame tileid="727" duration="100"/>
    <frame tileid="733" duration="100"/>
    <frame tileid="739" duration="100"/>
    <frame tileid="745" duration="100"/>
    <frame tileid="217" duration="100"/>
    <frame tileid="223" duration="100"/>
    <frame tileid="229" duration="100"/>
    <frame tileid="235" duration="100"/>
    <frame tileid="241" duration="100"/>
    <frame tileid="247" duration="100"/>
    <frame tileid="469" duration="100"/>
    <frame tileid="475" duration="100"/>
   </animation>
  </tile>
  <tile id="482">
   <animation>
    <frame tileid="482" duration="100"/>
    <frame tileid="488" duration="100"/>
    <frame tileid="494" duration="100"/>
    <frame tileid="500" duration="100"/>
    <frame tileid="722" duration="100"/>
    <frame tileid="728" duration="100"/>
    <frame tileid="734" duration="100"/>
    <frame tileid="740" duration="100"/>
    <frame tileid="746" duration="100"/>
    <frame tileid="218" duration="100"/>
    <frame tileid="224" duration="100"/>
    <frame tileid="230" duration="100"/>
    <frame tileid="236" duration="100"/>
    <frame tileid="242" duration="100"/>
    <frame tileid="248" duration="100"/>
    <frame tileid="470" duration="100"/>
    <frame tileid="476" duration="100"/>
   </animation>
  </tile>
  <tile id="483">
   <animation>
    <frame tileid="483" duration="100"/>
    <frame tileid="489" duration="100"/>
    <frame tileid="495" duration="100"/>
    <frame tileid="501" duration="100"/>
    <frame tileid="723" duration="100"/>
    <frame tileid="729" duration="100"/>
    <frame tileid="735" duration="100"/>
    <frame tileid="741" duration="100"/>
    <frame tileid="747" duration="100"/>
    <frame tileid="219" duration="100"/>
    <frame tileid="225" duration="100"/>
    <frame tileid="231" duration="100"/>
    <frame tileid="237" duration="100"/>
    <frame tileid="243" duration="100"/>
    <frame tileid="249" duration="100"/>
    <frame tileid="471" duration="100"/>
    <frame tileid="477" duration="100"/>
   </animation>
  </tile>
  <tile id="484">
   <animation>
    <frame tileid="484" duration="100"/>
    <frame tileid="490" duration="100"/>
    <frame tileid="496" duration="100"/>
    <frame tileid="502" duration="100"/>
    <frame tileid="724" duration="100"/>
    <frame tileid="730" duration="100"/>
    <frame tileid="736" duration="100"/>
    <frame tileid="742" duration="100"/>
    <frame tileid="748" duration="100"/>
    <frame tileid="220" duration="100"/>
    <frame tileid="226" duration="100"/>
    <frame tileid="232" duration="100"/>
    <frame tileid="238" duration="100"/>
    <frame tileid="244" duration="100"/>
    <frame tileid="250" duration="100"/>
    <frame tileid="472" duration="100"/>
    <frame tileid="478" duration="100"/>
   </animation>
  </tile>
  <tile id="517">
   <animation>
    <frame tileid="517" duration="100"/>
    <frame tileid="523" duration="100"/>
    <frame tileid="529" duration="100"/>
    <frame tileid="535" duration="100"/>
    <frame tileid="757" duration="100"/>
    <frame tileid="763" duration="100"/>
    <frame tileid="769" duration="100"/>
    <frame tileid="775" duration="100"/>
    <frame tileid="781" duration="100"/>
    <frame tileid="253" duration="100"/>
    <frame tileid="259" duration="100"/>
    <frame tileid="265" duration="100"/>
    <frame tileid="271" duration="100"/>
    <frame tileid="277" duration="100"/>
    <frame tileid="283" duration="100"/>
    <frame tileid="505" duration="100"/>
    <frame tileid="511" duration="100"/>
   </animation>
  </tile>
  <tile id="518">
   <animation>
    <frame tileid="518" duration="100"/>
    <frame tileid="524" duration="100"/>
    <frame tileid="530" duration="100"/>
    <frame tileid="536" duration="100"/>
    <frame tileid="758" duration="100"/>
    <frame tileid="764" duration="100"/>
    <frame tileid="770" duration="100"/>
    <frame tileid="776" duration="100"/>
    <frame tileid="782" duration="100"/>
    <frame tileid="254" duration="100"/>
    <frame tileid="260" duration="100"/>
    <frame tileid="266" duration="100"/>
    <frame tileid="272" duration="100"/>
    <frame tileid="278" duration="100"/>
    <frame tileid="284" duration="100"/>
    <frame tileid="506" duration="100"/>
    <frame tileid="512" duration="100"/>
   </animation>
  </tile>
  <tile id="519">
   <animation>
    <frame tileid="519" duration="100"/>
    <frame tileid="525" duration="100"/>
    <frame tileid="531" duration="100"/>
    <frame tileid="537" duration="100"/>
    <frame tileid="759" duration="100"/>
    <frame tileid="765" duration="100"/>
    <frame tileid="771" duration="100"/>
    <frame tileid="777" duration="100"/>
    <frame tileid="783" duration="100"/>
    <frame tileid="255" duration="100"/>
    <frame tileid="261" duration="100"/>
    <frame tileid="267" duration="100"/>
    <frame tileid="273" duration="100"/>
    <frame tileid="279" duration="100"/>
    <frame tileid="285" duration="100"/>
    <frame tileid="507" duration="100"/>
    <frame tileid="513" duration="100"/>
   </animation>
  </tile>
  <tile id="520">
   <animation>
    <frame tileid="520" duration="100"/>
    <frame tileid="526" duration="100"/>
    <frame tileid="532" duration="100"/>
    <frame tileid="538" duration="100"/>
    <frame tileid="760" duration="100"/>
    <frame tileid="766" duration="100"/>
    <frame tileid="772" duration="100"/>
    <frame tileid="778" duration="100"/>
    <frame tileid="784" duration="100"/>
    <frame tileid="256" duration="100"/>
    <frame tileid="262" duration="100"/>
    <frame tileid="268" duration="100"/>
    <frame tileid="274" duration="100"/>
    <frame tileid="280" duration="100"/>
    <frame tileid="286" duration="100"/>
    <frame tileid="508" duration="100"/>
    <frame tileid="514" duration="100"/>
   </animation>
  </tile>
  <tile id="552">
   <animation>
    <frame tileid="552" duration="100"/>
    <frame tileid="558" duration="100"/>
    <frame tileid="564" duration="100"/>
    <frame tileid="570" duration="100"/>
    <frame tileid="792" duration="100"/>
    <frame tileid="798" duration="100"/>
    <frame tileid="804" duration="100"/>
    <frame tileid="810" duration="100"/>
    <frame tileid="816" duration="100"/>
    <frame tileid="288" duration="100"/>
    <frame tileid="294" duration="100"/>
    <frame tileid="300" duration="100"/>
    <frame tileid="306" duration="100"/>
    <frame tileid="312" duration="100"/>
    <frame tileid="318" duration="100"/>
    <frame tileid="540" duration="100"/>
    <frame tileid="546" duration="100"/>
   </animation>
  </tile>
  <tile id="553">
   <animation>
    <frame tileid="553" duration="100"/>
    <frame tileid="559" duration="100"/>
    <frame tileid="565" duration="100"/>
    <frame tileid="571" duration="100"/>
    <frame tileid="793" duration="100"/>
    <frame tileid="799" duration="100"/>
    <frame tileid="805" duration="100"/>
    <frame tileid="811" duration="100"/>
    <frame tileid="817" duration="100"/>
    <frame tileid="289" duration="100"/>
    <frame tileid="295" duration="100"/>
    <frame tileid="301" duration="100"/>
    <frame tileid="307" duration="100"/>
    <frame tileid="313" duration="100"/>
    <frame tileid="319" duration="100"/>
    <frame tileid="541" duration="100"/>
    <frame tileid="547" duration="100"/>
   </animation>
  </tile>
  <tile id="554">
   <animation>
    <frame tileid="554" duration="100"/>
    <frame tileid="560" duration="100"/>
    <frame tileid="566" duration="100"/>
    <frame tileid="572" duration="100"/>
    <frame tileid="794" duration="100"/>
    <frame tileid="800" duration="100"/>
    <frame tileid="806" duration="100"/>
    <frame tileid="812" duration="100"/>
    <frame tileid="818" duration="100"/>
    <frame tileid="290" duration="100"/>
    <frame tileid="296" duration="100"/>
    <frame tileid="302" duration="100"/>
    <frame tileid="308" duration="100"/>
    <frame tileid="314" duration="100"/>
    <frame tileid="320" duration="100"/>
    <frame tileid="542" duration="100"/>
    <frame tileid="548" duration="100"/>
   </animation>
  </tile>
  <tile id="555">
   <animation>
    <frame tileid="555" duration="100"/>
    <frame tileid="561" duration="100"/>
    <frame tileid="567" duration="100"/>
    <frame tileid="573" duration="100"/>
    <frame tileid="795" duration="100"/>
    <frame tileid="801" duration="100"/>
    <frame tileid="807" duration="100"/>
    <frame tileid="813" duration="100"/>
    <frame tileid="819" duration="100"/>
    <frame tileid="291" duration="100"/>
    <frame tileid="297" duration="100"/>
    <frame tileid="303" duration="100"/>
    <frame tileid="309" duration="100"/>
    <frame tileid="315" duration="100"/>
    <frame tileid="321" duration="100"/>
    <frame tileid="543" duration="100"/>
    <frame tileid="549" duration="100"/>
   </animation>
  </tile>
  <tile id="556">
   <animation>
    <frame tileid="556" duration="100"/>
    <frame tileid="562" duration="100"/>
    <frame tileid="568" duration="100"/>
    <frame tileid="574" duration="100"/>
    <frame tileid="796" duration="100"/>
    <frame tileid="802" duration="100"/>
    <frame tileid="808" duration="100"/>
    <frame tileid="814" duration="100"/>
    <frame tileid="820" duration="100"/>
    <frame tileid="292" duration="100"/>
    <frame tileid="298" duration="100"/>
    <frame tileid="304" duration="100"/>
    <frame tileid="310" duration="100"/>
    <frame tileid="316" duration="100"/>
    <frame tileid="322" duration="100"/>
    <frame tileid="544" duration="100"/>
    <frame tileid="550" duration="100"/>
   </animation>
  </tile>
  <tile id="557">
   <animation>
    <frame tileid="557" duration="100"/>
    <frame tileid="563" duration="100"/>
    <frame tileid="569" duration="100"/>
    <frame tileid="575" duration="100"/>
    <frame tileid="797" duration="100"/>
    <frame tileid="803" duration="100"/>
    <frame tileid="809" duration="100"/>
    <frame tileid="815" duration="100"/>
    <frame tileid="821" duration="100"/>
    <frame tileid="293" duration="100"/>
    <frame tileid="299" duration="100"/>
    <frame tileid="305" duration="100"/>
    <frame tileid="311" duration="100"/>
    <frame tileid="317" duration="100"/>
    <frame tileid="323" duration="100"/>
    <frame tileid="545" duration="100"/>
    <frame tileid="551" duration="100"/>
   </animation>
  </tile>
  <tile id="588">
   <animation>
    <frame tileid="588" duration="100"/>
    <frame tileid="594" duration="100"/>
    <frame tileid="600" duration="100"/>
    <frame tileid="606" duration="100"/>
    <frame tileid="828" duration="100"/>
    <frame tileid="834" duration="100"/>
    <frame tileid="840" duration="100"/>
    <frame tileid="846" duration="100"/>
    <frame tileid="852" duration="100"/>
    <frame tileid="324" duration="100"/>
    <frame tileid="330" duration="100"/>
    <frame tileid="336" duration="100"/>
    <frame tileid="342" duration="100"/>
    <frame tileid="348" duration="100"/>
    <frame tileid="354" duration="100"/>
    <frame tileid="576" duration="100"/>
    <frame tileid="582" duration="100"/>
   </animation>
  </tile>
  <tile id="589">
   <animation>
    <frame tileid="589" duration="100"/>
    <frame tileid="595" duration="100"/>
    <frame tileid="601" duration="100"/>
    <frame tileid="607" duration="100"/>
    <frame tileid="829" duration="100"/>
    <frame tileid="835" duration="100"/>
    <frame tileid="841" duration="100"/>
    <frame tileid="847" duration="100"/>
    <frame tileid="853" duration="100"/>
    <frame tileid="325" duration="100"/>
    <frame tileid="331" duration="100"/>
    <frame tileid="337" duration="100"/>
    <frame tileid="343" duration="100"/>
    <frame tileid="349" duration="100"/>
    <frame tileid="355" duration="100"/>
    <frame tileid="577" duration="100"/>
    <frame tileid="583" duration="100"/>
   </animation>
  </tile>
  <tile id="590">
   <animation>
    <frame tileid="590" duration="100"/>
    <frame tileid="596" duration="100"/>
    <frame tileid="602" duration="100"/>
    <frame tileid="608" duration="100"/>
    <frame tileid="830" duration="100"/>
    <frame tileid="836" duration="100"/>
    <frame tileid="842" duration="100"/>
    <frame tileid="848" duration="100"/>
    <frame tileid="854" duration="100"/>
    <frame tileid="326" duration="100"/>
    <frame tileid="332" duration="100"/>
    <frame tileid="338" duration="100"/>
    <frame tileid="344" duration="100"/>
    <frame tileid="350" duration="100"/>
    <frame tileid="356" duration="100"/>
    <frame tileid="578" duration="100"/>
    <frame tileid="584" duration="100"/>
   </animation>
  </tile>
  <tile id="591">
   <animation>
    <frame tileid="591" duration="100"/>
    <frame tileid="597" duration="100"/>
    <frame tileid="603" duration="100"/>
    <frame tileid="609" duration="100"/>
    <frame tileid="831" duration="100"/>
    <frame tileid="837" duration="100"/>
    <frame tileid="843" duration="100"/>
    <frame tileid="849" duration="100"/>
    <frame tileid="855" duration="100"/>
    <frame tileid="327" duration="100"/>
    <frame tileid="333" duration="100"/>
    <frame tileid="339" duration="100"/>
    <frame tileid="345" duration="100"/>
    <frame tileid="351" duration="100"/>
    <frame tileid="357" duration="100"/>
    <frame tileid="579" duration="100"/>
    <frame tileid="585" duration="100"/>
   </animation>
  </tile>
  <tile id="592">
   <animation>
    <frame tileid="592" duration="100"/>
    <frame tileid="598" duration="100"/>
    <frame tileid="604" duration="100"/>
    <frame tileid="610" duration="100"/>
    <frame tileid="832" duration="100"/>
    <frame tileid="838" duration="100"/>
    <frame tileid="844" duration="100"/>
    <frame tileid="850" duration="100"/>
    <frame tileid="856" duration="100"/>
    <frame tileid="328" duration="100"/>
    <frame tileid="334" duration="100"/>
    <frame tileid="340" duration="100"/>
    <frame tileid="346" duration="100"/>
    <frame tileid="352" duration="100"/>
    <frame tileid="358" duration="100"/>
    <frame tileid="580" duration="100"/>
    <frame tileid="586" duration="100"/>
   </animation>
  </tile>
  <tile id="593">
   <animation>
    <frame tileid="593" duration="100"/>
    <frame tileid="599" duration="100"/>
    <frame tileid="605" duration="100"/>
    <frame tileid="611" duration="100"/>
    <frame tileid="833" duration="100"/>
    <frame tileid="839" duration="100"/>
    <frame tileid="845" duration="100"/>
    <frame tileid="851" duration="100"/>
    <frame tileid="857" duration="100"/>
    <frame tileid="329" duration="100"/>
    <frame tileid="335" duration="100"/>
    <frame tileid="341" duration="100"/>
    <frame tileid="347" duration="100"/>
    <frame tileid="353" duration="100"/>
    <frame tileid="359" duration="100"/>
    <frame tileid="581" duration="100"/>
    <frame tileid="587" duration="100"/>
   </animation>
  </tile>
  <tile id="624">
   <animation>
    <frame tileid="624" duration="100"/>
    <frame tileid="630" duration="100"/>
    <frame tileid="636" duration="100"/>
    <frame tileid="642" duration="100"/>
    <frame tileid="864" duration="100"/>
    <frame tileid="870" duration="100"/>
    <frame tileid="876" duration="100"/>
    <frame tileid="882" duration="100"/>
    <frame tileid="888" duration="100"/>
    <frame tileid="360" duration="100"/>
    <frame tileid="366" duration="100"/>
    <frame tileid="372" duration="100"/>
    <frame tileid="378" duration="100"/>
    <frame tileid="384" duration="100"/>
    <frame tileid="390" duration="100"/>
    <frame tileid="612" duration="100"/>
    <frame tileid="618" duration="100"/>
   </animation>
  </tile>
  <tile id="625">
   <animation>
    <frame tileid="625" duration="100"/>
    <frame tileid="631" duration="100"/>
    <frame tileid="637" duration="100"/>
    <frame tileid="643" duration="100"/>
    <frame tileid="865" duration="100"/>
    <frame tileid="871" duration="100"/>
    <frame tileid="877" duration="100"/>
    <frame tileid="883" duration="100"/>
    <frame tileid="889" duration="100"/>
    <frame tileid="361" duration="100"/>
    <frame tileid="367" duration="100"/>
    <frame tileid="373" duration="100"/>
    <frame tileid="379" duration="100"/>
    <frame tileid="385" duration="100"/>
    <frame tileid="391" duration="100"/>
    <frame tileid="613" duration="100"/>
    <frame tileid="619" duration="100"/>
   </animation>
  </tile>
  <tile id="626">
   <animation>
    <frame tileid="626" duration="100"/>
    <frame tileid="632" duration="100"/>
    <frame tileid="638" duration="100"/>
    <frame tileid="644" duration="100"/>
    <frame tileid="866" duration="100"/>
    <frame tileid="872" duration="100"/>
    <frame tileid="878" duration="100"/>
    <frame tileid="884" duration="100"/>
    <frame tileid="890" duration="100"/>
    <frame tileid="362" duration="100"/>
    <frame tileid="368" duration="100"/>
    <frame tileid="374" duration="100"/>
    <frame tileid="380" duration="100"/>
    <frame tileid="386" duration="100"/>
    <frame tileid="392" duration="100"/>
    <frame tileid="614" duration="100"/>
    <frame tileid="620" duration="100"/>
   </animation>
  </tile>
  <tile id="627">
   <animation>
    <frame tileid="627" duration="100"/>
    <frame tileid="633" duration="100"/>
    <frame tileid="639" duration="100"/>
    <frame tileid="645" duration="100"/>
    <frame tileid="867" duration="100"/>
    <frame tileid="873" duration="100"/>
    <frame tileid="879" duration="100"/>
    <frame tileid="885" duration="100"/>
    <frame tileid="891" duration="100"/>
    <frame tileid="363" duration="100"/>
    <frame tileid="369" duration="100"/>
    <frame tileid="375" duration="100"/>
    <frame tileid="381" duration="100"/>
    <frame tileid="387" duration="100"/>
    <frame tileid="393" duration="100"/>
    <frame tileid="615" duration="100"/>
    <frame tileid="621" duration="100"/>
   </animation>
  </tile>
  <tile id="628">
   <animation>
    <frame tileid="628" duration="100"/>
    <frame tileid="634" duration="100"/>
    <frame tileid="640" duration="100"/>
    <frame tileid="646" duration="100"/>
    <frame tileid="868" duration="100"/>
    <frame tileid="874" duration="100"/>
    <frame tileid="880" duration="100"/>
    <frame tileid="886" duration="100"/>
    <frame tileid="892" duration="100"/>
    <frame tileid="364" duration="100"/>
    <frame tileid="370" duration="100"/>
    <frame tileid="376" duration="100"/>
    <frame tileid="382" duration="100"/>
    <frame tileid="388" duration="100"/>
    <frame tileid="394" duration="100"/>
    <frame tileid="616" duration="100"/>
    <frame tileid="622" duration="100"/>
   </animation>
  </tile>
  <tile id="629">
   <animation>
    <frame tileid="629" duration="100"/>
    <frame tileid="635" duration="100"/>
    <frame tileid="641" duration="100"/>
    <frame tileid="647" duration="100"/>
    <frame tileid="869" duration="100"/>
    <frame tileid="875" duration="100"/>
    <frame tileid="881" duration="100"/>
    <frame tileid="887" duration="100"/>
    <frame tileid="893" duration="100"/>
    <frame tileid="365" duration="100"/>
    <frame tileid="371" duration="100"/>
    <frame tileid="377" duration="100"/>
    <frame tileid="383" duration="100"/>
    <frame tileid="389" duration="100"/>
    <frame tileid="395" duration="100"/>
    <frame tileid="617" duration="100"/>
    <frame tileid="623" duration="100"/>
   </animation>
  </tile>
 </tileset>
 <tileset firstgid="2069" name="Paths" tilewidth="16" tileheight="16" tilecount="64" columns="4">
  <image source=".paths.png" width="64" height="256"/>
  <tile id="35">
   <properties>
    <property name="GreenRain" value="asdf"/>
   </properties>
  </tile>
 </tileset>
 <tileset firstgid="2133" name="untitled tile sheet2" tilewidth="16" tileheight="16" tilecount="1120" columns="16">
  <image source=".winter_outdoorsTileSheet2.png" width="256" height="1120"/>
  <tile id="536">
   <animation>
    <frame tileid="536" duration="1000"/>
    <frame tileid="540" duration="1000"/>
   </animation>
  </tile>
  <tile id="537">
   <animation>
    <frame tileid="537" duration="1000"/>
    <frame tileid="541" duration="1000"/>
   </animation>
  </tile>
  <tile id="538">
   <animation>
    <frame tileid="538" duration="1000"/>
    <frame tileid="542" duration="1000"/>
   </animation>
  </tile>
  <tile id="552">
   <animation>
    <frame tileid="552" duration="1000"/>
    <frame tileid="556" duration="1000"/>
   </animation>
  </tile>
  <tile id="554">
   <animation>
    <frame tileid="554" duration="1000"/>
    <frame tileid="558" duration="1000"/>
   </animation>
  </tile>
  <tile id="568">
   <animation>
    <frame tileid="568" duration="1000"/>
    <frame tileid="572" duration="1000"/>
   </animation>
  </tile>
  <tile id="570">
   <animation>
    <frame tileid="570" duration="1000"/>
    <frame tileid="574" duration="1000"/>
   </animation>
  </tile>
  <tile id="584">
   <animation>
    <frame tileid="584" duration="1000"/>
    <frame tileid="588" duration="1000"/>
   </animation>
  </tile>
  <tile id="600">
   <animation>
    <frame tileid="600" duration="1000"/>
    <frame tileid="604" duration="1000"/>
   </animation>
  </tile>
  <tile id="602">
   <animation>
    <frame tileid="602" duration="1000"/>
    <frame tileid="606" duration="1000"/>
   </animation>
  </tile>
  <tile id="616">
   <animation>
    <frame tileid="616" duration="1000"/>
    <frame tileid="620" duration="1000"/>
   </animation>
  </tile>
  <tile id="617">
   <animation>
    <frame tileid="617" duration="1000"/>
    <frame tileid="621" duration="1000"/>
   </animation>
  </tile>
  <tile id="618">
   <animation>
    <frame tileid="618" duration="1000"/>
    <frame tileid="622" duration="1000"/>
   </animation>
  </tile>
  <tile id="632">
   <animation>
    <frame tileid="632" duration="1000"/>
    <frame tileid="636" duration="1000"/>
   </animation>
  </tile>
  <tile id="633">
   <animation>
    <frame tileid="633" duration="1000"/>
    <frame tileid="637" duration="1000"/>
   </animation>
  </tile>
  <tile id="665">
   <animation>
    <frame tileid="665" duration="1000"/>
    <frame tileid="669" duration="1000"/>
   </animation>
  </tile>
  <tile id="740">
   <properties>
    <property name="Type" value="Grass"/>
   </properties>
  </tile>
  <tile id="741">
   <properties>
    <property name="Type" value="Grass"/>
   </properties>
  </tile>
  <tile id="752">
   <properties>
    <property name="Type" value="Wood"/>
   </properties>
  </tile>
  <tile id="753">
   <properties>
    <property name="Type" value="Wood"/>
   </properties>
  </tile>
  <tile id="754">
   <properties>
    <property name="Type" value="Wood"/>
   </properties>
  </tile>
  <tile id="755">
   <properties>
    <property name="Type" value="Wood"/>
   </properties>
  </tile>
  <tile id="756">
   <properties>
    <property name="Type" value="Grass"/>
   </properties>
  </tile>
  <tile id="757">
   <properties>
    <property name="Type" value="Grass"/>
   </properties>
  </tile>
  <tile id="772">
   <properties>
    <property name="Type" value="Grass"/>
   </properties>
  </tile>
  <tile id="773">
   <properties>
    <property name="Type" value="Grass"/>
   </properties>
  </tile>
  <tile id="816">
   <properties>
    <property name="Water" value="T"/>
   </properties>
  </tile>
  <tile id="817">
   <properties>
    <property name="Water" value="T"/>
   </properties>
  </tile>
  <tile id="820">
   <properties>
    <property name="Water" value="T"/>
   </properties>
  </tile>
  <tile id="821">
   <properties>
    <property name="Water" value="T"/>
   </properties>
  </tile>
  <tile id="822">
   <properties>
    <property name="Water" value="T"/>
   </properties>
  </tile>
  <tile id="832">
   <properties>
    <property name="Water" value="T"/>
   </properties>
  </tile>
  <tile id="833">
   <properties>
    <property name="Water" value="T"/>
   </properties>
  </tile>
  <tile id="834">
   <properties>
    <property name="Water" value="T"/>
   </properties>
  </tile>
  <tile id="835">
   <properties>
    <property name="Water" value="T"/>
   </properties>
  </tile>
  <tile id="836">
   <properties>
    <property name="Water" value="T"/>
   </properties>
  </tile>
  <tile id="837">
   <properties>
    <property name="Water" value="T"/>
   </properties>
  </tile>
  <tile id="838">
   <properties>
    <property name="Water" value="T"/>
   </properties>
  </tile>
  <tile id="848">
   <properties>
    <property name="Water" value="T"/>
   </properties>
  </tile>
  <tile id="849">
   <properties>
    <property name="Water" value="T"/>
   </properties>
  </tile>
  <tile id="850">
   <properties>
    <property name="Water" value="T"/>
   </properties>
  </tile>
  <tile id="851">
   <properties>
    <property name="Water" value="T"/>
   </properties>
  </tile>
  <tile id="852">
   <properties>
    <property name="Water" value="T"/>
   </properties>
  </tile>
  <tile id="853">
   <properties>
    <property name="Water" value="T"/>
   </properties>
  </tile>
  <tile id="854">
   <properties>
    <property name="Water" value="T"/>
   </properties>
  </tile>
  <tile id="864">
   <properties>
    <property name="Water" value="T"/>
   </properties>
  </tile>
  <tile id="865">
   <properties>
    <property name="Water" value="T"/>
   </properties>
  </tile>
  <tile id="866">
   <properties>
    <property name="Water" value="T"/>
   </properties>
  </tile>
  <tile id="867">
   <properties>
    <property name="Water" value="T"/>
   </properties>
  </tile>
  <tile id="868">
   <properties>
    <property name="Water" value="T"/>
   </properties>
  </tile>
  <tile id="869">
   <properties>
    <property name="Water" value="T"/>
   </properties>
  </tile>
  <tile id="870">
   <properties>
    <property name="Water" value="T"/>
   </properties>
  </tile>
  <tile id="880">
   <properties>
    <property name="Water" value="T"/>
   </properties>
  </tile>
  <tile id="881">
   <properties>
    <property name="Water" value="T"/>
   </properties>
  </tile>
  <tile id="882">
   <properties>
    <property name="Water" value="T"/>
   </properties>
  </tile>
  <tile id="883">
   <properties>
    <property name="Water" value="T"/>
   </properties>
  </tile>
  <tile id="897">
   <animation>
    <frame tileid="897" duration="1000"/>
    <frame tileid="929" duration="1000"/>
   </animation>
  </tile>
  <tile id="912">
   <animation>
    <frame tileid="912" duration="1000"/>
    <frame tileid="944" duration="1000"/>
   </animation>
  </tile>
  <tile id="913">
   <animation>
    <frame tileid="913" duration="1000"/>
    <frame tileid="945" duration="1000"/>
   </animation>
  </tile>
  <tile id="914">
   <animation>
    <frame tileid="914" duration="1000"/>
    <frame tileid="915" duration="1000"/>
   </animation>
  </tile>
  <tile id="930">
   <animation>
    <frame tileid="930" duration="1000"/>
    <frame tileid="931" duration="1000"/>
   </animation>
  </tile>
  <tile id="960">
   <animation>
    <frame tileid="960" duration="1000"/>
    <frame tileid="992" duration="1000"/>
   </animation>
  </tile>
  <tile id="962">
   <animation>
    <frame tileid="962" duration="1000"/>
    <frame tileid="963" duration="1000"/>
   </animation>
  </tile>
  <tile id="968">
   <animation>
    <frame tileid="968" duration="1000"/>
    <frame tileid="1000" duration="1000"/>
   </animation>
  </tile>
  <tile id="976">
   <animation>
    <frame tileid="976" duration="1000"/>
    <frame tileid="1008" duration="1000"/>
   </animation>
  </tile>
  <tile id="977">
   <animation>
    <frame tileid="977" duration="1000"/>
    <frame tileid="1009" duration="1000"/>
   </animation>
  </tile>
  <tile id="978">
   <animation>
    <frame tileid="978" duration="1000"/>
    <frame tileid="979" duration="1000"/>
   </animation>
  </tile>
  <tile id="984">
   <animation>
    <frame tileid="984" duration="1000"/>
    <frame tileid="1016" duration="1000"/>
   </animation>
  </tile>
  <tile id="986">
   <animation>
    <frame tileid="986" duration="1000"/>
    <frame tileid="987" duration="1000"/>
   </animation>
  </tile>
  <tile id="1056">
   <animation>
    <frame tileid="1056" duration="1000"/>
    <frame tileid="1057" duration="1000"/>
   </animation>
  </tile>
  <tile id="1067">
   <animation>
    <frame tileid="1067" duration="1000"/>
    <frame tileid="1066" duration="1000"/>
   </animation>
  </tile>
 </tileset>
 <tileset firstgid="3253" name="zlumisteria_tilesheetsoutdoor_tiles" tilewidth="16" tileheight="16" tilecount="1500" columns="25">
  <image source=".winter_mod_lumisteria_tilesheetsoutdoor_tiles.png" width="400" height="960"/>
 </tileset>
 <tileset firstgid="4753" name="v16_Shadows" tilewidth="16" tileheight="16" tilecount="475" columns="19">
  <image source=".winter_Shadows.png" width="304" height="400"/>
 </tileset>
 <tileset firstgid="5228" name="Xiddav" tilewidth="16" tileheight="16" tilecount="1140" columns="30">
  <image source=".winter_Xiddav.png" width="480" height="608"/>
  <tile id="421">
   <animation>
    <frame tileid="421" duration="100"/>
    <frame tileid="422" duration="100"/>
    <frame tileid="423" duration="100"/>
    <frame tileid="424" duration="100"/>
    <frame tileid="425" duration="100"/>
    <frame tileid="423" duration="100"/>
    <frame tileid="421" duration="100"/>
    <frame tileid="421" duration="100"/>
    <frame tileid="421" duration="100"/>
    <frame tileid="421" duration="100"/>
    <frame tileid="421" duration="100"/>
    <frame tileid="421" duration="100"/>
    <frame tileid="421" duration="100"/>
    <frame tileid="421" duration="100"/>
    <frame tileid="421" duration="100"/>
    <frame tileid="421" duration="100"/>
    <frame tileid="421" duration="100"/>
    <frame tileid="421" duration="100"/>
    <frame tileid="421" duration="100"/>
    <frame tileid="421" duration="100"/>
    <frame tileid="421" duration="100"/>
    <frame tileid="421" duration="100"/>
    <frame tileid="421" duration="100"/>
    <frame tileid="421" duration="100"/>
    <frame tileid="421" duration="100"/>
    <frame tileid="421" duration="100"/>
   </animation>
  </tile>
 </tileset>
 <tileset firstgid="6368" name="outdoors" tilewidth="16" tileheight="16" tilecount="1975" columns="25">
  <image source=".winter_outdoorsTileSheet.png" width="400" height="1264"/>
  <tile id="150">
   <properties>
    <property name="Spawnable" value="T"/>
    <property name="Type" value="Grass"/>
   </properties>
   <animation>
    <frame tileid="150" duration="100"/>
    <frame tileid="150" duration="100"/>
    <frame tileid="150" duration="100"/>
    <frame tileid="150" duration="100"/>
    <frame tileid="150" duration="100"/>
    <frame tileid="150" duration="100"/>
    <frame tileid="150" duration="100"/>
    <frame tileid="150" duration="100"/>
    <frame tileid="150" duration="100"/>
    <frame tileid="150" duration="100"/>
    <frame tileid="150" duration="100"/>
    <frame tileid="150" duration="100"/>
    <frame tileid="150" duration="100"/>
    <frame tileid="150" duration="100"/>
    <frame tileid="150" duration="100"/>
    <frame tileid="150" duration="100"/>
    <frame tileid="150" duration="100"/>
    <frame tileid="150" duration="100"/>
    <frame tileid="150" duration="100"/>
    <frame tileid="150" duration="100"/>
    <frame tileid="420" duration="100"/>
    <frame tileid="421" duration="100"/>
    <frame tileid="422" duration="100"/>
    <frame tileid="423" duration="100"/>
    <frame tileid="420" duration="100"/>
    <frame tileid="150" duration="100"/>
    <frame tileid="150" duration="100"/>
    <frame tileid="150" duration="100"/>
    <frame tileid="150" duration="100"/>
    <frame tileid="150" duration="100"/>
    <frame tileid="150" duration="100"/>
    <frame tileid="150" duration="100"/>
    <frame tileid="150" duration="100"/>
    <frame tileid="150" duration="100"/>
    <frame tileid="150" duration="100"/>
   </animation>
  </tile>
  <tile id="151">
   <properties>
    <property name="Type" value="Grass"/>
   </properties>
   <animation>
    <frame tileid="151" duration="1000"/>
    <frame tileid="152" duration="1000"/>
   </animation>
  </tile>
  <tile id="152">
   <properties>
    <property name="Type" value="Grass"/>
   </properties>
   <animation>
    <frame tileid="152" duration="1000"/>
    <frame tileid="151" duration="1000"/>
   </animation>
  </tile>
  <tile id="156">
   <properties>
    <property name="Spawnable" value="T"/>
    <property name="Type" value="Grass"/>
   </properties>
  </tile>
  <tile id="175">
   <properties>
    <property name="Spawnable" value="T"/>
    <property name="Type" value="Grass"/>
   </properties>
  </tile>
  <tile id="176">
   <properties>
    <property name="Diggable" value="T"/>
    <property name="Type" value="Dirt"/>
   </properties>
  </tile>
  <tile id="177">
   <properties>
    <property name="Type" value="Dirt"/>
   </properties>
  </tile>
  <tile id="178">
   <properties>
    <property name="Type" value="Dirt"/>
   </properties>
  </tile>
  <tile id="179">
   <properties>
    <property name="Type" value="Grass"/>
   </properties>
  </tile>
  <tile id="180">
   <properties>
    <property name="Spawnable" value="T"/>
    <property name="Type" value="Grass"/>
   </properties>
  </tile>
  <tile id="181">
   <properties>
    <property name="Type" value="Dirt"/>
   </properties>
  </tile>
  <tile id="182">
   <properties>
    <property name="Type" value="Dirt"/>
   </properties>
  </tile>
  <tile id="183">
   <animation>
    <frame tileid="183" duration="1000"/>
    <frame tileid="1182" duration="1000"/>
   </animation>
  </tile>
  <tile id="184">
   <animation>
    <frame tileid="184" duration="1000"/>
    <frame tileid="1183" duration="1000"/>
   </animation>
  </tile>
  <tile id="185">
   <animation>
    <frame tileid="185" duration="1000"/>
    <frame tileid="1184" duration="1000"/>
   </animation>
  </tile>
  <tile id="186">
   <animation>
    <frame tileid="186" duration="1000"/>
    <frame tileid="1185" duration="1000"/>
   </animation>
  </tile>
  <tile id="200">
   <properties>
    <property name="Spawnable" value="T"/>
    <property name="Type" value="Grass"/>
   </properties>
  </tile>
  <tile id="202">
   <properties>
    <property name="Type" value="Dirt"/>
   </properties>
  </tile>
  <tile id="203">
   <properties>
    <property name="Type" value="Grass"/>
   </properties>
  </tile>
  <tile id="204">
   <properties>
    <property name="Type" value="Grass"/>
   </properties>
  </tile>
  <tile id="205">
   <properties>
    <property name="Type" value="Grass"/>
   </properties>
  </tile>
  <tile id="206">
   <properties>
    <property name="Diggable" value="T"/>
    <property name="Type" value="Dirt"/>
   </properties>
  </tile>
  <tile id="207">
   <properties>
    <property name="Diggable" value="T"/>
    <property name="Type" value="Dirt"/>
   </properties>
  </tile>
  <tile id="208">
   <animation>
    <frame tileid="208" duration="1000"/>
    <frame tileid="1207" duration="1000"/>
   </animation>
  </tile>
  <tile id="209">
   <properties>
    <property name="Water" value="T"/>
   </properties>
   <animation>
    <frame tileid="209" duration="1000"/>
    <frame tileid="1208" duration="1000"/>
   </animation>
  </tile>
  <tile id="211">
   <animation>
    <frame tileid="211" duration="1000"/>
    <frame tileid="1210" duration="1000"/>
   </animation>
  </tile>
  <tile id="225">
   <properties>
    <property name="Type" value="Dirt"/>
   </properties>
  </tile>
  <tile id="226">
   <properties>
    <property name="Diggable" value="T"/>
    <property name="Type" value="Dirt"/>
   </properties>
  </tile>
  <tile id="227">
   <properties>
    <property name="Diggable" value="T"/>
    <property name="Type" value="Dirt"/>
   </properties>
  </tile>
  <tile id="228">
   <properties>
    <property name="Type" value="Dirt"/>
   </properties>
  </tile>
  <tile id="229">
   <properties>
    <property name="Type" value="Grass"/>
   </properties>
  </tile>
  <tile id="230">
   <properties>
    <property name="Type" value="Grass"/>
   </properties>
  </tile>
  <tile id="231">
   <properties>
    <property name="Diggable" value="T"/>
    <property name="Type" value="Dirt"/>
   </properties>
  </tile>
  <tile id="233">
   <animation>
    <frame tileid="233" duration="1000"/>
    <frame tileid="1232" duration="1000"/>
   </animation>
  </tile>
  <tile id="234">
   <properties>
    <property name="Water" value="T"/>
   </properties>
  </tile>
  <tile id="235">
   <animation>
    <frame tileid="235" duration="1000"/>
    <frame tileid="1290" duration="1000"/>
   </animation>
  </tile>
  <tile id="237">
   <animation>
    <frame tileid="237" duration="1000"/>
    <frame tileid="1291" duration="1000"/>
   </animation>
  </tile>
  <tile id="238">
   <animation>
    <frame tileid="238" duration="1000"/>
    <frame tileid="1292" duration="1000"/>
   </animation>
  </tile>
  <tile id="250">
   <properties>
    <property name="Type" value="Grass"/>
   </properties>
  </tile>
  <tile id="251">
   <properties>
    <property name="Type" value="Dirt"/>
   </properties>
  </tile>
  <tile id="252">
   <properties>
    <property name="Diggable" value="T"/>
    <property name="Type" value="Dirt"/>
   </properties>
  </tile>
  <tile id="253">
   <properties>
    <property name="Type" value="Grass"/>
   </properties>
  </tile>
  <tile id="254">
   <properties>
    <property name="Type" value="Grass"/>
   </properties>
  </tile>
  <tile id="255">
   <properties>
    <property name="Type" value="Grass"/>
   </properties>
  </tile>
  <tile id="256">
   <properties>
    <property name="Type" value="Grass"/>
   </properties>
  </tile>
  <tile id="258">
   <animation>
    <frame tileid="258" duration="1000"/>
    <frame tileid="1257" duration="1000"/>
   </animation>
  </tile>
  <tile id="260">
   <animation>
    <frame tileid="260" duration="1000"/>
    <frame tileid="1315" duration="1000"/>
   </animation>
  </tile>
  <tile id="265">
   <properties>
    <property name="Type" value="Dirt"/>
   </properties>
  </tile>
  <tile id="275">
   <properties>
    <property name="Spawnable" value="t"/>
    <property name="Type" value="Grass"/>
   </properties>
  </tile>
  <tile id="276">
   <properties>
    <property name="Type" value="Grass"/>
   </properties>
  </tile>
  <tile id="277">
   <properties>
    <property name="Spawnable" value="T"/>
    <property name="Type" value="Grass"/>
   </properties>
  </tile>
  <tile id="278">
   <properties>
    <property name="Type" value="Grass"/>
   </properties>
  </tile>
  <tile id="279">
   <properties>
    <property name="Type" value="Grass"/>
   </properties>
  </tile>
  <tile id="283">
   <animation>
    <frame tileid="283" duration="1000"/>
    <frame tileid="1312" duration="1000"/>
   </animation>
  </tile>
  <tile id="284">
   <animation>
    <frame tileid="284" duration="1000"/>
    <frame tileid="1313" duration="1000"/>
   </animation>
  </tile>
  <tile id="285">
   <properties>
    <property name="Water" value="T"/>
   </properties>
  </tile>
  <tile id="300">
   <properties>
    <property name="Type" value="Grass"/>
   </properties>
  </tile>
  <tile id="301">
   <properties>
    <property name="Type" value="Grass"/>
   </properties>
  </tile>
  <tile id="302">
   <properties>
    <property name="Spawnable" value="T"/>
    <property name="Type" value="Grass"/>
   </properties>
  </tile>
  <tile id="303">
   <properties>
    <property name="Type" value="Grass"/>
   </properties>
  </tile>
  <tile id="304">
   <properties>
    <property name="Type" value="Grass"/>
   </properties>
  </tile>
  <tile id="305">
   <properties>
    <property name="Type" value="Grass"/>
   </properties>
  </tile>
  <tile id="308">
   <properties>
    <property name="Water" value="T"/>
   </properties>
  </tile>
  <tile id="309">
   <properties>
    <property name="Water" value="T"/>
   </properties>
   <animation>
    <frame tileid="309" duration="1000"/>
    <frame tileid="1317" duration="1000"/>
   </animation>
  </tile>
  <tile id="310">
   <properties>
    <property name="Water" value="T"/>
   </properties>
  </tile>
  <tile id="312">
   <properties>
    <property name="Type" value="Wood"/>
   </properties>
  </tile>
  <tile id="313">
   <properties>
    <property name="Type" value="Wood"/>
   </properties>
  </tile>
  <tile id="314">
   <properties>
    <property name="Type" value="Wood"/>
   </properties>
  </tile>
  <tile id="325">
   <properties>
    <property name="Type" value="Grass"/>
   </properties>
  </tile>
  <tile id="326">
   <properties>
    <property name="Type" value="Grass"/>
   </properties>
  </tile>
  <tile id="327">
   <properties>
    <property name="Type" value="Grass"/>
   </properties>
  </tile>
  <tile id="328">
   <properties>
    <property name="Type" value="Grass"/>
   </properties>
  </tile>
  <tile id="329">
   <properties>
    <property name="Type" value="Grass"/>
   </properties>
  </tile>
  <tile id="333">
   <properties>
    <property name="Water" value="T"/>
   </properties>
  </tile>
  <tile id="334">
   <properties>
    <property name="Water" value="T"/>
   </properties>
  </tile>
  <tile id="335">
   <properties>
    <property name="Water" value="T"/>
   </properties>
  </tile>
  <tile id="336">
   <properties>
    <property name="Water" value="T"/>
   </properties>
  </tile>
  <tile id="337">
   <properties>
    <property name="Type" value="Wood"/>
   </properties>
  </tile>
  <tile id="338">
   <properties>
    <property name="Type" value="Wood"/>
   </properties>
  </tile>
  <tile id="339">
   <properties>
    <property name="Type" value="Wood"/>
   </properties>
  </tile>
  <tile id="350">
   <properties>
    <property name="Type" value="Grass"/>
   </properties>
  </tile>
  <tile id="351">
   <properties>
    <property name="Spawnable" value="T"/>
    <property name="Type" value="Grass"/>
   </properties>
  </tile>
  <tile id="352">
   <properties>
    <property name="Type" value="Grass"/>
   </properties>
  </tile>
  <tile id="353">
   <properties>
    <property name="Type" value="Grass"/>
   </properties>
  </tile>
  <tile id="354">
   <properties>
    <property name="Type" value="Grass"/>
   </properties>
  </tile>
  <tile id="355">
   <properties>
    <property name="Type" value="Grass"/>
   </properties>
  </tile>
  <tile id="356">
   <properties>
    <property name="Type" value="Grass"/>
   </properties>
  </tile>
  <tile id="375">
   <properties>
    <property name="Type" value="Grass"/>
   </properties>
  </tile>
  <tile id="376">
   <properties>
    <property name="Type" value="Grass"/>
   </properties>
  </tile>
  <tile id="377">
   <properties>
    <property name="Type" value="Grass"/>
   </properties>
  </tile>
  <tile id="378">
   <properties>
    <property name="Type" value="Grass"/>
   </properties>
  </tile>
  <tile id="379">
   <properties>
    <property name="Type" value="Grass"/>
   </properties>
  </tile>
  <tile id="380">
   <properties>
    <property name="Spawnable" value="T"/>
    <property name="Type" value="Grass"/>
   </properties>
  </tile>
  <tile id="381">
   <properties>
    <property name="Type" value="Grass"/>
   </properties>
  </tile>
  <tile id="400">
   <properties>
    <property name="Type" value="Grass"/>
   </properties>
  </tile>
  <tile id="401">
   <properties>
    <property name="Type" value="Grass"/>
   </properties>
  </tile>
  <tile id="402">
   <properties>
    <property name="Spawnable" value="T"/>
    <property name="Type" value="Grass"/>
   </properties>
  </tile>
  <tile id="403">
   <properties>
    <property name="Spawnable" value="T"/>
    <property name="Type" value="Grass"/>
   </properties>
  </tile>
  <tile id="404">
   <properties>
    <property name="Type" value="Grass"/>
   </properties>
  </tile>
  <tile id="405">
   <properties>
    <property name="Type" value="Grass"/>
   </properties>
  </tile>
  <tile id="406">
   <properties>
    <property name="Type" value="Grass"/>
   </properties>
  </tile>
  <tile id="512">
   <properties>
    <property name="Type" value="Dirt"/>
   </properties>
  </tile>
  <tile id="534">
   <properties>
    <property name="Type" value="Dirt"/>
   </properties>
  </tile>
  <tile id="536">
   <properties>
    <property name="Type" value="Dirt"/>
   </properties>
  </tile>
  <tile id="537">
   <properties>
    <property name="Type" value="Dirt"/>
   </properties>
  </tile>
  <tile id="538">
   <properties>
    <property name="Type" value="Dirt"/>
   </properties>
  </tile>
  <tile id="558">
   <properties>
    <property name="Diggable" value="T"/>
    <property name="Type" value="Dirt"/>
   </properties>
  </tile>
  <tile id="560">
   <properties>
    <property name="Diggable" value="T"/>
    <property name="Type" value="Dirt"/>
   </properties>
  </tile>
  <tile id="561">
   <properties>
    <property name="Type" value="Dirt"/>
   </properties>
  </tile>
  <tile id="562">
   <properties>
    <property name="Type" value="Dirt"/>
   </properties>
  </tile>
  <tile id="563">
   <properties>
    <property name="Type" value="Dirt"/>
   </properties>
  </tile>
  <tile id="564">
   <properties>
    <property name="Diggable" value="T"/>
    <property name="Type" value="Dirt"/>
   </properties>
  </tile>
  <tile id="565">
   <properties>
    <property name="Type" value="Dirt"/>
   </properties>
  </tile>
  <tile id="566">
   <properties>
    <property name="Type" value="Dirt"/>
   </properties>
  </tile>
  <tile id="567">
   <properties>
    <property name="Spawnable" value="T"/>
    <property name="Type" value="Grass"/>
   </properties>
  </tile>
  <tile id="568">
   <properties>
    <property name="Type" value="Grass"/>
   </properties>
  </tile>
  <tile id="569">
   <properties>
    <property name="Spawnable" value="T"/>
    <property name="Type" value="Grass"/>
   </properties>
  </tile>
  <tile id="570">
   <properties>
    <property name="Type" value="Grass"/>
   </properties>
  </tile>
  <tile id="583">
   <properties>
    <property name="Diggable" value="T"/>
    <property name="Type" value="Dirt"/>
   </properties>
  </tile>
  <tile id="585">
   <properties>
    <property name="Diggable" value="T"/>
    <property name="Type" value="Dirt"/>
   </properties>
  </tile>
  <tile id="586">
   <properties>
    <property name="Type" value="Dirt"/>
   </properties>
  </tile>
  <tile id="587">
   <properties>
    <property name="Diggable" value="T"/>
    <property name="Type" value="Dirt"/>
   </properties>
  </tile>
  <tile id="588">
   <properties>
    <property name="Type" value="Dirt"/>
   </properties>
  </tile>
  <tile id="589">
   <properties>
    <property name="Diggable" value="T"/>
    <property name="Type" value="Dirt"/>
   </properties>
  </tile>
  <tile id="590">
   <properties>
    <property name="Type" value="Dirt"/>
   </properties>
  </tile>
  <tile id="591">
   <properties>
    <property name="Type" value="Dirt"/>
   </properties>
  </tile>
  <tile id="592">
   <properties>
    <property name="Type" value="Grass"/>
   </properties>
  </tile>
  <tile id="593">
   <properties>
    <property name="Type" value="Grass"/>
   </properties>
  </tile>
  <tile id="594">
   <properties>
    <property name="Type" value="Grass"/>
   </properties>
  </tile>
  <tile id="595">
   <properties>
    <property name="Type" value="Grass"/>
   </properties>
  </tile>
  <tile id="596">
   <properties>
    <property name="Type" value="Dirt"/>
   </properties>
  </tile>
  <tile id="597">
   <properties>
    <property name="Type" value="Dirt"/>
   </properties>
  </tile>
  <tile id="598">
   <properties>
    <property name="Type" value="Stone"/>
   </properties>
  </tile>
  <tile id="599">
   <properties>
    <property name="Type" value="Stone"/>
   </properties>
  </tile>
  <tile id="606">
   <properties>
    <property name="Diggable" value="T"/>
    <property name="Type" value="Dirt"/>
   </properties>
  </tile>
  <tile id="607">
   <properties>
    <property name="Diggable" value="T"/>
    <property name="Type" value="Dirt"/>
   </properties>
  </tile>
  <tile id="608">
   <properties>
    <property name="Diggable" value="T"/>
    <property name="Type" value="Dirt"/>
   </properties>
  </tile>
  <tile id="610">
   <properties>
    <property name="Diggable" value="T"/>
    <property name="Type" value="Dirt"/>
   </properties>
  </tile>
  <tile id="611">
   <properties>
    <property name="Type" value="Dirt"/>
   </properties>
  </tile>
  <tile id="612">
   <properties>
    <property name="Type" value="Dirt"/>
   </properties>
  </tile>
  <tile id="613">
   <properties>
    <property name="Type" value="Dirt"/>
   </properties>
  </tile>
  <tile id="614">
   <properties>
    <property name="Diggable" value="T"/>
    <property name="Type" value="Dirt"/>
   </properties>
  </tile>
  <tile id="615">
   <properties>
    <property name="Type" value="Dirt"/>
   </properties>
  </tile>
  <tile id="616">
   <properties>
    <property name="Type" value="Dirt"/>
   </properties>
  </tile>
  <tile id="617">
   <properties>
    <property name="Type" value="Dirt"/>
   </properties>
  </tile>
  <tile id="619">
   <properties>
    <property name="Type" value="Grass"/>
   </properties>
  </tile>
  <tile id="620">
   <properties>
    <property name="Type" value="Dirt"/>
   </properties>
  </tile>
  <tile id="621">
   <properties>
    <property name="Type" value="Dirt"/>
   </properties>
  </tile>
  <tile id="622">
   <properties>
    <property name="Type" value="Dirt"/>
   </properties>
  </tile>
  <tile id="623">
   <properties>
    <property name="Type" value="Stone"/>
   </properties>
  </tile>
  <tile id="628">
   <properties>
    <property name="Water" value="T"/>
   </properties>
  </tile>
  <tile id="629">
   <properties>
    <property name="Water" value="T"/>
   </properties>
  </tile>
  <tile id="630">
   <properties>
    <property name="Diggable" value="T"/>
    <property name="Type" value="Dirt"/>
   </properties>
  </tile>
  <tile id="631">
   <properties>
    <property name="Type" value="Dirt"/>
   </properties>
  </tile>
  <tile id="632">
   <properties>
    <property name="Diggable" value="T"/>
    <property name="Type" value="Dirt"/>
   </properties>
  </tile>
  <tile id="633">
   <properties>
    <property name="Type" value="Grass"/>
   </properties>
  </tile>
  <tile id="634">
   <properties>
    <property name="Spawnable" value="T"/>
    <property name="Type" value="Grass"/>
   </properties>
  </tile>
  <tile id="635">
   <properties>
    <property name="Type" value="Dirt"/>
   </properties>
  </tile>
  <tile id="636">
   <properties>
    <property name="Type" value="Dirt"/>
   </properties>
  </tile>
  <tile id="653">
   <properties>
    <property name="Water" value="T"/>
   </properties>
  </tile>
  <tile id="654">
   <properties>
    <property name="Type" value="Grass"/>
   </properties>
  </tile>
  <tile id="655">
   <properties>
    <property name="Type" value="Dirt"/>
   </properties>
  </tile>
  <tile id="656">
   <properties>
    <property name="Type" value="Dirt"/>
   </properties>
  </tile>
  <tile id="657">
   <properties>
    <property name="Type" value="Grass"/>
   </properties>
  </tile>
  <tile id="658">
   <properties>
    <property name="Type" value="Grass"/>
   </properties>
  </tile>
  <tile id="659">
   <properties>
    <property name="Type" value="Grass"/>
   </properties>
  </tile>
  <tile id="679">
   <properties>
    <property name="Type" value="Dirt"/>
   </properties>
  </tile>
  <tile id="680">
   <properties>
    <property name="Diggable" value="T"/>
    <property name="Type" value="Dirt"/>
   </properties>
  </tile>
  <tile id="681">
   <properties>
    <property name="Diggable" value="T"/>
    <property name="Type" value="Dirt"/>
   </properties>
  </tile>
  <tile id="682">
   <properties>
    <property name="Type" value="Dirt"/>
   </properties>
  </tile>
  <tile id="683">
   <properties>
    <property name="Type" value="Grass"/>
   </properties>
  </tile>
  <tile id="684">
   <properties>
    <property name="Type" value="Grass"/>
   </properties>
  </tile>
  <tile id="685">
   <properties>
    <property name="Diggable" value="T"/>
    <property name="Type" value="Dirt"/>
   </properties>
  </tile>
  <tile id="704">
   <properties>
    <property name="Type" value="Grass"/>
   </properties>
  </tile>
  <tile id="705">
   <properties>
    <property name="Type" value="Dirt"/>
   </properties>
  </tile>
  <tile id="706">
   <properties>
    <property name="Diggable" value="T"/>
    <property name="Type" value="Dirt"/>
   </properties>
  </tile>
  <tile id="707">
   <properties>
    <property name="Type" value="Grass"/>
   </properties>
  </tile>
  <tile id="709">
   <animation>
    <frame tileid="709" duration="1000"/>
    <frame tileid="1235" duration="1000"/>
   </animation>
  </tile>
  <tile id="734">
   <properties>
    <property name="Water" value="T"/>
   </properties>
  </tile>
  <tile id="759">
   <properties>
    <property name="Water" value="T"/>
   </properties>
  </tile>
  <tile id="779">
   <properties>
    <property name="Passable" value="T"/>
    <property name="Type" value="Wood"/>
   </properties>
  </tile>
  <tile id="780">
   <properties>
    <property name="Passable" value="T"/>
    <property name="Type" value="Wood"/>
   </properties>
  </tile>
  <tile id="781">
   <properties>
    <property name="Passable" value="T"/>
    <property name="Type" value="Wood"/>
   </properties>
  </tile>
  <tile id="782">
   <properties>
    <property name="Passable" value="T"/>
    <property name="Type" value="Wood"/>
   </properties>
  </tile>
  <tile id="809">
   <properties>
    <property name="Passable" value="T"/>
    <property name="Type" value="Wood"/>
   </properties>
  </tile>
  <tile id="812">
   <properties>
    <property name="Type" value="Stone"/>
   </properties>
  </tile>
  <tile id="813">
   <properties>
    <property name="Type" value="Stone"/>
   </properties>
  </tile>
  <tile id="834">
   <properties>
    <property name="Passable" value="T"/>
    <property name="Type" value="Wood"/>
   </properties>
  </tile>
  <tile id="859">
   <properties>
    <property name="Passable" value="T"/>
    <property name="Type" value="Wood"/>
   </properties>
  </tile>
  <tile id="860">
   <properties>
    <property name="Passable" value="T"/>
    <property name="Type" value="Wood"/>
   </properties>
  </tile>
  <tile id="884">
   <properties>
    <property name="Passable" value="T"/>
    <property name="Type" value="Wood"/>
   </properties>
  </tile>
  <tile id="885">
   <properties>
    <property name="Passable" value="T"/>
    <property name="Type" value="Wood"/>
   </properties>
  </tile>
  <tile id="910">
   <properties>
    <property name="Passable" value="T"/>
    <property name="Type" value="Wood"/>
   </properties>
  </tile>
  <tile id="947">
   <properties>
    <property name="Type" value="Stone"/>
   </properties>
  </tile>
  <tile id="948">
   <properties>
    <property name="Type" value="Stone"/>
   </properties>
  </tile>
  <tile id="949">
   <properties>
    <property name="Type" value="Stone"/>
   </properties>
  </tile>
  <tile id="972">
   <properties>
    <property name="Type" value="Stone"/>
   </properties>
  </tile>
  <tile id="973">
   <properties>
    <property name="Type" value="Stone"/>
   </properties>
  </tile>
  <tile id="974">
   <properties>
    <property name="Type" value="Stone"/>
   </properties>
  </tile>
  <tile id="998">
   <properties>
    <property name="Type" value="Stone"/>
   </properties>
  </tile>
  <tile id="999">
   <properties>
    <property name="Type" value="Stone"/>
   </properties>
  </tile>
  <tile id="1186">
   <properties>
    <property name="Water" value="T"/>
   </properties>
  </tile>
  <tile id="1187">
   <properties>
    <property name="Water" value="T"/>
   </properties>
  </tile>
  <tile id="1188">
   <properties>
    <property name="Water" value="T"/>
   </properties>
  </tile>
  <tile id="1211">
   <properties>
    <property name="Water" value="T"/>
   </properties>
  </tile>
  <tile id="1212">
   <properties>
    <property name="Water" value="T"/>
   </properties>
  </tile>
  <tile id="1213">
   <properties>
    <property name="Water" value="T"/>
   </properties>
  </tile>
  <tile id="1225">
   <animation>
    <frame tileid="1225" duration="100"/>
    <frame tileid="1226" duration="100"/>
    <frame tileid="1250" duration="100"/>
    <frame tileid="1251" duration="100"/>
    <frame tileid="1275" duration="100"/>
    <frame tileid="1276" duration="100"/>
   </animation>
  </tile>
  <tile id="1227">
   <properties>
    <property name="Water" value="T"/>
   </properties>
  </tile>
  <tile id="1228">
   <properties>
    <property name="Water" value="T"/>
   </properties>
  </tile>
  <tile id="1229">
   <properties>
    <property name="Water" value="T"/>
   </properties>
  </tile>
  <tile id="1230">
   <properties>
    <property name="Water" value="T"/>
   </properties>
  </tile>
  <tile id="1231">
   <properties>
    <property name="Water" value="T"/>
   </properties>
  </tile>
  <tile id="1237">
   <properties>
    <property name="Water" value="T"/>
   </properties>
  </tile>
  <tile id="1238">
   <properties>
    <property name="Water" value="T"/>
   </properties>
  </tile>
  <tile id="1239">
   <properties>
    <property name="Water" value="T"/>
   </properties>
  </tile>
  <tile id="1240">
   <properties>
    <property name="Water" value="T"/>
   </properties>
  </tile>
  <tile id="1241">
   <properties>
    <property name="Water" value="T"/>
   </properties>
  </tile>
  <tile id="1242">
   <properties>
    <property name="Water" value="T"/>
   </properties>
  </tile>
  <tile id="1243">
   <properties>
    <property name="Water" value="T"/>
   </properties>
  </tile>
  <tile id="1244">
   <properties>
    <property name="Water" value="T"/>
   </properties>
  </tile>
  <tile id="1245">
   <properties>
    <property name="Water" value="T"/>
   </properties>
  </tile>
  <tile id="1246">
   <properties>
    <property name="Passable" value="F"/>
    <property name="Water" value="T"/>
   </properties>
  </tile>
  <tile id="1247">
   <properties>
    <property name="Water" value="T"/>
   </properties>
  </tile>
  <tile id="1248">
   <properties>
    <property name="Passable" value="F"/>
    <property name="Water" value="T"/>
   </properties>
  </tile>
  <tile id="1249">
   <properties>
    <property name="Passable" value="F"/>
    <property name="Water" value="T"/>
   </properties>
  </tile>
  <tile id="1252">
   <properties>
    <property name="Water" value="T"/>
   </properties>
  </tile>
  <tile id="1253">
   <properties>
    <property name="Water" value="T"/>
   </properties>
  </tile>
  <tile id="1254">
   <properties>
    <property name="Water" value="T"/>
   </properties>
  </tile>
  <tile id="1255">
   <properties>
    <property name="Water" value="T"/>
   </properties>
  </tile>
  <tile id="1256">
   <properties>
    <property name="Water" value="T"/>
   </properties>
  </tile>
  <tile id="1263">
   <properties>
    <property name="Water" value="T"/>
   </properties>
  </tile>
  <tile id="1264">
   <properties>
    <property name="Water" value="T"/>
   </properties>
  </tile>
  <tile id="1265">
   <properties>
    <property name="Water" value="T"/>
   </properties>
  </tile>
  <tile id="1266">
   <properties>
    <property name="Passable" value="F"/>
    <property name="Water" value="T"/>
   </properties>
  </tile>
  <tile id="1267">
   <properties>
    <property name="Passable" value="F"/>
    <property name="Water" value="T"/>
   </properties>
  </tile>
  <tile id="1268">
   <properties>
    <property name="Water" value="T"/>
   </properties>
  </tile>
  <tile id="1269">
   <properties>
    <property name="Water" value="T"/>
   </properties>
  </tile>
  <tile id="1270">
   <properties>
    <property name="Water" value="T"/>
   </properties>
  </tile>
  <tile id="1271">
   <properties>
    <property name="Passable" value="F"/>
    <property name="Water" value="T"/>
   </properties>
  </tile>
  <tile id="1272">
   <properties>
    <property name="Water" value="T"/>
   </properties>
  </tile>
  <tile id="1273">
   <properties>
    <property name="Water" value="T"/>
   </properties>
  </tile>
  <tile id="1274">
   <properties>
    <property name="Water" value="T"/>
   </properties>
  </tile>
  <tile id="1277">
   <properties>
    <property name="Water" value="T"/>
   </properties>
  </tile>
  <tile id="1278">
   <properties>
    <property name="Water" value="T"/>
   </properties>
  </tile>
  <tile id="1279">
   <properties>
    <property name="Water" value="T"/>
   </properties>
  </tile>
  <tile id="1280">
   <properties>
    <property name="Water" value="T"/>
   </properties>
  </tile>
  <tile id="1281">
   <properties>
    <property name="Water" value="T"/>
   </properties>
  </tile>
  <tile id="1293">
   <animation>
    <frame tileid="1293" duration="500"/>
    <frame tileid="1294" duration="500"/>
    <frame tileid="1295" duration="500"/>
    <frame tileid="1296" duration="500"/>
   </animation>
  </tile>
  <tile id="1297">
   <properties>
    <property name="Water" value="T"/>
   </properties>
  </tile>
  <tile id="1298">
   <properties>
    <property name="Water" value="T"/>
   </properties>
  </tile>
  <tile id="1299">
   <properties>
    <property name="Passable" value="F"/>
    <property name="Water" value="T"/>
   </properties>
  </tile>
  <tile id="1302">
   <properties>
    <property name="Water" value="T"/>
   </properties>
  </tile>
  <tile id="1303">
   <properties>
    <property name="Water" value="T"/>
   </properties>
  </tile>
  <tile id="1304">
   <properties>
    <property name="Water" value="T"/>
   </properties>
  </tile>
  <tile id="1305">
   <properties>
    <property name="Water" value="T"/>
   </properties>
  </tile>
  <tile id="1306">
   <properties>
    <property name="Water" value="T"/>
   </properties>
  </tile>
  <tile id="1318">
   <animation>
    <frame tileid="1318" duration="450"/>
    <frame tileid="1319" duration="450"/>
    <frame tileid="1320" duration="450"/>
    <frame tileid="1321" duration="450"/>
   </animation>
  </tile>
  <tile id="1322">
   <properties>
    <property name="Water" value="T"/>
   </properties>
  </tile>
  <tile id="1323">
   <properties>
    <property name="Water" value="T"/>
   </properties>
  </tile>
  <tile id="1324">
   <properties>
    <property name="Water" value="T"/>
   </properties>
  </tile>
  <tile id="1345">
   <properties>
    <property name="Passable" value="T"/>
   </properties>
  </tile>
  <tile id="1370">
   <animation>
    <frame tileid="1370" duration="100"/>
    <frame tileid="1370" duration="100"/>
    <frame tileid="1370" duration="100"/>
    <frame tileid="1370" duration="100"/>
    <frame tileid="1370" duration="100"/>
    <frame tileid="1370" duration="100"/>
    <frame tileid="1370" duration="100"/>
    <frame tileid="1370" duration="100"/>
    <frame tileid="1370" duration="100"/>
    <frame tileid="1370" duration="100"/>
    <frame tileid="1370" duration="100"/>
    <frame tileid="1370" duration="100"/>
    <frame tileid="1370" duration="100"/>
    <frame tileid="1370" duration="100"/>
    <frame tileid="1370" duration="100"/>
    <frame tileid="1370" duration="100"/>
    <frame tileid="1371" duration="100"/>
    <frame tileid="1372" duration="100"/>
    <frame tileid="1373" duration="100"/>
    <frame tileid="1374" duration="100"/>
    <frame tileid="1424" duration="100"/>
   </animation>
  </tile>
  <tile id="1474">
   <animation>
    <frame tileid="1474" duration="100"/>
    <frame tileid="1395" duration="100"/>
    <frame tileid="1395" duration="100"/>
    <frame tileid="1395" duration="100"/>
    <frame tileid="1395" duration="100"/>
    <frame tileid="1395" duration="100"/>
    <frame tileid="1395" duration="100"/>
    <frame tileid="1395" duration="100"/>
    <frame tileid="1395" duration="100"/>
    <frame tileid="1395" duration="100"/>
    <frame tileid="1395" duration="100"/>
    <frame tileid="1395" duration="100"/>
    <frame tileid="1395" duration="100"/>
    <frame tileid="1395" duration="100"/>
    <frame tileid="1395" duration="100"/>
    <frame tileid="1395" duration="100"/>
    <frame tileid="1395" duration="100"/>
    <frame tileid="1395" duration="100"/>
    <frame tileid="1395" duration="100"/>
    <frame tileid="1399" duration="100"/>
    <frame tileid="1449" duration="100"/>
   </animation>
  </tile>
  <tile id="1637">
   <properties>
    <property name="Type" value="Wood"/>
   </properties>
  </tile>
  <tile id="1638">
   <properties>
    <property name="Type" value="Wood"/>
   </properties>
  </tile>
  <tile id="1639">
   <properties>
    <property name="Type" value="Wood"/>
   </properties>
  </tile>
  <tile id="1662">
   <properties>
    <property name="Type" value="Wood"/>
   </properties>
  </tile>
  <tile id="1663">
   <properties>
    <property name="Type" value="Wood"/>
   </properties>
  </tile>
  <tile id="1664">
   <properties>
    <property name="Type" value="Wood"/>
   </properties>
  </tile>
  <tile id="1716">
   <properties>
    <property name="Water" value="T"/>
   </properties>
  </tile>
  <tile id="1717">
   <properties>
    <property name="Water" value="T"/>
   </properties>
  </tile>
  <tile id="1718">
   <properties>
    <property name="Water" value="T"/>
   </properties>
  </tile>
  <tile id="1719">
   <animation>
    <frame tileid="1719" duration="950"/>
    <frame tileid="1720" duration="950"/>
   </animation>
  </tile>
  <tile id="1964">
   <properties>
    <property name="Type" value="Stone"/>
   </properties>
  </tile>
  <tile id="1965">
   <properties>
    <property name="Type" value="Stone"/>
   </properties>
  </tile>
  <tile id="1966">
   <properties>
    <property name="Type" value="Stone"/>
   </properties>
  </tile>
 </tileset>
 <tileset firstgid="8343" name="zlumisteria_buildings" tilewidth="16" tileheight="16" tilecount="1875" columns="25">
  <image source=".winter_mod_lumisteria_tilesheetsoutdoor_buildings.png" width="400" height="1200"/>
 </tileset>
 <tileset firstgid="10218" name="Xiddav_FestivalExtras" tilewidth="16" tileheight="16" tilecount="800" columns="40">
  <image source=".Xiddav_FestivalExtras.png" width="640" height="320"/>
 </tileset>
 <layer id="1" name="Back" width="120" height="120">
  <data encoding="csv">
6719,6719,6719,6719,6719,6719,6719,6719,6719,6719,6719,7462,7462,7462,7462,7462,7462,6719,6719,6747,6748,6748,6748,6748,6748,7462,7489,6748,6748,6748,6749,6725,6773,6775,6748,6748,6748,6748,6748,6748,6748,6748,6748,6748,6748,6748,6524,6748,6748,6748,6748,6775,6773,6524,6748,6725,6773,6700,6748,6775,6773,6773,6773,6773,6773,6774,6719,6720,2906,6596,3266,6654,6747,6748,6543,6543,6718,6697,6719,6672,6746,6696,6697,6672,6673,6719,6719,6719,6719,6719,6697,6719,6697,6720,6718,6668,6672,6719,6719,6719,6719,6719,6719,6719,6772,6773,6773,6774,6672,6719,6719,6719,6668,6672,6722,6723,6723,6724,6719,6668,
7462,7462,7462,7462,7462,7462,7462,6719,6719,6719,6719,7462,7462,7462,7462,7462,7462,6719,6719,6747,6748,6748,6748,6748,7462,7462,7489,6524,6748,6748,6750,6749,6719,6747,6748,6748,6748,6748,6748,6524,6748,6748,6748,6748,6748,6524,6748,6748,6748,6524,6748,6748,6748,6748,6725,6774,6719,6772,6773,6774,6719,6719,6722,6723,6724,6719,6719,6720,6618,3445,6571,6679,6747,6748,6543,6543,6743,6744,6744,6771,6719,6719,6719,6668,6719,6719,6719,6697,6672,6719,6721,6744,6744,6745,6644,6645,6646,6744,6744,6744,6744,6744,6744,6744,6644,6645,6646,6744,6771,6719,6719,6719,6719,6719,6747,6748,6748,6749,6719,6719,
7462,7462,7462,7462,7462,7462,7462,7462,7462,7462,7462,7462,7462,7462,7462,7462,7462,7462,7462,7462,7462,7462,7462,7462,7462,7460,7488,6748,6748,6748,6748,6750,6723,6700,6748,6748,6748,6748,6748,6748,6748,6748,6748,6748,6748,6725,6773,6775,6748,6748,6748,6748,6524,6725,6774,6719,6719,6719,6719,6719,6719,6719,6747,6748,6749,6719,6721,6745,6568,5655,6596,6718,6747,6748,6695,6543,6543,6543,6543,6743,6744,6771,6719,6719,6719,6719,6719,6719,6719,6668,6720,6543,6543,6543,6543,6543,6543,6543,6543,6543,6543,6543,6543,6543,6543,6543,6543,6543,6743,6744,6771,6719,6719,6719,6772,6773,6773,6774,6719,6719,
7462,7462,7462,7462,7462,7462,7462,7462,7462,7462,7462,7462,7462,7462,7462,7462,7462,7462,7462,7462,7462,7462,7462,7462,7460,7488,6748,6725,6773,6775,6748,6748,6748,6748,6524,6748,6748,6524,6748,6748,6748,6748,6524,6748,6748,6749,6719,6747,6748,6748,6748,6748,6748,6749,6668,6719,6672,6719,5649,6719,6672,6719,6772,6773,6774,6719,6720,6568,3370,6546,6621,6718,6747,6748,6720,6543,6543,6543,6543,6543,6543,6743,6744,6771,6719,6719,6719,6719,6721,6744,6745,6543,6543,6543,6543,6543,6543,6543,6543,6543,6543,6543,6543,6543,6543,6543,6543,6543,6543,6543,6743,6744,6771,6719,6719,6719,6672,6719,6719,6719,
7462,7462,7462,7462,7462,7462,7462,7462,7462,7462,7462,7462,7462,7462,7462,7462,7462,7462,7462,7462,7462,7462,7462,7460,7488,6524,6748,6749,6719,6747,6748,6748,6748,6748,6748,6748,6748,6748,6748,6748,6748,6748,6748,6748,6748,6750,6723,6700,6524,6748,6748,6748,6748,6750,6724,6719,6719,6719,6719,6672,6673,6719,6719,6719,6719,6719,6720,6593,6856,2873,6693,6696,6772,6773,6775,6748,6543,6543,6543,6543,6543,6543,6543,6743,6697,6719,6719,6721,6745,6543,6543,6543,6543,6543,6543,6543,6543,6543,6543,6543,6543,6543,6543,6543,6543,6543,6543,6543,6543,6543,6543,6543,6718,6719,6719,6721,6719,6719,6719,6719,
7487,7487,7487,7461,7462,7462,7462,7462,7462,7462,7462,7462,7462,7462,7462,7462,7462,7462,7462,7462,7462,7462,7460,7488,6748,6748,6748,6750,6723,6700,6748,6748,6725,6773,6773,6721,6645,6646,6744,6744,6744,6744,6744,6744,6771,6772,6773,6748,6748,6748,6748,6748,6748,6748,6748,6724,6719,6719,6719,6719,6672,6719,6719,6719,6719,6719,6720,6618,6620,2905,6718,6719,6719,6719,6772,6775,6748,6748,6748,6543,6860,6693,6694,6695,6718,6719,6668,6746,6694,6694,6695,6693,6747,6748,6748,6748,6748,6748,6748,6748,6748,6748,6748,6748,6748,6748,6748,6748,6750,6723,6695,6629,6672,6719,6719,6746,6722,6723,6723,6723,
6773,6773,6775,7463,7461,7462,7462,7462,7462,7462,7462,7462,7462,7462,7462,7462,7462,7462,7462,7462,7462,7460,7488,6748,6748,6524,6748,6748,6748,6748,6748,6725,6774,6721,6744,6745,6543,6543,6543,6543,6543,6543,6543,6543,6743,6744,6771,6773,6775,6748,6748,6725,6773,6775,6524,6749,6719,6719,6719,6719,6719,6719,6719,6719,6719,6719,6720,6543,2874,6596,6718,6697,6697,6719,6672,6772,6775,6748,6748,6748,6885,6718,6719,6746,6696,6673,6672,6719,6697,6719,6720,6748,6748,6748,6748,6748,6748,6748,6748,6748,6748,6748,6524,6748,6748,6524,6748,6748,6748,6748,6720,6654,6722,6723,6724,6672,6747,6748,6748,6748,
6719,5649,6772,6775,7463,7461,7462,7462,7462,7462,7462,7462,7462,7462,7462,7462,7462,7462,7462,7462,7462,7460,6748,6725,6773,6775,6748,6748,6748,6524,6748,6749,6719,6649,6543,6768,6693,6694,6694,6694,6694,6694,6694,6695,6519,6769,6629,5649,6747,6524,6725,6774,6719,6772,6773,6774,2456,6668,6719,6719,6719,6672,6719,6719,6719,6719,6720,3565,2890,6596,6743,6771,6697,6672,6719,6673,6772,6775,6748,6748,6748,6718,6719,6719,6672,6668,6719,6697,6719,6721,6745,6748,6748,6748,6748,6748,6748,6748,6748,6748,6748,6748,6748,6748,6748,6748,6748,6748,6748,6748,6748,6679,6747,6748,6750,6724,6747,6748,6748,6748,
6723,6723,6724,6772,6775,7463,7487,7487,7487,7487,7487,7487,7487,7487,7487,7487,7487,7487,7487,7487,7487,7488,6748,6749,6719,6747,6748,6748,6748,6748,6748,6749,6719,6674,6518,6693,6696,6722,6723,6723,6723,6723,6724,6746,6695,6518,6629,6719,6772,6773,6774,6719,6719,6719,6719,6719,6719,6719,6719,6719,6719,6719,6719,6719,6719,6719,6720,3589,2906,6596,6543,6718,6719,6719,6719,6672,6673,6772,6775,6748,6748,6743,6744,6744,6644,6645,6646,6744,6744,6745,6518,6748,6748,6748,6748,6748,6748,6748,6748,6748,6775,6773,6773,6773,6773,6773,6775,6748,6748,6748,6748,6718,6772,6773,6775,6749,6772,6700,6748,6748,
6748,6748,6750,6724,6772,6775,6524,6748,6748,6748,6748,6748,6524,6748,6748,6748,6748,6748,6748,6748,6748,6748,6748,6750,6723,6700,6748,6748,6748,6748,6748,6749,6719,6699,6543,6718,6719,6747,6524,6748,6748,6748,6749,6673,6720,6543,6654,6719,6719,6719,6719,6719,6719,6719,6719,6719,6719,6719,6719,6719,6719,6719,6719,6719,6719,6721,6745,6543,6593,6596,6519,6743,6744,6771,6719,6672,6719,6672,6772,6775,6748,6543,6543,6543,6693,6694,6694,6694,6695,6543,6519,6748,6748,6775,6773,6721,6744,6744,6744,6744,6744,6744,6744,6771,6719,6697,6772,6700,6748,6748,6720,6743,6744,6771,6772,6774,6672,6772,6773,6773,
6543,6543,6543,6718,6724,6772,6773,6773,6775,6524,6748,6748,6748,6748,6748,6748,6524,6748,6748,6748,6748,6748,6748,6524,6748,6748,6748,6748,6748,6524,6725,6774,6719,6720,6519,6718,6672,6747,6748,6748,6748,6524,6749,6672,6720,6543,6679,6719,6719,6719,6719,6719,6719,6719,6719,6697,6697,6668,6719,6719,6719,6721,6744,6744,6744,6745,6568,6569,3444,6621,6543,6543,6624,6743,6771,6719,6719,6719,6719,6747,6748,6543,6543,6543,6743,6744,6744,6744,6745,6518,6543,6748,6748,6749,6744,6745,6543,6543,6543,6543,6543,6543,6694,6696,6719,6719,6719,6747,6748,6524,6749,6543,6543,6743,6771,6719,6719,6719,6719,6719,
6694,6695,6543,6748,6750,6724,6719,5649,6772,6773,6773,6773,6773,6773,6773,6773,6773,6773,6773,6773,6773,6773,6773,6773,6773,6773,6773,6773,6773,6773,6774,6719,6719,6720,6643,6743,6771,6772,6773,6773,6773,6773,6774,6721,6745,6520,6718,6719,6697,6697,6719,6672,6719,6719,6719,6719,6719,6719,6719,6672,6719,6746,6695,6643,6543,6543,6593,6932,6545,5589,6547,6548,6573,6571,6718,5649,6719,6719,6719,6747,6748,6749,6746,6694,6694,6694,6694,6694,6695,6623,6543,6700,6748,6566,6543,6543,6543,6543,6543,6543,6543,6543,6719,6719,6719,6719,6668,6772,6775,6748,6750,6723,6543,6543,6743,6744,6771,6719,6719,6719,
6719,6746,6695,6748,6748,6749,6672,6719,6719,6719,6721,6771,6719,6719,6719,6672,6719,6719,6719,6719,6668,6719,6672,6673,6672,6719,6719,6719,6719,6719,6719,6672,6719,6746,6695,6624,6743,6744,6644,6645,6645,6646,6744,6745,6518,6543,6743,6644,6645,6646,6771,6719,6697,6697,6697,6672,6719,6672,6719,6719,6697,6697,6720,6543,3394,6569,5592,6831,6544,6544,6957,6595,6550,6596,6743,6744,6744,6771,6719,6747,6748,6749,6748,6748,6748,6748,6719,7597,6745,6543,6543,6566,6566,6567,6543,6543,6543,6543,6543,6543,6543,6693,6719,6721,6744,6771,6697,6719,6747,6524,6748,6748,6695,6543,6543,6543,6743,6771,6719,6719,
6719,6719,6720,6748,6748,6749,6719,6719,6719,6719,6746,6696,6719,6719,6719,6719,6719,6719,6719,6719,6719,6719,6719,6672,6719,6719,6697,6719,6719,6668,6719,6719,6719,6719,6746,6695,6543,6518,6769,6543,6643,6643,6543,6643,6693,6695,6518,6543,6643,6643,6743,6744,6771,6719,6719,6673,6719,6719,6719,6719,5649,6721,6745,6543,3345,6881,6595,6594,6595,6595,6881,6599,6594,3369,5589,5590,3395,6743,6771,6772,6773,6774,6773,6773,6773,6773,6719,7597,6543,6543,6543,6591,6591,6592,6543,6639,6639,6639,6639,6639,6639,6718,6719,6720,6543,6718,6719,6697,6747,6748,6748,6748,6746,6695,6543,6543,6543,6718,6697,6672,
6723,6724,6720,7464,6748,6774,6719,6719,6719,6672,6719,6719,6719,6697,6672,6719,6719,6697,6697,6719,6697,6697,6697,6719,6719,6719,6719,6719,6719,6719,6719,5649,6719,6719,6721,6745,6643,6693,6694,6694,6694,6669,6670,6671,6696,6746,6694,6694,6694,6695,6543,6768,6743,6644,6645,6646,6771,6672,6719,6721,6744,6745,6518,6568,5655,6957,6595,6594,6831,6594,6544,6595,6544,6594,6595,6575,6545,6571,6743,6771,6668,6719,6719,6746,6719,6719,6695,6543,6543,6543,6543,6639,6639,6639,6543,6639,6639,6639,6639,6639,6639,6639,6719,6746,6695,6743,6744,6771,6772,6748,6748,6748,6748,6748,6695,6543,6543,6718,6719,6697,
6748,6749,6746,6695,6743,6771,6719,6719,6672,6719,6719,6668,6719,6719,6721,6771,6719,6719,6719,6719,6719,6719,6719,6719,6719,5649,6672,6719,6668,6719,6719,6719,6719,6721,6745,6568,6571,6718,6719,6719,6672,6719,6719,6697,6719,6719,6719,6719,6697,6746,6695,6643,6543,6643,6543,6643,6743,6744,6744,6745,6543,6543,6568,3370,6928,6594,6544,6544,6595,6544,6575,6544,6595,6544,6595,6831,6595,3344,6518,6743,6771,6719,6719,6719,6719,6719,6746,6694,6641,7341,7341,6639,6639,6639,6543,6639,6639,6594,6594,6594,6639,6639,6719,6719,6720,6543,6768,6718,6719,6772,6700,6748,6748,6748,6748,6694,6695,6743,6744,6744,
6524,6749,6719,6720,6519,6543,6543,6719,6719,6697,6697,6697,6672,6719,6746,6696,6719,6719,6719,6672,6719,6719,6697,6697,6697,6721,6744,6644,6646,6744,6644,6645,6646,6745,6568,6570,6596,6743,6645,6646,6744,6744,6644,6645,6646,6771,6719,5649,6719,6719,6746,6694,6695,6643,6643,6543,6643,3266,6518,6568,6569,5589,6570,6575,6595,6595,6550,6594,6544,6595,6594,6594,6595,6595,6595,6594,6549,6545,6569,6571,6743,6644,6645,6646,6744,6744,6744,6744,6744,8332,8333,6743,6744,6744,6568,6570,6982,6831,6594,6545,6571,6644,6645,6646,6745,6543,6543,6743,6771,6719,6772,6773,6748,6748,6748,6748,6748,6518,6519,6543,
6773,6774,6672,6746,6694,6695,6543,6719,6719,6719,6719,6672,6673,6672,6719,6719,6672,6719,6672,6719,6719,6719,6719,6719,6721,6745,6543,6568,5590,6547,6548,6573,6569,5589,6570,6549,6545,6547,6548,6548,6573,5589,6571,6518,6520,6743,6771,6719,6719,6697,6719,6719,6746,6669,6670,6671,6694,6694,6695,6618,6620,6549,6594,6544,6595,6595,6595,6544,6594,6544,6595,6595,6928,6595,6594,6595,6595,6599,6595,6545,6569,6547,6548,6573,5589,5590,6547,6548,6573,5589,5590,6571,6670,6624,6593,6978,6594,6595,6595,6575,6545,6569,6569,6571,6543,6543,6543,6518,6718,6697,6719,6719,6748,6748,6748,6748,6748,6543,6543,6518,
6719,6719,6719,6719,6719,6720,6543,6543,6771,6719,6719,6719,6672,6673,6719,6719,6719,6719,6719,6697,6697,6697,6719,6721,6745,6568,5591,6570,7612,7612,7612,7612,7612,8005,8006,8007,7612,7612,7612,7612,7613,3094,6545,6569,6571,6768,6743,6771,6697,6672,6719,6719,6719,6719,6719,6719,6697,6697,6720,6543,6618,6619,3320,6831,6544,6595,6594,6544,6544,6595,6594,6595,6594,6595,6881,6594,6595,6594,6546,6619,6619,6620,6544,6544,6544,6881,6544,6957,6595,6595,6546,6621,6543,6568,6570,6599,6594,6595,6594,6595,6856,6575,6594,6545,6571,6543,6543,6543,6718,6672,6722,6723,6748,6748,6748,6748,6748,6543,6543,6543,
6719,6672,5649,6719,6719,6746,6694,6695,6743,6771,6719,6672,6673,6719,6719,6719,6721,6771,6672,6719,6719,6719,6719,6720,6568,6570,7611,7612,2981,7637,7637,7637,7637,8030,8031,8032,7637,7637,7637,7637,2985,2986,6957,6881,6545,6569,6571,6743,6771,6719,6719,6697,6668,5649,6719,6697,6719,6719,6746,6695,6769,6543,3419,6619,6620,6599,6544,6594,6544,6544,6595,6550,6574,6546,6619,6619,6597,6572,6621,6543,6543,6618,6619,6620,6544,6546,6619,6597,6598,6572,6621,6518,6543,6618,6620,6831,6594,6595,6595,6594,6595,6594,6595,6574,6596,6543,6543,6519,6743,6771,6747,6748,6748,6748,6748,6748,6748,6543,6543,6543,
6719,6673,6719,6719,6719,6719,6719,6746,6695,6718,6719,6719,6672,6672,6719,6719,6746,6696,6719,6719,6719,6719,6672,6720,2874,7611,2981,7637,7634,7667,7691,7597,7597,8030,8031,8032,7642,8086,7692,7667,2983,2984,7612,7612,7613,3094,6545,6571,6743,6744,6771,6719,6672,6719,6721,6744,6771,6697,6719,6746,6695,6543,6643,6543,6618,6597,6598,6572,6620,6550,6546,6597,6572,6621,6543,6543,6518,6624,6768,6543,6543,6518,6543,6593,6544,6596,6543,6769,6543,6643,3266,6643,6543,6624,6593,6856,6831,6594,6595,6595,6594,6595,6599,6856,6596,6543,6543,6543,6768,6718,6747,6748,6748,6749,6747,6748,6748,6695,6543,6543,
6672,6719,6719,6719,6719,5649,6719,6719,6720,6718,6672,6719,6719,6719,6719,6697,5649,6719,6697,6697,6721,6744,6744,6745,2906,7636,7634,7641,7597,7597,7597,8086,7642,8030,8031,8032,7642,7690,7597,7597,7667,2983,7637,7637,2984,2987,6544,6545,6571,6519,6743,6771,5649,6697,6720,6519,6718,6719,6721,6771,6746,6695,6543,6769,6543,6518,6568,6571,6618,6619,3420,6543,6693,6695,6543,6520,6543,6543,6624,6624,6624,6543,6568,6570,6928,6545,6571,6543,6518,6543,6693,6694,6695,6624,6618,6619,6619,6619,6619,6619,6619,6619,6619,6619,6621,6543,6543,6543,6543,6718,6772,6773,6773,6774,6772,6773,6773,6746,6694,6694,
6721,6744,6744,6744,6771,6719,6719,6719,6720,6718,6719,6719,6697,6697,6719,6668,6719,6719,6668,6721,6745,6518,6543,6568,5655,7597,7667,7639,7642,7639,7690,7597,7597,8030,8031,8032,7597,7642,7642,7642,7597,7617,7597,7642,2983,2984,7613,3094,6545,6571,6768,6743,6771,6719,6746,6694,6696,6719,6746,6696,6697,6746,6695,6693,6694,6695,6618,6621,6543,6643,6543,6643,6743,6745,6543,6643,6624,6624,6543,6543,6568,6569,6570,6978,6595,6549,6596,6543,6543,6769,6743,6744,6745,6624,6624,6624,6624,6624,6624,6624,6624,6624,6624,6624,6624,6624,6624,6624,6624,6743,6744,6744,6744,6744,6744,6771,6719,6719,6719,6719,
6745,6519,6543,6543,6743,6744,6744,6771,6720,6718,5649,6719,6719,6672,6719,6719,6719,6719,6721,6745,6769,6543,6543,6593,6953,3000,7614,7690,7639,7639,7597,7617,7642,8030,8031,8032,7597,7692,7597,7617,7597,7642,7597,7597,7597,2983,2984,2987,6544,6596,6543,6543,6743,6771,6697,6673,6719,6719,6668,6719,6719,6719,6649,6718,6672,6720,6543,6643,6643,6543,6643,6643,6543,6518,6543,6543,6643,6543,6568,6571,6593,6595,6594,6595,6575,6594,6545,6569,6547,6548,6548,6573,6569,5589,5590,6547,6548,6573,6571,6769,6543,6643,6543,6520,6543,6543,6543,6768,6624,6543,6543,6518,6543,6519,6543,6743,6744,6744,6744,6744,
3539,3564,6543,6543,6543,6543,6693,6696,6720,6743,6771,6719,6719,6719,6719,6697,6697,6721,6745,6768,6543,6543,6568,6570,7611,2997,7614,7642,7642,7642,7642,8086,7597,8030,8031,8032,7597,7642,7691,7597,7597,7642,7692,7642,7597,7667,2983,7638,6881,6545,6571,6543,6519,6743,6771,6668,6672,6719,6719,6721,6771,6719,6674,6743,6744,6745,6543,6519,6543,6643,6518,6643,6543,6643,6643,6543,6543,6643,6593,6545,6570,6881,6595,6595,6595,6599,3319,6597,6572,6619,6619,6619,6597,6572,6620,6595,6546,6620,6545,6569,6569,6547,6573,6571,6543,6518,6543,6543,6769,6543,6543,6568,6569,6569,6547,6573,6571,6769,6568,6569,
6543,3565,3589,3540,6693,6694,6696,6719,6720,6543,6743,6771,6719,6719,6719,6719,6719,6720,6769,6643,6519,6568,5655,7611,2981,7634,7597,7642,7597,7597,7692,7597,7597,8055,8056,8057,7597,7597,7597,7597,7642,7597,7597,7642,7640,7642,7642,7597,6594,6928,6596,6543,6769,6643,6743,6744,6771,6719,6719,6746,6696,6719,6699,6769,6543,6543,6643,6543,6643,6543,6543,6769,6543,6543,6543,6543,6518,6543,6618,6619,6597,6572,6620,6574,6594,6595,6596,6768,6543,6543,6519,6543,6643,6543,2874,6575,3344,6618,6619,6597,6572,6619,6620,6545,6569,6569,6547,6573,6569,6569,6569,6570,6544,6856,6544,6575,6545,6569,6570,6544,
6694,6694,6694,6694,6696,7316,6719,5649,6720,6543,6693,6696,6719,6719,6719,6719,6721,6745,6643,6543,6543,6593,7611,2981,7634,7690,7642,7642,7642,7642,7597,7597,7597,8084,8085,8084,7597,8086,7597,7597,7642,7642,7642,7597,7597,7597,7642,6546,6620,6546,6621,6643,6543,6520,6543,6518,6718,6719,5649,6719,6719,6721,6745,6543,6543,6643,6643,6543,6643,6543,6543,6543,6543,6543,6543,6543,6543,6543,6543,6768,6543,6543,6618,3290,6597,6572,6621,6518,6543,6518,6543,6643,6543,6643,2906,6546,6621,6693,6695,6543,6643,6769,6618,6597,6598,6572,6619,6619,6619,6620,6544,6546,6597,6598,6572,6619,6620,6544,6546,6619,
6644,6645,6646,6744,7340,7341,6719,6721,6745,6693,6696,6719,6695,6771,6719,6697,6720,6769,6543,6568,6569,5592,7636,7634,7642,7597,7597,7692,7597,7597,7597,7642,7597,7642,7642,7642,7597,7597,7597,7597,7642,7642,7642,7642,7597,7641,7642,6545,6570,6596,6543,6543,6518,6543,6543,6543,6743,6771,6719,6668,6719,6720,6543,6518,6543,6543,6543,953,954,954,954,954,954,954,954,954,955,6543,6543,6693,6695,6518,6543,6643,6643,6543,6543,6643,6643,6643,6543,6643,6543,6568,6570,6596,6769,6743,6745,6769,6543,6543,6543,6543,6543,6543,6543,6543,6543,6618,6619,6621,6543,6518,6543,6518,6618,6619,6621,6543,
6543,6543,6543,6769,7340,7315,7342,6720,6543,6718,6719,6672,6746,6622,6771,6721,6745,6543,6543,6593,6550,6575,7597,7617,7597,7597,7597,7642,7597,7642,7597,7642,7642,7597,7597,7692,7596,7623,7623,7621,7692,7597,7597,7642,7642,7642,2999,6932,6856,6545,6571,6543,6543,3266,6769,6543,6518,6743,6771,6719,6719,6746,6695,6543,6543,953,954,956,1053,957,1053,1049,957,1053,1049,957,1052,955,6543,6743,6745,6543,6643,6543,6518,6543,6520,6543,6543,6543,6568,6547,6573,6570,6549,6545,6571,6543,6693,6694,6694,6694,6694,6694,6694,6694,6624,6693,6669,6670,6694,6694,6694,6694,6694,6694,6694,6694,6694,6694,
6518,6543,6543,6518,7341,7341,7315,7341,6543,6743,6744,6771,6673,6720,6718,6746,6694,6695,6520,6618,6620,6544,7597,7597,7597,7642,7597,7642,7597,7597,7597,7597,7597,7597,7692,7596,7645,7648,7670,7595,7621,7599,7597,7642,7642,7597,2998,7612,6544,6549,2873,6519,6643,6543,6543,6643,6519,6693,6696,5649,6672,6719,6720,6520,6543,985,1053,1053,1049,986,986,986,986,986,989,986,957,987,6643,6693,6694,6695,6543,6643,6543,6518,6543,6643,6543,6568,6570,3319,6597,6598,6572,6619,6621,6693,6696,6697,6697,6719,6719,6543,6543,6543,6694,6669,6719,6719,6722,6723,6724,6719,6719,6672,6722,6723,6723,6724,
6543,6693,6694,6694,6706,6706,6707,6706,6694,6694,6695,6743,6744,6745,6743,6744,6719,6720,6543,6543,2874,6594,3000,7690,7597,7597,7640,7639,7642,7597,7641,7597,7642,7597,7622,7648,7595,7648,7670,7670,7648,7624,7597,7597,7597,7597,7635,7637,6550,6544,2905,6518,6543,6543,6543,6693,6695,6718,6672,6719,6719,6719,6649,6643,6543,985,1049,986,986,1084,1085,986,986,1049,986,986,1049,1052,955,6718,6719,6746,6694,6694,6695,6543,6543,6643,6568,6570,6546,6621,6543,6643,6543,6693,6694,6696,7316,6672,6668,6719,6748,6771,6719,6719,6672,6719,6719,6722,6700,6748,6749,6719,6719,6719,6747,6524,6748,6749,
6543,6718,6719,6719,6706,6707,6706,6706,6719,6719,6746,6694,6695,6543,6693,6695,6718,6746,6695,6543,2906,6574,3016,7597,7617,7597,7614,7639,7597,7642,7642,7642,7554,7555,7556,7671,7648,7648,7670,7670,7648,7692,7642,7616,7597,7667,7597,7610,7612,7613,6545,6569,6571,6643,6543,6743,6745,6718,6719,6721,6771,6719,6674,6643,6543,985,986,986,957,1116,1117,986,986,986,986,986,986,957,987,6718,6719,6719,6719,6719,6649,6643,6643,6543,2874,6549,6596,6543,6622,6543,6769,6718,6719,7340,7315,7342,6719,6719,6719,6719,6719,6719,6719,6719,6719,6747,6748,6775,6774,6719,6719,6719,6772,6773,6773,6774,
6543,6718,6719,6719,6706,6706,6707,6706,6721,6771,6719,6719,6720,6693,6696,6649,6696,6719,6720,6543,6618,6620,7597,7642,7642,7597,7691,7597,7642,7597,7597,7597,7579,7580,7581,7690,7671,7648,7595,7670,7648,7624,7597,7597,7597,7597,7597,7635,7637,2984,7613,6881,6596,6769,6543,6520,6693,6696,6672,6746,6696,6719,6699,6543,953,956,986,986,986,986,986,1049,986,986,1084,1085,986,986,987,6718,6719,6719,6719,6719,6699,6543,6543,6543,2906,6546,3420,6543,6543,6520,6518,6743,6771,6672,7366,7316,6719,6719,6719,6719,6719,6719,6719,6719,6719,6721,6744,6744,6744,6744,6744,6744,6744,6771,6719,6721,
6543,6718,6649,2890,2887,2885,2886,2888,6596,6718,6719,6747,6720,6629,6719,6674,6718,6721,6745,6769,6543,6618,6620,7597,7597,7597,7597,7617,7597,7597,7692,7690,7616,7605,7606,7607,7622,7648,7645,7670,7648,7649,7692,7642,7642,7692,7597,7597,7597,7635,2984,7613,6545,6571,6543,6769,6718,6719,6719,6719,6719,6672,6720,6768,985,1053,986,1049,986,986,986,986,1049,986,1116,1117,986,989,987,6743,6744,6771,5649,6721,6745,6518,6543,6568,3370,6596,6643,6693,6694,6695,6568,6571,6743,6771,5649,7341,7342,7316,7340,7341,7341,7342,6719,6719,6719,6720,6769,6543,6518,3266,6543,6769,6543,6718,6719,6746,
6543,6719,6674,2906,7038,6880,6930,6933,6596,6718,6747,6748,6748,6679,6719,6699,6718,6649,6693,6695,6543,6518,6618,6620,7597,7597,7597,7597,7597,7615,7597,7597,7597,7690,7631,7632,7596,7670,7670,7648,7595,7624,7597,7642,7642,7597,7597,7642,7667,7667,7635,7638,6575,6545,6571,6693,6696,6719,6672,6719,6668,6721,6745,6543,985,989,986,986,986,1049,986,986,986,986,986,957,986,986,987,6769,6769,6743,6744,6745,6643,6543,6643,6618,6620,6545,6571,6743,6744,6745,6618,6621,6693,6696,6672,7366,7340,7315,7342,7366,6673,6719,6672,6719,6673,6720,6568,6547,6548,6573,6547,6573,6571,6743,6771,6719,
6695,6719,6699,6618,6597,6598,6572,6619,6621,6718,6772,6775,6748,6743,6744,6745,6718,6674,6718,6746,6695,6543,6543,6618,6620,7597,7667,7597,7597,7597,7597,7597,7642,7597,7616,7596,7648,7645,7648,7620,7648,7649,7642,7642,7642,7597,7690,7642,7597,7597,7615,7597,6544,6856,6596,6718,6719,6719,6719,6697,6697,6720,6769,6543,985,986,1084,1085,986,986,986,986,986,986,986,986,986,1049,987,6543,6693,6695,6543,6519,6643,6543,6518,6543,6618,6620,2873,6693,6694,6669,6670,6671,6696,6721,6644,6645,6645,6645,6646,6744,6644,6645,6646,6744,6744,6745,6593,6928,6575,6544,6881,6544,6545,6571,6743,6744,
6649,6673,6746,6695,6519,6518,6543,6643,6543,6718,6673,6747,6748,6694,6694,6694,6696,6699,6718,6719,6720,6543,6519,6543,6593,6549,7597,7597,7617,7597,7690,7597,7597,7597,7622,7648,7595,7648,7670,7646,7673,7692,7642,7642,7597,7642,7642,7642,7617,7597,7597,7597,6546,6619,6621,6718,6697,6697,6697,6719,6719,6720,6768,6543,985,1049,1116,1117,986,986,986,1049,986,986,1049,986,986,986,987,6543,6743,6745,6643,6543,6543,6643,6543,6643,6643,6593,2889,6718,5649,6672,6673,6719,6719,6720,3394,6547,6573,6569,6547,6573,6547,6548,6573,6569,6569,6569,6570,6544,6932,6544,6544,6978,6574,6545,6569,6569,
6674,6724,6672,6746,6669,6670,6671,6695,6622,6743,6771,6747,6749,6719,6719,6719,6719,6720,6718,6719,6746,6695,6543,6543,6618,6619,6620,6856,7597,7597,7597,7597,7617,7597,7597,7673,7673,7642,7673,7641,7642,7642,7597,7597,7597,7642,7597,7597,7597,7597,7642,2999,6596,6768,6693,6696,6719,6719,6719,6719,5649,6720,6543,6543,985,1021,986,986,986,986,1049,986,986,986,986,1084,1085,986,987,6643,6543,6643,6568,6547,6548,6573,6571,6643,6568,6570,2905,6743,6744,6644,6646,6744,6744,6745,6593,6831,6595,6953,7611,7612,7612,7612,7612,7612,7612,7612,7612,7612,7612,7612,7612,7612,7612,7612,7612,7612,
6699,6749,6719,6668,6672,6673,5649,6746,6695,6518,6718,6747,6750,6723,6723,6723,6724,6720,6629,6719,6668,6746,6695,6543,6543,6769,6618,6619,6620,6544,7597,7597,7597,7597,7642,7597,7597,7597,7597,7597,7597,7597,7642,7617,7642,7642,7597,7597,7691,7597,7597,3015,6596,6693,6696,6668,6719,6719,6719,6697,6719,6746,6695,6543,1017,988,986,1049,986,986,986,986,1021,986,986,1116,1117,989,987,6769,6543,6568,6570,6856,6544,6549,6545,6569,6570,6594,3369,3440,3441,6547,6548,6573,5589,5590,6570,6595,3029,7611,2981,7637,7637,7637,7637,7637,7637,7637,7637,7637,7637,7637,7637,7637,7637,7637,7637,7637,
6746,6774,6719,6719,6719,6719,6672,6668,6746,6695,6718,6772,6775,6748,6748,6748,6749,6720,6654,6672,6697,6697,6746,6695,6693,6695,6768,6769,6618,6620,6575,7597,7642,7597,7597,7691,7692,7597,7597,7597,7597,7597,7642,7642,7642,7597,7616,7597,7597,7597,7597,6546,6621,6718,6719,6719,6719,6719,6719,6719,6719,6719,6720,6643,6543,985,1021,986,986,986,1084,1085,986,986,1049,986,989,1020,1019,6543,6643,6593,6594,6544,6544,6544,6594,6544,6544,6594,6575,6549,6544,6957,6595,6595,6594,6957,6932,7611,2954,2955,7634,7667,7614,7691,7614,7614,7692,7614,7597,7597,7691,7597,7617,7597,7667,7597,7597,7690,
6719,6719,6721,6719,6673,5649,6673,6719,6719,6720,6743,6771,6772,6773,6773,6773,6774,6720,6679,6673,6697,6719,6719,6746,6696,6746,6694,6694,6695,6618,6620,6544,6978,6546,6620,7597,7597,7597,7597,7597,7667,7597,7597,7597,7667,7597,7597,7597,7597,7597,6544,6596,6693,6696,6719,6719,6719,6719,6719,6719,6721,6771,6649,6543,6543,1017,988,1021,986,1049,1116,1117,986,986,989,989,1020,1019,6543,6643,6543,6593,6544,6574,6594,6932,6928,6544,6544,6594,6595,3029,7611,7612,7612,7612,7612,7612,7612,2981,2970,2971,7667,7617,7614,7614,7614,7641,7614,7614,7690,7597,7597,7641,7597,7597,7617,7640,7597,7597,
6719,6719,6746,6719,6719,6719,6719,6719,6719,6746,6695,6743,6644,6646,6771,6697,6697,6720,6743,6644,6646,6771,6697,6697,6697,6673,5649,6719,6720,6520,6618,6619,6620,6545,6570,6549,6544,6831,6544,6574,6546,6620,6932,6856,6544,6978,6544,6594,6881,6546,6619,6621,6696,6668,6719,6672,5649,6719,6719,6719,6746,6696,6674,6543,6543,6543,985,1021,989,986,986,986,1049,986,989,1020,1019,6543,6568,6547,6573,6570,7611,7612,7612,7612,7612,7612,7612,7612,7612,2954,2955,7637,7637,7637,7637,7637,7637,7634,7616,7614,7614,7614,7614,7614,7615,7614,7614,7617,7597,7597,7617,7597,7597,7597,7690,7597,7617,7597,
6744,6744,6672,6745,6719,6719,6719,6719,6668,6719,6746,6669,6671,6695,6743,6744,6744,6745,6693,6694,6695,6743,6744,6644,6646,6771,6719,6697,6746,6695,6519,6543,6618,6619,6597,6598,6572,6619,6619,6619,6621,6618,6619,6597,6598,6572,6619,6619,6619,6621,6693,6696,6719,6697,6697,6719,6719,6719,6672,6719,6668,6719,6699,6643,6543,6643,1017,1018,1018,1018,1018,1018,1018,1018,1018,1019,6543,6568,6570,6881,3029,7611,2981,7637,7637,7637,7637,7637,7637,7637,7637,2970,2971,7667,7667,7614,7614,7691,7614,7614,7614,7614,7692,7691,7597,7598,7598,7598,7598,7598,7597,7596,7621,7597,7597,7597,7597,7597,7597,7597,
6643,6719,6719,6668,6719,6719,6719,6672,6719,6719,6719,6719,5649,6746,6669,6671,6694,6694,6696,6719,6746,6669,6671,6694,6695,6743,6644,6646,6771,6746,6695,6693,6694,6694,6669,6670,6671,6669,6670,6671,6694,6694,6694,6669,6670,6671,6694,6694,6694,6694,6696,5649,6719,6719,6719,6719,6721,6771,6668,6672,6719,6719,6720,6543,6643,6769,6543,6695,6543,6643,6543,6518,6543,6518,6519,6769,6568,6570,6856,6957,2965,2981,2982,7692,7614,7614,7614,7616,7614,7614,7614,7617,7614,7614,7617,7614,7690,7614,7614,7614,7617,7614,7614,7597,7596,7623,7623,7623,7623,7623,7623,7648,7648,7623,7623,7623,7623,7623,7623,7623,
6748,6748,6748,6748,6749,6719,6719,6719,6719,6719,6672,6719,6673,6672,6721,6771,6668,6719,6719,6697,6697,6719,6672,6719,6746,6694,6694,6695,6743,6744,6745,6718,6697,6697,6719,6719,6719,6719,6719,6719,6719,5649,6719,6719,5649,6719,6668,6697,6719,6719,6719,6719,6719,6719,6719,6721,6745,6743,6771,6721,6744,6744,6745,6543,6543,6543,6519,6543,6543,6543,6643,6543,6643,6543,6543,3394,3370,6594,6932,7611,2981,7634,7615,7614,7692,7691,7614,7614,7692,7641,7614,7614,7691,7614,7614,7614,7641,7614,7692,7614,7597,7598,7598,7596,7620,7670,7648,7648,7645,7648,7595,7648,7648,7648,7648,7648,7648,7645,7648,7620,
6773,6773,6773,6773,6774,6668,6719,6719,6719,6719,6719,6721,6771,6668,6746,6696,6719,6668,6719,6719,6719,6697,6697,6719,6719,6668,6719,6746,6694,6694,6694,6696,6721,6771,6719,6719,6719,6719,6668,6719,6719,6672,6673,6719,6719,6697,6697,6719,6719,6672,6719,6719,6719,6719,6719,6746,6695,6518,6743,6745,6769,6543,6643,6543,6643,6643,6543,6543,6518,6543,6643,6543,6518,6769,6568,6570,6831,3029,7611,2981,7634,7614,7614,7690,7614,7614,7614,7614,7614,7614,7617,7614,7614,7614,7692,7597,7598,7598,7598,7598,7596,7623,7623,7595,7648,7645,7670,7648,7648,7648,7648,7648,7645,7648,7648,7595,7648,7648,7648,7648,
6719,6719,6719,6719,6719,6719,6672,6719,6719,6719,6668,6746,6696,6719,6719,6719,6697,6697,6673,5649,6719,6719,6719,6672,6719,6719,6719,6719,6719,6697,6719,6719,6746,6696,6719,6672,6719,6719,6719,6697,6697,6719,6719,6719,6719,6719,6721,6744,6771,6719,6719,6719,6668,5649,6719,6719,6720,6543,6643,6768,6543,6643,6543,6643,6543,6643,6543,6543,6643,6643,6643,6543,6543,6543,6593,6881,6594,2965,2981,2982,7667,7617,7692,7614,7617,7614,7615,7614,7692,7690,7614,7614,7597,7598,7598,7596,7623,7623,7623,7623,7595,7670,7648,7620,7648,7648,7646,7673,7673,7673,7673,7673,7673,7673,7671,7646,7673,7673,7673,7673,
6719,6719,6719,6719,6719,6719,5649,6672,6719,6719,6719,6668,6719,6697,6719,6668,6719,6672,6668,6719,6721,6744,6771,6719,6672,6719,6697,6697,6697,6672,6719,6721,6744,6771,6719,6668,6719,6719,6697,6719,6668,6719,6697,6697,6697,6721,6745,6543,6743,6744,6771,6719,6721,6771,6697,6697,6746,6695,6693,6695,6543,6643,6543,6518,6543,6643,6543,6769,6643,6543,6643,6543,6769,6543,6618,6620,6594,7636,7634,7614,7692,7614,7614,7614,7614,7614,7597,7614,7614,7614,7617,7597,7596,7623,7623,7620,7648,7648,7595,7648,7645,7648,7648,7648,7648,7646,7692,7614,7615,7614,7617,7597,7691,7597,7597,7597,7691,7597,7617,7597,
6694,6694,6695,6543,6719,6719,6672,6721,6744,6771,6672,6719,6719,6673,6719,6672,6719,6719,6672,6721,6745,6769,6743,6771,6719,6719,6719,6668,6719,6719,6719,6720,6520,6743,6744,6744,6771,6719,6719,6719,6719,5649,6721,6771,6721,6745,6518,6543,6519,6543,6718,6719,6746,6696,6672,6719,6721,6745,6743,6745,6519,6518,6543,6543,6543,6543,6643,6543,6643,6543,6518,6519,6543,6643,6543,6593,6953,7614,7616,7614,7614,7614,7691,7614,3319,6619,6619,6620,7614,7614,7614,7622,7648,7648,7648,7648,7670,7648,7648,7670,7648,7646,7673,7673,7673,7674,7614,7614,7614,7614,7597,7597,7617,7597,7690,7597,7597,7640,7597,7597,
6672,6719,6746,6695,6719,6673,6721,6745,6769,6743,6771,6697,6697,6719,6719,6673,6672,6719,6721,6745,6518,6543,6519,6718,6719,6719,6697,6719,6697,6697,6719,6746,6695,6518,6543,6543,6718,6719,6719,6719,6672,6719,6746,6696,6720,6543,6622,6693,6694,6694,6696,6697,6697,6719,6719,6719,6720,6643,6543,3266,6643,6769,6543,6568,6569,6547,6548,6573,5589,5590,6547,6548,6548,6573,6569,5592,6957,7642,7642,7642,7642,7642,7642,6546,6621,6543,6518,6618,6620,7614,7614,7647,7648,7670,7648,7648,7648,7620,7648,7648,7648,7624,7616,7691,7667,7667,6546,6619,6619,6619,6619,6619,6619,6619,6619,6619,6619,6619,6619,6619,
6723,6724,6672,6720,6518,6719,6746,6695,6543,6543,6718,6672,6719,6719,6721,6744,6771,5649,6746,6695,6768,6518,6693,6696,6719,6719,6672,6719,6719,6719,6719,6668,6746,6695,6519,6693,6696,6719,6719,6719,6697,6721,6744,6771,6720,6519,6693,6696,6719,6719,6719,6719,6719,6719,6719,6719,6746,6695,6543,6543,6568,6569,6569,6570,6544,6881,6594,6932,6957,6594,6856,6594,6932,6957,6594,6594,7611,2966,7614,7614,7614,7617,7614,6545,6571,6518,6519,6568,6570,3000,7691,7672,7671,7648,7595,7648,7646,7673,7673,7673,7673,7674,7614,7614,6957,6546,6621,6693,6695,6543,6693,6693,6694,6694,6694,6695,6518,6543,6543,6543,
6748,6749,6719,6720,6543,6719,6673,6746,6695,6543,6743,6744,6744,6771,6720,6518,6718,6719,6719,6746,6694,6694,6696,6719,6719,6719,6719,6719,6719,6719,6672,6719,6719,6746,6694,6696,6719,6719,6697,6697,6719,6720,6519,6718,6746,6694,6696,6719,6719,6721,6744,6644,6645,6646,6744,6744,6744,6745,6568,6569,6570,3173,7611,7612,7612,7612,7612,7612,7612,7612,7612,7612,7612,7612,7612,7612,2981,7634,7614,7641,7614,7614,2999,6957,6545,6569,6569,6570,6928,3016,7617,7614,7692,7673,7673,7673,7674,7692,7691,7614,7614,3319,6619,6619,6619,6621,6693,6696,6746,6695,6693,6696,6722,6723,6724,6720,6769,6543,6543,6543,
6773,6774,6721,6745,6519,6719,6719,6719,6720,6543,6543,6543,6520,6718,6746,6694,6696,6719,6668,6719,6719,6719,6719,6697,6697,6697,6719,6719,6668,6719,6719,6719,6719,5649,6719,6719,6697,6719,6719,6668,6719,6746,6694,6696,5649,6719,6719,6721,6744,6745,6543,6543,6543,6543,6543,6543,6568,6569,3370,3173,7611,2954,2955,7637,7637,7637,7637,7637,7637,7637,7637,7637,7637,7637,7637,7637,7634,7614,7614,7596,7649,7691,2998,7612,7613,6978,7611,7612,7612,7609,7614,7690,7692,7614,7614,6574,6957,7614,7614,7614,6546,6621,6543,6693,6694,6694,6696,6719,6719,6720,6718,6719,6772,6773,6774,6746,6695,6543,6543,6518,
6673,6721,6745,6543,6543,6719,6719,6719,6746,6694,6694,6695,6643,6743,6771,6719,6719,6719,6719,6719,6672,6719,6668,6719,6719,6719,6719,6668,6719,6719,6719,6719,6719,6719,5649,6719,6719,6719,6719,6719,6719,6721,6644,6645,6646,6744,6744,6745,6543,6543,6543,6543,6568,6547,6548,6573,6570,6544,7611,2954,2955,2970,2971,7667,7597,7690,7597,7642,7615,7614,7667,7667,7614,7614,7614,7692,7614,7614,7596,7623,7624,7614,7635,7637,2984,7612,2981,7637,7637,7634,7614,7674,7614,6831,6546,6619,6597,6598,6572,6619,6621,6693,6694,6696,6719,6719,6719,6719,6543,6571,6718,6719,6771,6719,6719,6719,6697,6694,6694,6694,
6744,6745,6518,6693,6719,6719,6719,6673,6719,6719,6672,6746,6695,6519,6718,6719,6719,6672,6719,6719,6719,6719,6719,6719,6719,6719,6672,6719,6668,6697,6719,6719,6719,6719,6719,6719,6668,6719,6719,6721,6744,6745,6543,6768,6543,6543,6543,6543,6543,6543,6518,6568,6570,6856,6544,3029,7611,7612,2981,2970,2971,7597,7616,7597,7597,7597,7597,7692,7614,7614,7614,7692,7598,7691,7598,7598,7598,7596,7623,7648,7621,7692,7639,7691,7635,7637,7634,7642,7642,7614,7674,7667,6957,6546,3420,6543,6769,6543,6543,6519,6693,6696,6719,5649,6672,6719,6719,6719,6543,6543,6718,6719,6696,6719,6719,6719,6719,6719,6719,6719,
6543,6543,6543,6748,6748,6749,6719,6722,6723,6724,6668,6672,6720,6543,6718,6719,6719,6719,6719,6719,6719,6719,6719,6697,6697,6719,6672,6719,6719,6719,6719,6719,6719,6719,6668,6719,6719,6721,6744,6745,6693,6695,6769,6543,6543,6643,3266,6518,6543,6568,6569,6570,3291,3173,7611,2954,2955,7637,7634,7597,7597,7597,7597,7692,7597,7597,7598,7598,7598,7598,7598,7596,7623,7623,7623,7623,7623,7623,7648,7648,7623,7621,7641,7639,7639,7690,7614,7642,7642,7614,7667,7614,6546,6621,6543,6520,6543,6543,6693,6694,6696,6721,6744,6744,6744,6771,6719,6719,6543,6543,6743,6744,6744,6744,6744,6744,6744,6771,6719,6719,
6519,6518,6543,6773,6773,6774,6719,6747,6748,6749,6721,6744,6745,6518,6743,6744,6744,6744,6771,6721,6744,6744,6744,6744,6744,6744,6744,6719,5649,6719,6719,6719,6721,6544,6645,6646,6744,6745,6543,6543,6743,6745,6543,6643,6543,6568,6569,5589,5590,6570,6544,3029,7611,2954,2955,2970,2971,7597,7597,7597,7598,7598,7598,7598,7598,7596,7623,7623,7623,7623,7623,7623,7648,7648,7648,7648,7648,7648,7648,7648,7648,7646,7599,7639,7617,7614,7614,7642,7642,7614,6546,6619,6621,6543,6543,6543,6543,6693,6696,6719,6721,6745,6543,6543,6769,6718,6719,6719,6543,6543,6543,6543,6543,6643,6769,6543,6518,6718,6719,6719,
6719,6746,6696,6719,6722,6723,6724,6772,6773,6774,6720,6519,6543,6543,6705,6706,6707,6707,6743,6745,6568,3265,5590,5589,5590,5589,6569,6570,6544,6544,6544,6544,6544,6545,6571,6543,6543,6643,6543,6518,6543,6568,6547,6548,6573,6570,6881,6544,3173,7611,7612,2954,2955,2970,2971,7598,7598,7598,7598,7596,7623,7623,7623,7623,7623,7648,7648,7648,7648,7648,7648,7648,7648,7648,7648,7648,7648,7646,7673,7673,7673,7614,7617,7690,7617,7614,7674,6957,6957,6546,6621,6543,6769,6519,6543,6543,6543,6743,6744,6744,6745,6543,6543,6769,6693,6696,6719,6719,6543,6543,6543,6543,6622,6694,6694,6694,6694,6696,6719,6719,
0,0,0,0,6747,6748,6749,6721,6644,6646,6745,6543,6693,6694,6705,6706,6707,6707,6719,6719,6719,6719,6575,6831,6544,6544,6544,6881,6544,6957,6966,6967,6544,6831,6545,6569,6571,6519,6543,6543,6568,5655,6831,6594,6544,6544,7611,7612,2954,2955,7637,2970,2971,7597,7596,7623,7623,7623,7623,7623,7670,7670,7670,7670,7670,7670,7670,7648,7648,7648,7646,7673,7673,7673,7673,7673,7673,7614,7614,7691,7691,7641,7614,7614,7674,7616,7667,6544,6546,6621,6769,6543,6543,6543,6543,6543,6543,6543,6543,3266,6543,6543,6624,6693,6696,6719,6719,6543,6543,6543,6543,6543,6624,6719,6719,6719,6719,6719,6719,6719,
0,0,6720,6543,6772,6773,6774,6720,6518,6519,6693,6694,6697,6719,6705,6706,6707,6707,6719,6719,6697,6719,6719,6719,6550,6544,6544,6544,6544,6967,6991,6982,6544,6544,6594,6549,6545,6569,6547,6573,3370,6544,6544,3029,7611,7612,2981,7637,2970,2971,7598,7598,7598,7596,7623,7670,7670,7670,7670,7670,7670,7670,7670,7670,7670,7646,7673,7673,7673,7673,7614,7614,7614,7641,7614,7614,7597,7614,7614,7614,7617,7614,7614,7614,7614,6544,6599,6594,6596,3589,6543,6543,6543,6543,6543,6543,6543,6643,6543,6543,6543,6543,6518,6718,6719,6721,6744,6543,6543,6745,6543,6543,6718,6719,6719,6719,6719,6722,6723,6724,
6748,6748,6720,6543,6721,6744,6744,6745,6672,6694,6672,6719,6719,6719,6705,6706,6707,6707,6719,6719,6719,6719,6719,6668,6599,3469,6597,6619,6619,3290,6620,6594,6544,6575,6544,6544,6544,6881,6574,6544,6544,7611,7612,2954,2955,7637,7634,7598,7598,7596,7623,7623,7623,7623,7670,7670,7670,7646,7673,7673,7673,7554,7555,7556,7673,7617,7597,7597,7617,7616,7614,7690,7614,7614,7614,6546,6619,6620,6831,7614,7614,7667,7690,7614,6544,3319,6619,3290,3420,6543,3540,6543,6543,6543,6543,6543,6543,6543,6543,6543,6543,6543,6693,6696,6722,6723,6518,6624,6769,6624,6543,6543,6743,6771,6722,6723,6724,6772,6773,6774,
6748,6748,6720,6543,6649,6543,6693,6694,6696,6719,6719,6719,6719,6748,6748,6748,6748,6748,6748,6748,6748,6719,6719,6721,3467,6543,6769,3589,3441,6569,6570,6544,6544,6544,6544,6544,6544,6544,3029,7611,7612,2981,7637,2970,2971,7598,7596,7623,7623,7623,7670,7670,7670,7670,7670,7646,7673,7597,6966,6544,6544,7579,7580,7581,7641,7616,7597,7597,7597,6544,6544,6575,6957,6544,6544,6596,6769,6618,6619,6619,6620,6544,6546,6619,6619,6621,6543,6769,6543,6543,6769,3564,6543,6543,6543,6543,6518,6543,6543,6543,6543,6543,6718,6719,6747,6748,6543,6543,6643,6543,6624,6543,6769,6718,6772,6773,6774,6719,6719,6719,
6774,6697,6720,6543,6674,6520,6672,6719,6719,6719,6719,6748,6748,6748,6748,6748,6748,6748,6748,6748,6748,6748,6748,6748,6545,6571,6543,6543,3468,6544,6544,6544,3291,6544,6856,6544,6544,7611,2954,2955,7637,7634,7598,7598,7596,7623,7623,7646,7673,7673,7673,7673,7673,7673,7673,7642,7642,6932,6881,6544,6544,7597,7605,7606,7607,7615,7690,6544,6544,6544,6544,6544,6856,6546,6619,6621,6543,6693,6695,6543,6618,6619,6621,6520,6543,6543,6518,6543,6643,6643,3565,6543,6543,6543,6543,6543,6543,6543,6543,6693,6694,6694,6696,6672,6747,6748,6695,6543,6543,6543,6543,6543,6518,6743,6744,6744,6744,6771,6719,6719,
6719,6719,6720,6543,6699,6643,6748,6719,6719,6748,6748,6725,6773,6773,6773,6773,6773,6773,6773,6773,6775,6748,6748,6748,6574,6545,6569,6569,6570,6544,6881,6594,6544,6594,6544,6544,6544,2955,2970,2971,7598,7596,7623,7623,7623,7646,7673,7597,6928,6594,6831,6967,6955,6856,6544,6544,6544,6574,6594,6991,6957,7597,7597,7631,7632,6928,6544,6594,6957,6544,6544,6991,6544,6596,6518,6543,6518,6718,6746,6694,6695,6769,6693,6694,6694,6695,6543,6543,6568,6571,6543,3589,6543,6543,6543,6543,6693,6694,6694,6696,6697,6697,6719,6719,6747,6748,6720,6543,6543,6543,6543,6543,6543,6543,6643,6543,6769,6718,6719,6719,
6672,6672,6720,6543,6720,6643,6748,6748,6748,6725,6773,6774,6719,6719,6719,6672,6719,6719,6719,6719,6772,6775,6748,6748,6643,6543,6543,6593,6881,6545,6570,6544,6544,6599,6544,6831,6881,2971,7597,7596,7623,7623,7670,7646,7673,7598,7598,7596,7623,7623,0,0,7673,7597,6957,6831,6881,6955,6544,6544,6831,7597,7642,7597,7597,6544,6881,6544,6544,6544,6544,6544,6544,6545,3395,6543,6693,6696,6719,6672,6746,6694,6696,6719,5649,6746,6694,6695,6618,6621,6543,6543,3539,6543,6543,6543,6718,6719,5649,6719,6719,6721,6744,6771,6747,6748,6748,6694,6694,6695,6543,6543,6543,6543,6543,6543,6624,6718,6719,6719,
6719,6719,6720,6543,6649,6543,6748,6725,6773,6774,6719,6719,6697,6721,6744,6744,6771,6719,5649,6719,6672,6747,6748,6748,6643,6543,6568,6570,6928,6544,6544,6544,6544,6544,6544,6544,6544,7597,7622,7623,7670,7670,7646,7597,6982,7596,7623,7648,7646,7673,0,0,7642,7642,7597,7597,7617,7597,6928,6856,6544,7597,7597,7597,2999,6928,6544,6544,6544,6544,6544,6544,6544,6599,3344,6543,6718,6668,6719,6719,6697,6697,6719,6719,6719,6719,6719,6746,6695,6643,6769,3540,6543,6543,6519,6543,6743,6744,6771,6672,6719,6720,6769,6718,6747,6748,6748,6748,6748,6748,6695,6543,6543,6543,6543,6543,6693,6696,6719,6719,
5649,6719,6720,6543,6674,6518,6748,6749,6672,6719,6719,6719,6719,6720,6519,6543,6743,6771,6719,6673,6719,6747,6748,6748,6568,6569,6570,6544,6544,6544,6544,6544,6544,6544,6544,6544,6544,7597,7597,7648,7648,7648,7624,7597,7648,7648,7673,7673,7597,7642,0,0,7597,7597,7597,7597,7597,7597,7597,7597,6957,7597,7597,7642,3015,6982,6544,6574,6544,6544,6594,6856,6544,6544,6596,6543,6718,6672,6721,6744,6744,6744,6744,6744,6744,6744,6744,6744,6745,6518,6543,6543,3564,6543,6543,6543,6518,6543,6743,6771,6672,6720,6543,6718,6772,6773,6773,6773,6773,6748,6748,6694,6695,6543,6543,6543,6718,6722,6723,6724,
6719,6672,6720,6543,6699,6543,6748,6749,6719,6719,6719,6672,6719,6720,6543,6693,6695,6743,6744,6771,6719,6772,6773,6773,6719,6719,6719,6719,6719,6719,6719,6544,6544,6544,6544,6544,6544,6544,6544,6544,6544,6544,6544,6544,7646,7673,7690,6748,6748,6748,6748,6748,6748,6748,7667,7597,6544,6546,6619,6620,7597,7597,7597,7597,7597,6544,6544,6596,6518,6769,6618,6544,6575,6546,6621,3266,6743,6744,6745,6745,6518,6743,6744,6744,6744,6745,6769,6543,6543,6643,6705,6706,6707,6707,6543,6543,6543,6643,6624,6743,6744,6745,6543,6743,6744,6744,6771,6719,6672,6772,6748,6748,6748,6748,6748,6748,6718,6772,6773,6774,
0,0,0,0,6745,6643,6748,6749,6719,5649,6719,6719,6668,6746,6695,6743,6745,6543,6543,6743,6744,6744,6744,6744,6744,6744,6744,6744,6744,6744,6744,6744,6744,6744,6593,6544,6544,6544,6544,6544,6544,6544,6544,6544,7642,7597,6748,6748,6748,6748,6748,6748,6748,6748,6748,6748,6748,6748,6543,6593,6544,6544,6544,6544,6544,7613,6546,6621,6543,6543,6543,6618,6619,6621,6543,6769,6543,6744,6745,6543,6643,6643,6643,6543,6518,6643,6693,6694,6695,6768,6705,6706,6707,6707,6747,6748,6543,6543,6543,6543,6543,6518,6543,6543,6543,6543,6718,6719,6719,6721,6772,6773,6773,6773,6775,6748,6743,6744,6771,6719,
0,0,0,0,6519,6543,6748,6749,6719,6719,6719,6673,6672,5649,6720,6543,6543,6643,6624,6543,6543,6769,6518,6543,6543,6543,6543,6519,6543,3394,6569,5589,5590,5590,6570,7647,7648,7648,7648,7648,7648,7648,7648,7648,7624,6718,6773,6773,6773,6773,6773,6773,6773,6773,6773,6773,6773,6773,6719,6618,6620,6544,6544,6544,6544,7638,6545,6571,6543,6518,6543,6543,6543,6643,6518,6543,6643,6643,6519,6543,6568,6569,6571,6543,6543,6643,6718,6668,6746,6695,6705,6706,6707,6707,6747,6748,6543,6543,6543,6543,6543,6543,6543,6543,6543,6543,6718,6719,6719,6720,6718,6719,6672,6719,6747,6748,6543,6543,6718,6719,
0,0,0,0,6543,6543,6748,6749,6719,6719,6672,6719,6719,6719,6720,6543,6643,6543,6543,6543,6543,6543,6543,6543,6624,6543,6543,6768,6518,6593,6881,6594,3029,7611,7612,2966,7671,7648,7648,7648,7648,7648,7648,7648,7646,6743,6771,6719,6719,6719,6719,6719,6719,6719,6719,6719,6672,6719,6721,6568,6594,7648,7648,7648,7648,7597,6957,6596,6769,6718,6518,6719,6543,6543,6543,6543,6543,6543,6543,6719,6719,6719,6719,6719,6719,6719,6719,6719,6719,6720,6705,6706,6707,6707,6747,6748,6695,6543,6543,6543,6543,6543,6543,6543,6543,6543,6743,6771,6672,6720,6743,6744,6771,5649,6747,6748,6543,6543,6743,6744,
6543,6518,6543,6543,6543,6543,6748,6749,6672,6719,6719,6719,6719,6721,6745,6769,6543,6520,6543,6543,6623,6543,6543,6543,6543,6543,6543,6543,6568,5655,6550,6544,2965,2981,7637,2982,7597,7673,7673,7673,7673,7673,7673,7597,7597,6543,6718,6673,6719,6719,6719,6719,6673,6719,6719,6719,6719,6719,6720,6593,7622,7648,7648,7648,7623,7624,6928,6545,6571,6743,6771,6719,6719,6543,6543,6543,6543,6543,6719,6719,6719,6719,5649,6719,6719,6719,6719,6719,6719,6746,6695,3589,6769,6718,6747,6748,6748,6748,6748,6695,6543,6543,6543,6543,6543,6543,6518,6743,6744,6745,6624,6624,6743,6771,6747,6748,6543,6543,6769,6543,
0,0,0,0,6718,6748,6748,6749,6719,6719,6719,6719,6719,6720,6518,6543,6643,6543,6543,6543,6543,7611,7612,7613,6543,6543,6624,6543,6593,6594,6544,6928,2981,2982,7615,7691,7597,7642,7597,7640,7597,7597,7692,7691,7597,6768,6718,5649,6719,6719,6719,6719,6719,6719,6719,6719,6719,6672,6720,6593,3000,7673,7671,7648,7648,7649,7613,6544,6545,6571,6743,6771,6719,6719,6719,6719,6719,6719,6719,6721,6744,6744,6744,6744,6744,6744,6744,6744,6771,6668,6720,6543,3539,6718,6772,6773,6773,6775,6748,6748,6748,6748,6748,6748,6748,6748,6624,6643,3266,6519,6543,6543,6543,6629,6747,6748,6748,6748,6543,6543,
0,0,0,0,6696,6773,6773,6774,6673,6719,6697,6697,6721,6745,6543,6543,6643,6543,6769,3266,6543,7636,7637,7638,6543,6543,6543,6568,6570,6575,6544,7611,7609,7617,7692,7597,7597,7597,7597,7597,7597,7691,7597,7597,6543,6543,6718,6719,6719,6672,6719,6719,6719,6719,6672,6719,6719,6721,6745,6593,3016,7691,7597,7673,7673,7635,7638,6544,6856,6596,6543,6743,6744,6744,6744,6744,6744,6744,6744,6745,6643,6520,6643,6643,6643,6543,6543,6543,6743,6744,6745,6543,6518,6718,5649,6697,6697,6772,6773,6773,6773,6773,6773,6775,6524,6748,6624,6769,6543,6543,6624,6624,6543,6654,6772,6773,6775,6748,6543,6543,
6744,6744,6860,6861,6744,6771,5649,6719,6719,6719,6719,6719,6746,6695,6543,6624,6543,6543,6543,6543,6543,7597,7665,7597,6520,6543,3441,6570,6549,6928,6544,7636,7634,7597,7597,7692,7597,7597,7617,7616,6543,6543,6543,6543,6543,6543,6718,6697,6672,6673,6722,6723,6724,6719,6673,6719,6719,6720,6543,6593,7597,7641,7597,7597,7617,7597,7597,6544,6546,6621,6643,6643,6543,6519,6568,5591,5589,5590,5589,5590,5589,5590,5589,6571,6543,6643,6543,6643,6643,6518,6643,6543,6643,6743,6744,6744,6771,6719,6719,6719,6719,6672,6719,6772,6775,6748,6695,6543,6643,6543,6518,6543,6543,6679,6719,6672,6747,6748,6543,6543,
3265,7180,6861,6886,7180,6743,6771,6719,6719,6672,6719,6719,6719,6746,6695,6543,6543,6643,6518,6543,6543,6543,6543,6543,6543,6543,3468,6881,6544,6544,6544,7597,7691,7616,7642,7597,7690,7597,7597,6543,6543,6543,6543,6543,6543,6693,6696,6719,6719,6719,6747,6748,6749,6719,6697,6672,5649,6720,6520,6593,6953,7597,7597,7597,7597,7642,2999,6544,6596,6769,6518,6543,6543,3394,5655,6932,6544,6544,6544,6544,6575,6544,6957,6596,6543,6518,6568,6569,6547,6548,6573,6571,6643,6543,6643,6543,6743,6771,6719,6719,6697,6719,6673,6672,6747,6748,6745,6543,6543,6543,6543,6543,6543,6743,6771,6672,6747,6748,6624,6543,
3415,6888,6861,6886,6543,6624,6743,6771,6719,6719,6721,6771,6719,6719,6720,6643,6519,6543,6543,6543,6768,6624,6624,6543,6543,6568,5655,6957,6594,6544,6550,7597,7597,7597,7597,7597,7597,7597,6543,6543,6543,6543,6543,6543,6543,6743,6744,6744,6771,6719,6772,6773,6774,6673,6719,5649,6672,6720,6543,6618,6619,6620,7597,7597,7597,7690,2998,7613,6545,6571,6543,6543,6568,6570,6544,6544,6594,6544,6599,6544,6594,6544,6546,6621,6543,6543,6593,6982,6574,6594,6544,6545,6569,3395,6543,6543,6543,6743,6744,6744,6771,6719,6719,6719,6747,6748,6695,6543,6543,6543,6543,6543,6543,6769,6718,6719,6747,6748,6643,6543,
6643,6860,6708,6861,6543,6543,6543,6743,6771,6719,6720,6743,6771,6719,6720,6768,6643,6543,6543,6543,6543,6543,6543,6543,6568,5655,6549,6544,6544,6544,6932,7597,7597,7597,7617,7642,7640,2967,7613,6543,6543,6543,6543,6543,6518,6543,6543,6519,6718,6719,6697,6719,6672,6719,6719,6719,6719,6746,6695,6543,6568,6570,7642,7642,7642,7642,7642,7642,6928,6596,6543,6643,6593,6574,6544,6544,6544,6544,6544,6544,6544,6544,6596,6543,6643,6543,6618,6620,6544,6544,6599,6544,6881,6596,6643,6543,6769,6643,6543,6543,6743,6744,6771,6719,6747,6748,6748,6694,6695,6543,6543,6543,6543,6543,6743,6771,6747,6748,6518,6543,
6543,6885,0,0,6543,6543,6543,6543,6743,6744,6745,6693,6696,6672,6746,6695,6543,6624,6543,6543,6543,6543,6543,6543,6593,6881,6574,6544,6544,3291,6594,3000,7597,7642,7597,7597,7597,7635,2984,7613,6568,6547,6548,6573,6571,6543,6543,6543,6743,6744,6744,6644,6645,6646,6771,6722,6723,6724,6720,6568,5655,2965,2966,7692,7597,7597,7691,7597,6546,6621,6769,6543,6618,6620,6856,6544,6544,6594,6544,6544,6544,6546,6621,6543,6543,6643,6643,2874,6544,6544,6544,6544,6957,6545,6571,6769,6519,6543,6543,6693,6694,6695,6718,6719,6772,6775,6748,6748,6748,6695,6543,6543,6543,6543,6543,6718,6747,6748,6543,6543,
6543,6543,0,0,6543,6543,6543,6885,6643,6768,6693,6696,6719,6719,6719,6720,6693,6694,6695,6543,6543,6543,6543,6519,6618,6620,6594,6544,6550,6544,6856,3016,7615,7597,7642,7597,7692,7597,7635,2984,7612,7612,7613,6978,3344,6543,6622,6543,6543,6543,6643,6543,6518,6543,6718,6772,6773,6774,6720,6593,6881,2981,7634,7639,7597,7617,7597,7597,6545,6571,6543,6518,6543,2874,6594,6544,6544,6544,6544,6594,6978,6596,6543,6543,6769,6543,6543,2906,6544,6881,6544,6544,6544,6544,2873,6643,6543,6643,6643,6718,6673,6720,6718,6668,6719,6772,6773,6775,6748,6748,6748,6694,6694,6748,6518,6718,6747,6748,6543,6543,
0,0,0,0,6543,6543,6543,6885,6543,6693,6696,6719,6672,6719,6721,6745,6718,6668,6720,6543,6769,6543,6543,6769,6543,2874,6544,6991,6544,6544,2954,2966,7597,7642,7597,7597,7597,7597,7597,7635,7637,7637,2984,7612,7612,7613,3102,6543,6519,6543,6543,6543,6543,6543,6743,6744,6744,6744,6745,3345,6575,7639,7691,7597,7642,7597,7642,7597,6544,2873,6543,6643,6543,2906,6549,6544,6599,6546,6597,6598,6572,6621,6543,6518,6543,6769,6643,6618,6620,6544,6544,6575,6594,6544,2889,6543,6543,6543,6643,6743,6744,6745,6743,6744,6771,6719,6719,6772,6773,6775,6748,6748,6748,6748,6543,6718,6747,6748,6543,6543,
0,0,0,0,6543,6543,6543,6885,6543,6718,6719,6719,6719,6721,6745,6769,6743,6744,6745,6543,6543,6543,6543,6543,6518,2906,6544,6544,6544,2954,2955,2982,7691,7597,7597,7617,7597,7597,7690,7614,7597,7597,7635,7637,7637,2985,2986,7612,7613,3102,6543,6543,6520,6543,6543,6643,6543,6643,6543,6593,2965,2966,7597,7597,7690,7597,7692,2999,6881,2889,6543,6643,6543,6618,6619,6619,6619,6621,6543,6643,6518,6543,6624,6543,6543,6543,6543,6543,6618,6597,6572,6620,6544,6599,2905,6624,6624,6543,6543,6543,6643,6643,6543,6769,6718,6719,6719,6719,6719,6772,6773,6775,6524,6748,6693,6696,6747,6748,6543,6543,
0,0,0,0,6543,6543,6543,6885,6624,6718,6719,6672,6719,6746,6694,6694,6695,6643,6543,6543,6518,6543,6543,6623,6568,3370,6932,6544,6544,2970,2971,7617,7597,7597,7597,7597,6544,6881,7597,7614,7597,7597,7614,7690,7614,7635,7637,7637,2985,2986,7612,7612,7613,3102,6568,6547,6548,6573,6569,5592,2981,7634,7597,7597,7597,7597,7690,3015,6544,2905,6543,6643,6543,6543,6518,6543,6643,6543,6543,6643,6543,6543,6543,6543,6643,6543,6543,6520,6543,6543,6543,6618,6619,6619,6621,6769,6643,6543,6543,6518,6543,6543,6643,6543,6718,6719,6672,6672,6719,5649,6719,6747,6748,6748,6718,6672,6747,6748,6748,6748,
0,0,0,0,6543,6543,6543,2149,6543,6718,5649,6719,6721,6771,6719,6719,6746,6695,6543,6624,6543,6543,6543,6543,6618,6620,6856,6544,6544,7672,7617,7672,7597,7597,7597,2999,6549,6831,6594,6594,6574,6594,7597,7597,7617,7597,7616,7597,7635,7637,7637,7637,2985,2986,7612,7613,6856,6544,6544,6957,7597,7691,7597,7597,7617,7616,7597,6546,6619,6621,6543,6543,6543,6543,6519,6543,6543,6518,6543,6543,6518,6543,6543,6543,6518,6543,6543,6643,6643,6518,6643,6543,6543,6643,6543,6643,6543,6543,6543,6543,6643,6543,6543,6769,6743,6771,6719,6673,6719,6719,6719,6747,6748,6748,6743,6771,6772,6773,6773,6773,
6905,6905,0,0,6571,6571,6571,2149,3266,6743,6744,6744,6745,6743,6744,6771,6719,6746,6695,6543,6568,6571,6543,6543,6543,6618,3320,6544,6544,7672,7597,7597,7597,7672,7597,2998,7613,6575,6594,6549,6594,6550,3000,7617,7597,7597,7597,7667,7597,7597,7691,7597,7635,7637,7637,2984,7612,6544,6831,2965,2966,7597,7640,7597,7597,7597,2999,2873,6518,6543,6543,6543,6769,6693,6694,6694,6694,6695,6643,6543,6643,6543,6568,6569,6547,6548,6573,5589,5590,6571,6543,3266,6543,6643,6543,6643,6518,6543,6543,6643,6769,6543,6543,6518,6543,6718,6719,6672,6673,6672,6719,6747,6524,6748,6643,6743,6771,6672,6719,6719,
6905,6905,6905,6905,6905,6905,6905,2149,6543,6643,6543,6543,6769,6543,6543,6718,6672,6719,6746,6695,6618,6621,6543,6769,6543,6543,6593,6575,6544,7672,7691,7597,7642,7617,7597,7635,2984,7612,7612,7612,7612,7612,2997,7597,7642,7690,7598,7598,7598,7642,7642,7597,7597,7641,7597,7635,7637,6574,6544,2981,7634,7617,7642,7597,7642,7597,3015,2889,6543,6520,6643,6693,6694,6696,6672,6719,6719,6720,6543,6518,6543,6568,6570,6856,6544,6928,6544,6594,6575,6596,6543,6543,6769,6543,6643,6543,6543,6543,6643,6769,6543,6543,6643,6543,6543,6743,6744,6771,6719,6719,6719,6747,6748,6748,6543,6769,6743,6644,6645,6646,
6905,6905,6905,6905,6905,6905,6905,6905,6543,6543,6543,6768,6543,6643,6624,6718,6719,6719,6719,6746,6695,6624,6543,6520,6543,6518,6618,6619,6620,6544,7597,7692,7597,7690,7597,7597,7635,7637,7637,7637,7637,7637,3013,7597,7597,7622,7623,7623,7623,7621,7641,7598,7598,7597,7597,7597,2967,7612,6544,7609,7690,7642,7598,7642,7691,7597,7597,2905,6518,6693,6694,6696,6719,6672,5649,6719,6721,6745,6543,6543,6568,6570,6932,6544,6856,6544,6544,6599,6546,3420,6543,6543,6643,6543,6543,6543,6643,6518,6543,6543,6643,6543,6518,6643,6518,6543,6543,6718,6719,6697,6697,6747,6524,6748,6748,6748,6694,6659,6693,6769,
6905,6543,6905,6905,6905,6905,6905,6905,6543,6624,6543,6643,6543,6519,6693,6696,6672,6719,6719,6719,6746,6694,6695,6693,6694,6695,6543,6543,6618,6620,6856,6544,6957,7597,7597,7597,7614,7597,7597,7614,7642,7597,7691,7642,7597,7617,7673,7673,7671,7595,7623,7623,7623,7621,7690,7597,7635,7637,6966,7634,7597,7596,7623,7649,7692,7597,6546,6621,6543,6629,6719,6719,6719,6719,6673,5649,6720,6769,6543,6568,3370,6544,6544,6544,6544,6594,6544,6544,6596,6543,6643,6543,6543,6518,6543,6568,5589,5590,6571,6543,6520,6543,6643,6543,6543,6624,6624,6743,6771,6719,6719,6747,6748,6748,6748,6748,6697,6683,6743,6744,
6569,6880,6569,6569,6930,6931,6905,6905,6518,6543,6693,6694,6695,6543,6718,6719,6719,6719,6719,6672,6719,6719,6746,6696,6719,6746,6694,6695,6543,6618,6619,6619,6620,6549,6544,6932,6928,6544,6544,7597,7616,7690,7597,7597,7597,7642,7597,7641,7597,7673,7673,7671,7620,7648,7621,7617,7642,7610,7612,2966,7622,7648,7646,7597,7597,6544,6596,6769,6543,6654,6719,6719,6719,6719,6719,6672,6720,6543,6568,6570,6544,6544,6594,6544,6544,6544,6544,3319,6621,6543,6643,6543,6543,6568,6569,6570,6544,6544,3369,6571,6543,6543,6543,6643,6543,6643,6543,6769,6718,6719,6719,6772,6775,6748,6748,6748,6748,6683,6695,6543,
7612,7612,7613,6595,6957,6906,6905,6905,6543,6518,6718,6668,6746,6695,6718,6719,6719,6672,6719,6719,6719,6719,6719,6719,6672,6719,6719,6720,6768,6543,6518,6543,6618,6619,6619,6619,6619,6619,6620,6544,6881,6575,7597,7597,7690,7597,7597,7597,7597,7597,7617,7647,7645,7648,7648,7621,7598,7635,7637,2982,7596,7595,7649,7597,6574,6546,6621,6543,6543,6679,6719,6719,6719,6719,6719,6719,6720,6643,6593,6550,6544,6544,6544,6544,6544,6957,6544,6596,6543,6643,6643,6543,6543,2874,6932,6574,6594,6544,6856,6596,6643,3266,6769,6543,6769,6543,6543,6693,6696,6719,6719,6719,6772,6775,6524,6748,6748,6708,6746,6695,
7637,7637,7638,3291,6544,6956,6905,6905,6624,6543,6743,6771,6672,6720,6743,6771,6719,6719,6719,6719,6672,6719,6672,6719,6672,6719,6719,6720,6769,6543,6543,6543,6518,6543,6624,6543,6518,6543,6618,6619,6597,6598,6572,6620,6928,7597,7597,7617,7597,7690,7642,7597,7671,7648,7595,7648,7623,7624,7692,7647,7645,7646,7690,7597,6982,6545,6571,6543,6543,6743,6771,6719,6719,6719,6697,6719,6720,6543,6618,6619,6619,6620,6599,6546,6597,6598,6572,6621,6769,6543,6543,6543,6543,2906,6544,6544,6544,6544,6544,6545,6571,6518,6543,6543,6543,6519,6693,6696,6719,5649,6719,6697,6719,6772,6773,6775,6748,6748,6748,6746,
7597,7597,7597,6575,6982,6956,7063,6905,6543,6624,6543,6743,6744,6745,6543,6743,6744,6744,6771,6672,6719,6719,6673,6719,5649,6719,6668,6720,6543,6624,6543,6543,6543,6543,6519,6543,6543,6543,6543,6518,6543,6543,6518,6618,6620,3319,6621,6543,7597,7597,7597,7597,7691,7673,7671,7648,7648,7621,7690,7596,7648,7624,7597,7610,7613,6546,6621,6543,6543,6518,6718,6719,6719,6719,6719,6719,6746,6695,6543,6520,6543,3419,6619,6621,6543,6643,6543,6693,6669,6670,6671,6695,6543,6618,6619,6619,3320,6594,6544,6957,2873,6769,6543,6693,6694,6694,6696,6719,6719,6719,6719,6719,6719,6697,6697,6772,6773,6773,6721,6771,
7597,7597,7610,7613,6544,6956,6905,6905,6621,6543,6518,6543,6543,6543,6693,6694,6695,6769,6718,6719,6719,6672,6672,5649,6719,6672,6721,6745,6518,6543,6693,6694,6694,6694,6694,6695,6769,6543,6624,6543,6693,6694,6694,6695,6618,6621,6643,6520,6543,7597,7615,7597,7597,7642,7691,7671,7645,7648,7623,7648,7595,7621,7617,7635,7638,6621,6520,6543,6543,6769,6718,6697,6719,6697,6697,6719,6719,6720,6543,6543,6543,6543,6543,6543,6543,6543,6543,6718,6719,6719,6719,6720,6643,6643,6543,6543,6593,6544,6544,6544,2889,6543,6693,6696,6719,6719,6719,6719,5649,6719,6719,6719,6719,6719,6719,6719,6719,6721,6745,6743,
7597,7597,7635,7638,6544,6956,6905,6905,6621,6543,6543,6543,6543,6543,6718,6668,6720,6543,6743,6744,6771,6719,6719,6672,6672,6721,6745,6543,6543,6693,6696,6719,6719,6719,6719,6746,6694,6695,6543,6693,6696,6719,6719,6746,6694,6695,6769,6518,6643,6543,7597,7692,7597,7690,7597,7647,7595,7648,7648,7620,7648,7648,7621,7617,7597,6543,6643,6543,6543,6543,6743,6744,6771,6719,5649,6697,6697,6746,6669,6670,6671,6694,6694,6695,6769,6543,6693,6696,6697,5649,6719,6746,6695,6543,6519,6543,6618,6620,6544,6575,2905,6543,6743,6771,6697,6719,5649,6719,6719,6697,6697,6697,6719,6719,6721,6744,6744,6745,6543,6743,
7597,7597,7597,7597,6544,6906,6905,6905,6621,6543,6543,6543,6643,6543,6743,6744,6745,6543,6543,6543,6743,6771,6719,6719,6719,6720,6769,6543,6543,6718,6719,6719,6719,6719,6719,6719,6719,6720,6543,6718,5649,6719,6672,6673,6719,6746,6694,6695,6643,6643,6519,7597,7617,7597,7692,7596,7648,7595,7645,7646,7673,7671,7595,7624,7597,6518,6693,6694,6695,6643,6693,6695,6718,6719,6719,6719,6672,6673,6719,6719,6719,5649,6719,6720,6693,6694,6696,6719,5649,6719,6721,6744,6745,6543,6543,6543,6543,6593,2869,2870,6596,6543,6543,6743,6771,6719,6719,6719,6719,6719,6672,6719,6697,6721,6745,6543,6543,6543,6543,6543,
7597,7597,7597,7597,6544,6956,6905,6905,6621,6543,6543,6543,6543,6543,6518,6543,6543,6543,6518,6543,6769,6743,6644,6645,6646,6745,6543,6543,6768,6718,6719,5649,6719,6719,6719,6719,6719,6720,6768,6743,6744,6771,6719,6672,6672,6672,6719,6720,6624,6624,6543,6643,7597,7597,7622,7648,7595,7646,7673,7692,7674,7617,7671,7649,6519,6643,6718,6673,6720,6543,6743,6745,6743,6771,6697,6719,6719,6672,6672,6719,6719,6697,6697,6746,6696,6719,6719,6721,6744,6744,6745,6543,6543,6543,6543,6543,6543,6706,6707,6706,6706,6543,6543,6769,6743,6771,6697,6721,6771,6719,6721,6771,5649,6720,6543,6543,6543,6543,6543,6543,
7597,7597,7597,7597,6932,6956,6905,6905,6621,6543,6543,6543,6543,6543,6543,6543,6543,6543,6624,6543,6643,6543,6543,6624,6543,6543,6543,6518,6543,6718,6672,6673,7340,7315,7341,7341,7342,6720,6769,6543,6543,6743,6744,6744,6771,6719,6721,6745,6543,6518,6643,6543,7597,7617,7647,7645,7646,7674,7691,7674,7674,7674,7597,7597,6643,6543,6743,6744,6745,3266,6543,6693,6695,6743,6744,6744,6771,6719,6719,6719,5649,6719,5649,6719,6697,6721,6744,6745,6768,6543,6543,6543,6543,6543,6543,6543,6543,6706,6706,6707,6706,6836,6543,6543,6543,6743,6744,6745,6743,6744,6745,6743,6744,6745,6543,6543,6543,6543,6543,6543,
7615,7597,7597,7597,6982,6956,6905,6905,6621,6543,6543,6543,6543,6543,6543,6543,6543,6543,6543,6543,6518,6543,6543,6543,6543,6518,6693,6695,6543,6743,6644,6645,6646,6771,7366,7366,6721,6745,6543,6543,6518,6543,6543,6643,6743,6744,6745,6768,6769,6693,6695,6643,7597,7691,7617,7671,7649,7690,7617,7674,7674,7674,7597,7597,6543,6543,6543,6520,6643,6543,6543,6743,6745,6543,6543,6769,6743,6744,6644,6645,6646,6644,6645,6646,6744,6745,6520,6543,6543,6543,6543,6543,6543,6543,6543,6543,6543,6706,6707,6706,6706,6543,6543,6643,6518,6543,6543,6543,6543,6543,6543,6769,6543,6543,6543,6543,6543,6543,6543,6543,
7597,7597,7597,7597,6544,7013,6931,6905,6905,6543,6543,6543,6543,6543,6543,6543,6543,6543,6543,6543,6543,6543,6543,6543,6543,6543,6743,6745,6543,6519,6643,6543,6624,6743,6644,6646,6745,6624,6543,6543,6543,6543,6543,6543,6543,6624,6643,6543,6543,6743,6745,6520,6543,7616,7597,7597,7692,7617,7674,7674,7674,7674,6594,6594,6594,6543,6543,6543,6543,6643,6543,6543,6643,6543,6543,6519,6543,6543,6543,6643,6543,6769,6543,6543,6643,6543,6543,6543,6543,6543,6543,6543,6543,6543,7735,6543,6543,2887,2885,2886,2888,6543,6543,6543,6543,6543,6543,6543,6543,6543,6643,6543,6543,6543,6543,6543,6543,6543,6543,6543,
7597,7597,7597,7610,6544,6928,6956,6905,6905,6905,6543,6543,6543,6543,6543,6543,6543,6543,6543,6543,6543,6543,6543,6543,6543,6543,6518,6543,6624,6543,3266,6543,6518,6543,6543,6543,6543,6543,6543,6543,6543,6543,6543,6543,6543,6543,6518,6643,6519,6624,6543,6543,6543,7597,7597,7597,7597,7642,7597,7597,6543,6543,6543,6543,6543,6543,6543,6543,6543,6768,6543,6543,6543,6543,6543,6543,6518,6543,6543,6543,6543,6543,6543,6543,6543,6518,6543,6543,6543,6543,6543,6543,6543,7022,7760,6998,6926,6998,6976,3325,3296,6543,6543,6543,6543,6543,6543,6543,6543,6543,6520,6518,6543,6543,6543,6543,6543,6568,6569,6905,
7597,7597,7597,7635,6957,6575,7013,6905,6905,6905,6905,6543,6543,6543,6543,6543,6543,6543,6543,6543,6543,6543,6543,6543,6543,6543,6543,6543,6543,6543,6543,6543,6543,6543,6543,6543,6543,6543,6543,6543,6543,6543,6543,6543,6543,6543,6543,6543,6543,6568,6570,6953,7597,7597,7597,7597,7597,7597,7597,7597,6543,7648,7648,7648,7648,6543,6543,6543,6543,6543,6543,6543,6543,6543,6543,6543,6543,6543,6543,6543,6543,6543,6543,6543,6543,6543,6543,6543,6543,6543,6543,6543,6860,7072,7073,7051,7052,7026,3296,7075,6713,6543,6543,6543,6543,6543,6543,6543,6543,6543,6543,6543,6543,6543,6543,6543,6568,6570,6905,6905,
7597,7597,7597,7597,7613,6831,6544,6981,6905,6905,6905,6905,6543,6543,6543,6543,6543,6543,6543,6543,6543,6543,6543,6543,6543,6543,6543,6543,6543,6543,6543,6543,6543,6543,6543,6543,6543,6543,6543,6543,6543,6543,6543,6543,6543,6543,6543,6543,6543,6593,6544,6544,7597,7597,7597,7597,7597,7597,7597,7597,6624,7671,7648,7648,7646,6543,6543,6543,6694,6694,6543,6543,6543,6543,6543,6543,6543,6543,6543,6543,6543,6543,6543,6543,6543,6543,6543,6543,6543,6543,6543,6543,6543,6659,6543,6518,6619,6621,6543,6543,6543,6543,6543,6543,6543,6543,6543,6543,6543,6543,6543,6543,6543,6543,6543,6543,6593,6905,6905,6979,
7597,7597,7597,7597,2984,7612,7613,6544,6981,6905,6905,6905,6905,6543,6543,6543,6543,6543,6543,6543,6543,6543,6543,6543,6543,6543,6543,6543,6543,6543,6543,6543,6543,6543,6543,6543,6543,6543,6543,6543,6543,6543,6543,6543,6543,6543,6543,6543,6543,6543,6543,6543,7648,7648,7648,7648,7648,7648,7648,7648,6543,7672,7673,7673,7610,7613,6543,6543,6543,6719,6695,6543,6543,6543,6543,6543,6543,6543,6543,6543,6543,6543,6543,6543,6543,6543,6543,6543,6543,6543,6543,6543,6543,6835,6835,6835,6543,6543,6543,6543,6543,6543,6543,6543,6543,6543,6543,6543,6543,6543,6543,6543,6543,6543,6543,6568,6905,6905,6979,6544,
7597,7597,7597,7597,7635,7637,2984,7613,3094,6981,6905,6905,6905,6905,6905,6905,6905,6905,6905,6905,6905,6905,6905,6905,6905,6905,6543,6543,6543,6543,6543,6543,6543,6543,6543,6543,6543,6543,6543,6543,6543,6543,6543,6543,6543,6543,6543,2184,6543,6543,6543,6543,7671,7648,7648,7648,7648,7648,7648,7646,7612,2966,7617,7690,7635,7638,6543,6543,6543,6543,6720,6543,6543,6543,6543,6543,6543,6543,6543,6543,6543,6543,6543,6543,6543,6543,6543,6543,6543,6543,6905,6905,6905,6692,7764,6689,6905,6905,6905,6905,6905,6905,6905,6905,6905,6905,6905,2202,6543,6543,6543,6543,6543,6543,6568,6905,6905,6979,6957,7611,
7597,7597,7597,7597,7597,7597,7635,2984,2987,6544,6981,6905,6905,6905,6905,6905,6905,6905,6905,6905,6905,6905,6905,6905,6905,6905,6543,6543,6543,6543,6543,6543,6543,6543,6543,6543,6543,6543,6543,6543,6543,6543,6543,6543,6543,6543,6543,6886,6543,6543,6543,7611,2966,7671,7645,7648,7620,7595,7646,7635,7637,7634,7597,7692,7691,2999,6543,6543,6744,6543,6745,6543,6543,6543,6543,6543,6543,6543,6543,6543,6543,6543,6543,6543,6543,6543,6543,6543,6543,6543,6905,6905,6905,6905,7765,6905,6905,6905,6905,6905,6905,6905,6905,6905,6905,6905,6905,6543,6543,6543,6543,6543,6543,6568,6905,6905,6979,3029,7611,2981,
7597,7597,7597,7597,7642,7597,7615,2983,2984,7612,7613,6981,6905,6905,6905,6905,6905,6905,6905,6905,6905,6905,6905,6905,6905,6905,6543,6543,6543,6543,6543,6543,6543,6543,6543,6543,6543,6905,6905,6905,6905,6905,6905,6905,6905,6543,6543,6860,6519,6543,6543,7636,7634,7690,7673,7673,7673,7673,7597,6543,6543,6543,7597,7597,7617,3015,6543,6543,6543,6543,6543,6543,6543,6543,6543,6543,6543,6543,6543,6543,6543,6543,6543,6543,6543,6543,6905,6905,6905,6905,6905,6905,6905,6905,6905,6905,6905,6905,6905,6905,6905,6905,6905,6905,6905,6905,6905,6905,6905,6543,6543,6568,6569,6905,6905,6979,6953,2965,2981,7634,
7624,7615,7597,7597,7691,7597,7597,7597,7635,7637,2984,7613,7038,6930,6880,6930,6930,6930,6931,6905,6905,6905,6905,6905,6905,6905,6905,6543,6543,6543,6543,6543,6543,6543,6543,6543,6543,6905,6905,6905,6905,6905,6905,6905,6905,6905,6543,6885,6544,6543,6543,6543,7597,7617,7692,7597,6543,6543,6543,6543,6543,6543,7597,7597,7597,7597,6544,6543,6543,6543,6543,6543,6543,6543,6543,6543,6543,6543,6543,6543,6543,6543,6543,6543,6543,6543,6905,6905,6905,6905,6905,6905,6905,6905,6929,6880,6930,6930,6930,6930,6930,6931,6905,6905,6905,6905,6905,6905,6905,6905,6543,6905,6905,6905,6979,7611,7612,2981,7634,7597,
7624,7597,7597,7597,7597,7642,7642,7690,7597,7597,7635,7638,7613,6575,6544,6932,6957,6544,7013,6930,6930,6930,6930,6930,6931,6905,6905,6905,6905,6905,6905,6905,6905,6905,6905,6905,6905,6905,6905,6959,6930,6930,6880,6931,6905,6905,6905,2134,6544,6544,6544,6544,7597,7597,7597,7597,6543,6543,6543,6543,6543,6544,6544,6544,6544,6544,6544,6905,6905,6905,6905,6905,6905,6905,6905,6905,6905,6905,6905,6905,6905,6905,6905,6905,6905,6905,6905,6905,6959,6880,6930,6930,6930,6931,6954,6831,6544,6544,6544,6932,6544,7013,6930,6930,6930,6931,6905,6905,6905,6905,6905,6905,6905,6979,7611,2981,7637,7634,7597,7597,
7621,7597,7597,7597,7642,7642,7642,7642,7642,7597,7597,7635,2984,7612,7612,7612,7612,7612,7613,6928,6957,6574,6544,6881,7013,6930,6930,6930,6930,6930,6930,6880,6930,6930,6930,6930,6930,6930,6933,6928,6544,6575,6544,7013,6930,6880,6930,6930,6544,6544,6544,6544,6544,6544,6544,6544,6544,6544,6544,6544,6544,6544,6544,6544,6544,6544,6544,7038,6905,6905,6905,6905,6905,6959,6880,6930,6930,6930,6880,6930,6930,6930,6930,6930,6930,6930,6930,6933,6544,6978,6544,3173,7611,7612,7612,7612,7612,7612,7612,7612,7612,7612,6982,6544,6544,7013,6930,6930,6880,6930,6930,6930,6933,7611,2981,7634,7597,7597,7597,7597,
7623,7624,7597,7597,7642,7690,7642,7642,7642,7642,7642,7597,7635,7637,7637,7637,7637,7637,7638,7612,7612,7612,7612,7612,7612,7612,7612,7612,7612,7612,7612,7612,7612,7612,7612,7612,7612,7612,7612,7612,7612,7612,7612,7612,7612,7612,7612,6544,6544,6544,6544,6544,6544,6544,6544,6544,6544,6544,6544,6544,6544,7648,7648,7648,7648,7648,7648,6930,6930,6930,6930,6930,6933,7612,7612,7612,7612,7612,7612,7612,7612,7612,7612,7612,7612,7612,7612,7612,7612,7612,7612,2954,2955,7637,7637,7637,7637,7637,7637,7637,7637,2984,7612,7612,7612,7612,7612,7612,7612,7612,7612,7612,7612,2981,7634,7597,7597,7597,7597,7597,
7648,7624,7597,7597,7642,7642,7597,7597,7642,7642,7642,7642,7642,7642,7597,7597,7617,7597,7635,7637,7637,7637,7637,7637,7637,7637,7637,7637,7637,7637,7637,7637,7637,7637,7637,7637,7637,7637,7637,7637,7637,7637,7637,7637,7637,7637,2984,7612,7613,3094,6544,7648,7648,7648,7648,7648,7648,6544,6544,6544,6544,7671,7648,7648,7648,7648,7646,6544,7611,7612,7612,7612,7612,2981,7637,7637,7637,7637,7637,7637,7637,7637,7637,7637,7637,7637,7637,7637,7637,7637,7637,2970,2971,7597,7642,7597,7597,7597,7597,7617,7597,7635,7637,7637,7637,7637,7637,7637,7637,7637,7637,7637,7637,7634,7597,7597,7597,7597,7597,7597,
7648,7624,7597,7597,7642,7692,7597,7617,7642,7642,7640,7597,7642,7597,7641,7597,7597,7691,7597,7597,7597,7642,7597,7597,7691,7597,7597,7597,7665,7597,7642,7597,7666,7597,7597,7597,7642,7615,7641,7597,7597,7597,7597,7617,7597,7614,7635,7637,2984,2987,6544,7671,7648,7648,7648,7648,7646,6544,6544,6544,6544,7614,7673,7673,7673,7673,7610,7612,2981,7637,7637,7637,7637,7634,7597,7642,7597,7597,7597,7665,7597,7597,7691,7597,7597,7597,7642,7597,7617,7597,7597,7640,7597,7642,7597,7641,7597,7597,7691,7597,7597,7597,7642,7597,7597,7691,7597,7597,7597,7597,7642,7642,7597,7691,7597,7597,7642,7597,7597,7597,
7648,7624,7597,7597,7614,7692,7614,7614,7642,7614,7614,7614,7614,7614,7614,7614,7614,7614,7614,7617,7614,7614,7614,7614,7614,7642,7642,7614,7614,7614,7614,7614,7614,7690,7614,7614,7614,7614,7614,7642,7617,7614,7642,7614,7691,7614,7614,7614,2983,2984,7612,7609,7673,7673,7673,7673,7610,7613,6544,6544,7611,7609,7690,7692,7614,7617,7635,7637,7634,7614,7642,7690,7614,7617,7614,7614,7642,7614,7614,7642,7614,7642,7614,7690,7642,7614,7614,7614,7614,7614,7692,7642,7614,7614,7614,7614,7614,7614,7642,7614,7692,7614,7598,7598,7598,7614,7642,7642,7642,7692,7614,7642,7614,7642,7614,7614,7614,7614,7690,7642,
7648,7624,7597,7597,7642,7614,7642,7614,7690,7642,7614,7614,7614,7614,7614,7692,7642,7614,7614,7614,7614,7614,7614,7642,7614,7692,7614,7598,7598,7598,7614,7642,7642,7642,7692,7614,7642,7614,7642,7614,7691,7614,7614,7690,7642,7614,7692,7614,7614,7635,7637,7634,7692,7614,7642,7691,7635,2984,7612,7612,2981,7634,7614,7614,7615,7690,7614,7642,7614,7642,7614,7642,7614,7614,7614,7617,7614,7614,7642,7598,7598,7598,7614,7614,7614,7614,7614,7617,7614,7614,7614,7642,7614,7690,7614,7614,7614,7642,7614,7598,7598,7596,7623,7623,7623,7621,7598,7598,7598,7598,7614,7642,7614,7614,7614,7614,7617,7614,7614,7614,
7648,7624,7597,7597,7598,7598,7598,7614,7614,7614,7614,7614,7617,7614,7614,7614,7642,7614,7690,7614,7614,7614,7642,7614,7598,7598,7596,7623,7623,7623,7621,7598,7598,7598,7598,7614,7642,7614,7614,7614,7614,7617,7614,7614,7598,7598,7598,7598,7617,7598,7598,7598,7614,7690,7614,7614,7614,7635,7637,7637,7634,7692,7640,7617,7598,7692,7598,7598,7691,7598,7614,7692,7642,7614,7690,7614,7614,7596,7623,7623,7623,7623,7621,7598,7692,7598,7598,7598,7598,7598,7598,7598,7614,7614,7642,7692,7614,7598,7596,7623,7623,7648,7648,7620,7648,7648,7623,7623,7623,7623,7623,7623,7623,7623,7621,7598,7598,7598,7596,7623,
7648,7624,7597,7597,7623,7623,7623,7621,7598,7692,7598,7598,7598,7598,7598,7598,7598,7614,7614,7642,7692,7614,7598,7596,7623,7623,7648,7648,7620,7648,7648,7623,7623,7623,7623,7623,7623,7623,7623,7621,7598,7598,7598,7596,7623,7623,7623,7623,7623,7623,7623,7623,7621,7598,7692,7598,7642,7617,7598,7598,7691,7598,7598,7596,7623,7623,7623,7623,7623,7623,7621,7598,7598,7598,7598,7596,7623,7648,7620,7645,7648,7648,7595,7623,7623,7623,7623,7623,7623,7623,7623,7623,7621,7598,7598,7598,7596,7623,7648,7645,7648,7595,7648,7648,7648,7648,7648,7648,7648,7648,7648,7648,7648,7595,7648,7623,7623,7623,7648,7648,
7648,7624,7597,7597,7645,7648,7648,7648,7623,7623,7623,7623,7623,7623,7623,7623,7623,7621,7598,7598,7598,7596,7623,7648,7645,7648,7595,7648,7648,7648,7670,7648,7648,7648,7648,7648,7648,7648,7595,7648,7623,7623,7623,7648,7670,7648,7595,7648,7670,7645,7620,7670,7670,7623,7623,7623,7623,7623,7623,7623,7623,7623,7623,7670,7645,7648,7670,7648,7595,7648,7648,7623,7623,7623,7623,7648,7648,7648,7648,7648,7648,7595,7648,7670,7648,7670,7648,7648,7670,7648,7595,7648,7648,7623,7623,7623,7648,7648,7648,7648,7648,7648,7648,7648,7648,7670,7648,7648,7648,7648,7620,7648,7648,7648,7648,7648,7648,7648,7648,7648,
7648,7624,7597,7597,7648,7648,7595,7648,7648,7648,7670,7648,7648,7648,7648,7595,7648,7648,7623,7623,7623,7648,7648,7648,7648,7648,7648,7670,7648,7648,7670,7648,7648,7648,7648,7620,7648,7648,7648,7648,7648,7648,7648,7648,7648,7670,7648,7648,7648,7648,7648,7670,7670,7670,7670,7645,7648,7595,7648,7648,7620,7648,7670,7648,7648,7648,7670,7648,7670,7648,7670,7648,7648,7670,7648,7648,7595,7645,7648,7670,7648,7648,7648,7645,7648,7648,7648,7645,7648,7648,7648,7648,7670,7648,7648,7648,7648,7648,7670,7648,7648,7648,7648,7648,7648,7648,7648,7670,7648,7648,7648,7648,7648,7648,7648,7648,7648,7648,7670,7648,
7648,7624,7597,7597,7670,7648,7648,7648,7645,7648,7648,7648,7645,7648,7648,7648,7648,7670,7648,7648,7648,7648,7648,7670,7648,7648,7648,7648,7670,7648,7648,7648,7670,7648,7648,7648,7648,7648,7648,7648,7648,7648,7648,7670,7648,7648,7648,7648,7670,7670,7648,7648,7595,7670,7670,7648,7648,7670,7648,7648,7648,7670,7648,7648,7648,7648,7648,7648,7648,7648,7648,7648,7648,7648,7670,7648,7648,7648,7648,7648,7670,7648,7648,7648,7648,7648,7648,7670,7648,7670,7670,7648,7648,7648,7648,7648,7648,7648,7648,7648,7648,7648,7648,7648,7648,7648,7648,7648,7648,7648,7648,7648,7648,7648,7648,7648,7648,7648,7648,7648,
7648,7621,7597,7597,7648,7648,7648,7620,7648,7648,7648,7648,7648,7648,7648,7648,7648,7648,7648,7648,7648,7648,7648,7648,7648,7648,7670,7648,7648,7670,7648,7648,7648,7648,7648,7648,7648,7648,7648,7648,7648,7648,7648,7648,7648,7648,7670,7648,7648,7670,7648,7648,7648,7670,7648,7648,7670,7648,7648,7648,7648,7648,7648,7648,7670,7648,7648,7670,7648,7670,7648,7648,7670,7648,7648,7648,7648,7648,7648,7648,7670,7670,7648,7648,7648,7670,7648,7670,7648,7648,7648,7670,7648,7648,7648,7648,7648,7648,7648,7648,7648,7648,7648,7648,7648,7648,7648,7648,7648,7648,7648,7648,7648,7648,7648,7648,7648,7648,7648,7648
</data>
 </layer>
 <layer id="2" name="Back2" width="120" height="120">
  <properties>
   <property name="Draw" value="Back"/>
  </properties>
  <data encoding="csv">
0,0,0,0,0,0,0,0,0,0,0,0,0,0,0,0,0,0,0,0,0,0,0,0,0,0,0,0,0,0,0,0,0,0,0,0,0,0,0,0,0,0,0,0,0,0,0,0,0,0,0,0,0,0,0,0,0,0,0,0,0,0,0,0,0,0,0,0,0,0,0,0,0,0,0,0,0,0,0,0,0,0,0,0,0,0,0,0,0,0,0,0,0,0,0,0,0,0,0,0,0,0,0,0,0,0,0,0,0,0,0,0,0,0,0,0,0,0,0,0,
0,0,0,0,0,0,0,0,0,0,0,0,0,0,0,0,0,0,0,0,0,0,0,0,0,0,0,0,0,0,0,0,0,0,0,0,0,0,0,0,0,0,0,0,0,0,0,0,0,0,0,0,0,0,0,0,0,0,0,0,0,0,0,0,0,0,0,0,0,0,0,0,0,0,0,0,0,0,0,0,0,0,0,0,0,0,0,0,0,0,0,0,0,0,0,0,0,0,0,0,0,0,0,0,0,0,0,0,0,0,0,0,0,0,0,0,0,0,0,0,
0,0,0,0,0,0,0,0,0,0,0,0,0,0,0,0,0,0,0,0,0,0,0,0,0,0,0,0,0,0,0,0,0,0,0,0,0,0,0,0,0,0,0,0,0,0,0,0,0,0,0,0,0,0,0,0,0,0,0,0,0,0,0,0,0,0,0,0,0,0,0,0,0,0,0,0,0,0,0,0,0,0,0,0,0,0,0,0,0,0,0,0,0,0,0,0,0,0,0,0,0,0,0,0,0,0,0,0,0,0,0,0,0,0,0,0,0,0,0,0,
0,0,0,0,0,0,0,0,0,0,0,0,0,0,0,0,0,0,0,0,0,0,0,0,0,0,0,0,0,0,0,0,0,0,0,0,0,0,0,0,0,0,0,0,0,0,0,0,0,0,0,0,0,0,0,0,0,0,0,0,0,0,0,0,0,0,0,0,0,0,0,0,0,0,0,0,0,0,0,0,0,0,0,0,0,0,0,0,0,0,0,0,0,0,0,0,0,0,0,0,0,0,0,0,0,0,0,0,0,0,0,0,0,0,0,0,0,0,0,0,
0,0,0,0,0,0,0,0,0,0,0,0,0,0,0,0,0,0,0,0,0,0,0,0,0,0,0,0,0,0,0,0,0,0,0,0,0,0,0,0,0,0,0,0,0,0,0,0,0,0,0,0,0,0,0,0,0,0,0,0,0,0,0,0,0,0,0,0,0,0,0,0,0,0,0,0,0,0,0,0,0,0,0,0,0,0,0,0,0,0,0,0,0,0,0,0,0,0,0,0,0,0,0,0,0,0,0,0,0,0,0,0,0,0,0,0,0,0,0,0,
0,0,0,0,0,0,0,0,0,0,0,0,0,0,0,0,0,0,0,0,0,0,0,0,0,0,0,0,0,0,0,0,0,0,0,0,0,0,0,0,0,0,0,0,0,0,0,0,0,0,0,0,0,0,0,0,0,0,0,0,0,0,0,0,0,0,0,0,0,0,0,0,0,0,0,0,0,0,0,0,0,0,0,0,0,0,0,0,0,0,0,0,0,0,0,0,0,0,0,0,0,0,0,0,0,0,0,0,0,0,0,0,0,0,0,0,0,0,0,0,
0,0,0,0,0,0,0,0,0,0,0,0,0,0,0,0,0,0,0,0,0,0,0,0,0,0,0,0,0,0,0,0,0,0,0,0,0,0,0,0,0,0,0,0,0,0,0,0,0,0,0,0,0,0,0,0,0,0,0,0,0,0,0,0,0,0,0,0,0,0,0,0,0,0,0,0,0,0,0,0,0,0,0,0,0,0,0,0,0,0,0,6785,0,0,0,0,0,0,0,0,0,0,0,0,0,0,0,0,0,0,0,0,0,0,0,0,0,0,0,0,
0,0,0,0,0,0,0,0,0,0,0,0,0,0,0,0,0,0,0,0,0,0,0,0,0,0,0,0,0,0,0,0,0,0,0,0,0,0,0,0,0,0,0,0,0,0,0,0,0,0,0,0,0,0,0,0,0,0,0,0,0,0,0,0,0,0,0,0,0,0,0,0,0,0,0,0,0,0,0,0,6911,0,0,0,0,0,0,0,0,0,0,6810,0,0,0,0,0,0,0,0,0,0,0,0,0,0,0,0,0,0,0,0,0,0,0,0,0,0,0,0,
0,0,0,0,0,0,0,0,0,0,0,0,0,0,0,0,0,0,0,0,0,0,0,0,0,0,0,0,0,0,0,0,0,0,0,0,0,0,0,0,0,0,0,0,0,0,0,0,0,0,0,0,0,0,0,0,0,0,0,0,0,0,0,0,0,0,0,0,0,0,0,0,0,0,0,0,0,0,0,0,0,0,0,0,0,0,0,0,0,0,0,0,0,0,0,0,0,0,0,0,0,0,0,0,0,0,0,0,0,0,0,0,0,0,0,0,0,0,0,0,
0,0,0,0,0,0,0,0,0,0,0,0,0,0,0,0,0,0,0,0,0,0,0,0,0,0,0,0,0,0,0,0,0,0,0,0,0,0,0,0,0,0,0,0,0,0,0,0,0,0,0,0,0,0,0,0,0,0,0,0,0,0,0,0,0,0,0,0,0,0,0,0,0,0,0,0,0,0,0,0,0,0,0,0,0,0,0,0,0,0,0,0,0,0,0,0,0,0,0,0,0,0,0,0,0,0,0,0,0,0,0,0,0,0,0,0,0,0,0,0,
0,0,0,0,0,0,0,0,0,0,0,0,0,0,0,0,0,0,0,0,0,0,0,0,0,0,0,0,0,0,0,0,0,0,0,0,0,0,0,0,0,0,0,0,0,0,0,0,0,0,0,0,0,0,0,0,0,0,0,0,0,0,0,0,0,0,0,0,0,0,0,0,0,0,0,0,0,0,0,0,0,0,0,0,0,0,0,0,0,0,0,0,0,0,0,0,0,0,0,0,0,0,0,0,0,0,0,0,0,0,0,0,0,0,0,0,0,0,0,0,
0,0,0,0,0,0,0,0,0,0,0,0,0,0,0,0,0,0,0,0,0,0,0,0,0,0,0,0,0,0,0,0,0,0,0,0,0,0,0,0,0,0,0,0,0,0,0,0,0,0,0,0,0,0,0,0,0,0,0,0,0,0,0,0,0,0,0,0,0,0,0,0,0,0,0,0,0,0,0,0,0,0,0,0,4796,4848,0,0,0,0,0,0,0,0,0,0,0,0,0,0,0,0,0,0,0,0,0,0,0,0,0,0,0,0,0,0,0,0,0,0,
0,0,0,0,0,0,0,0,0,0,0,0,0,0,0,0,0,0,0,0,0,0,0,0,0,0,0,0,0,0,0,0,0,0,0,0,0,0,0,0,0,0,0,0,0,0,0,0,0,0,0,0,0,0,0,0,0,0,0,0,0,0,0,0,0,0,0,0,0,0,0,0,0,0,0,0,0,0,0,0,0,0,4848,4848,4848,4848,0,0,0,0,0,0,0,0,0,0,0,0,0,0,0,0,0,0,0,0,0,0,0,0,0,0,0,0,0,0,0,0,0,0,
0,0,0,0,0,0,0,0,0,0,0,0,0,0,0,0,0,0,0,0,0,0,0,0,0,0,0,0,0,0,0,0,0,0,0,0,0,0,0,0,0,0,0,0,0,0,0,0,0,0,0,0,0,0,0,0,0,0,0,0,0,0,0,0,0,0,0,0,0,0,0,0,0,0,0,0,0,0,0,0,4924,4925,4848,4848,4848,4848,0,0,0,0,0,0,0,0,0,0,0,0,0,0,0,0,0,0,0,0,0,0,0,0,0,0,0,0,0,0,0,0,0,0,
0,0,0,0,0,0,0,0,0,0,0,0,0,0,0,0,0,0,0,0,0,0,0,0,0,0,0,0,0,0,0,0,0,0,0,0,0,0,0,0,0,0,0,0,0,0,0,0,0,0,0,0,0,0,0,0,0,0,0,0,0,0,0,0,0,0,0,0,0,0,0,0,0,0,0,0,0,0,0,0,4943,4944,4848,4848,4848,4848,0,0,0,0,0,0,0,0,0,0,0,0,0,0,0,0,0,0,0,0,0,0,0,0,0,0,0,0,0,0,0,0,0,0,
0,0,0,0,0,0,0,0,0,0,0,0,0,0,0,0,0,0,0,0,0,0,0,0,0,0,0,0,0,0,0,0,0,0,0,0,0,0,0,0,0,0,0,0,0,0,0,0,0,0,0,0,0,0,0,0,0,0,0,0,0,0,0,0,0,0,0,0,0,0,0,0,0,0,0,0,0,0,0,0,4962,4963,4964,4965,4796,4848,4848,0,0,0,0,0,0,0,0,0,0,0,0,0,0,0,0,0,0,0,0,0,0,0,0,0,0,0,0,0,0,0,0,0,
0,0,0,0,0,0,0,0,0,0,0,0,0,0,0,0,0,0,0,0,0,0,0,0,0,0,0,0,0,0,0,0,0,0,0,0,0,0,0,0,0,0,0,0,0,0,0,0,0,0,0,0,0,0,0,0,0,0,0,0,0,0,0,0,0,0,0,0,0,0,0,0,0,0,0,0,0,0,0,0,0,0,0,0,4758,4814,4814,4814,4814,4814,4814,4814,4814,4810,4810,4810,4810,4810,4810,4810,4810,4810,4775,0,0,0,0,0,0,0,0,0,0,0,0,0,0,0,0,0,
0,0,0,0,0,0,0,0,0,0,0,0,0,0,0,0,0,0,0,0,0,0,0,0,0,0,0,0,0,0,0,0,0,0,0,0,0,0,0,0,0,0,0,0,0,0,0,0,0,0,0,0,0,0,0,0,0,0,0,0,0,0,0,0,0,0,0,0,0,0,0,0,0,0,0,0,0,0,0,0,0,0,0,0,0,0,0,0,0,0,0,0,0,0,0,0,0,0,0,0,0,0,0,0,0,0,0,0,0,0,0,0,0,0,0,0,0,0,0,0,
0,0,0,0,0,0,0,0,0,0,0,0,0,0,0,0,0,0,0,0,0,0,0,0,0,0,0,0,0,0,0,0,0,0,0,0,0,0,0,0,0,0,0,0,0,0,0,0,0,0,0,0,0,0,0,0,0,0,0,0,0,0,0,0,0,0,0,0,0,0,0,0,0,0,0,0,0,0,0,0,0,0,0,0,0,0,0,0,0,0,0,0,0,0,0,0,0,0,0,0,0,0,0,0,0,0,0,0,0,0,0,0,0,0,0,0,0,0,0,0,
0,0,0,0,0,0,0,0,0,0,0,0,0,0,0,0,0,0,0,0,0,0,0,0,0,0,0,0,0,0,0,0,0,0,0,0,0,0,0,0,0,0,0,0,0,0,0,0,0,0,0,0,0,0,0,0,0,0,0,0,0,0,0,0,0,0,0,0,0,0,0,0,0,0,0,0,0,0,0,0,0,0,0,0,0,0,0,0,0,0,0,0,0,0,0,0,0,0,0,0,0,0,0,0,0,0,0,0,0,0,0,0,0,0,0,0,0,0,0,0,
0,0,0,0,0,0,0,0,0,0,0,0,0,0,0,0,0,0,0,0,0,0,0,0,0,0,0,0,0,0,0,0,0,0,0,0,0,0,0,0,0,0,0,0,0,0,0,0,0,0,0,0,0,0,0,0,0,0,0,0,0,0,0,0,0,0,0,0,0,0,0,0,0,0,0,0,0,0,0,0,0,0,0,0,0,0,0,0,0,0,0,0,0,0,0,0,0,0,0,0,0,0,0,0,0,0,0,0,0,0,0,0,0,0,0,0,0,0,0,0,
0,0,0,0,0,0,0,0,0,0,0,0,0,0,0,0,0,0,0,0,0,0,0,0,0,0,0,0,0,0,0,0,0,0,0,0,0,0,0,0,0,0,0,0,0,0,0,0,0,0,0,0,0,0,0,0,0,0,0,0,0,0,0,0,0,0,0,0,0,0,0,0,0,0,0,0,0,0,0,0,0,0,0,0,0,0,0,0,0,0,0,0,0,0,0,0,0,0,0,0,0,0,0,0,0,0,0,0,0,0,0,0,0,0,0,0,0,0,0,0,
0,0,0,0,0,0,0,0,0,0,0,0,0,0,0,0,0,0,0,0,0,0,0,0,0,0,0,0,0,0,0,0,0,0,0,0,0,0,0,0,0,0,0,0,0,0,0,0,0,0,0,0,0,0,0,0,0,0,0,0,0,0,0,0,0,0,0,0,0,0,0,0,0,0,0,0,0,0,0,0,0,0,0,0,0,0,0,0,0,0,0,0,0,0,0,0,0,0,0,0,0,0,0,0,0,0,0,0,0,0,0,0,0,0,0,0,0,0,0,0,
0,0,0,0,0,0,0,0,0,0,0,0,0,0,0,0,0,0,0,0,0,0,0,0,0,0,0,0,0,0,0,0,0,0,0,0,0,0,0,0,0,0,0,0,0,0,0,0,0,0,0,0,0,0,0,0,0,0,0,0,0,0,0,0,0,0,0,0,0,0,0,0,0,0,0,0,0,0,0,0,0,0,0,0,0,0,0,0,0,0,0,0,0,0,0,0,0,0,0,0,0,0,0,0,0,0,0,0,0,0,0,0,0,0,0,0,0,0,0,0,
0,0,0,0,0,0,0,0,0,0,0,0,0,0,0,0,0,0,0,0,0,0,0,0,0,0,0,0,0,0,0,0,0,0,0,0,0,0,0,0,0,0,0,0,0,0,0,0,0,0,0,0,0,0,0,0,0,0,0,0,0,0,0,0,0,0,0,0,0,0,0,0,0,0,0,0,0,0,0,0,0,0,0,0,0,0,0,0,0,0,0,0,0,0,0,0,0,0,0,0,0,0,0,0,0,0,0,0,0,0,0,0,0,0,0,0,0,0,0,0,
0,0,0,0,0,0,0,0,0,0,0,0,0,0,0,0,0,0,0,0,0,0,0,0,0,0,0,0,0,0,0,0,0,0,0,0,0,0,0,0,0,0,0,0,0,0,0,0,0,0,0,0,0,0,0,0,0,0,0,0,0,0,0,0,0,0,0,0,0,0,0,0,0,0,0,0,0,0,0,0,0,0,0,0,0,0,0,0,0,0,0,0,0,0,0,0,0,0,0,0,0,0,0,0,0,0,0,0,0,0,0,0,0,0,0,0,0,0,0,0,
0,0,0,0,0,0,0,0,0,0,0,0,0,0,0,0,0,0,0,0,0,0,0,0,0,0,0,0,0,0,0,0,0,0,0,0,0,0,0,0,0,0,0,0,0,0,0,0,0,0,0,0,0,0,0,0,0,0,0,0,0,0,0,0,0,0,0,0,0,0,0,0,0,0,0,0,0,0,0,0,0,0,0,0,0,0,0,0,0,0,0,0,0,0,0,0,0,0,0,0,0,0,0,0,0,0,0,0,0,0,0,0,0,0,0,0,0,0,0,0,
0,0,0,0,0,0,0,0,0,0,0,0,0,0,0,0,0,0,0,0,0,0,0,0,0,0,0,0,0,0,0,0,0,0,0,0,0,0,0,0,0,0,0,0,0,0,0,0,0,0,0,0,0,0,0,0,0,0,0,0,0,0,0,0,0,0,0,0,0,0,0,0,0,0,0,0,0,0,0,0,0,0,0,0,0,0,0,0,0,0,0,0,0,0,0,0,0,0,0,0,0,0,0,0,0,0,0,0,0,0,0,0,0,0,0,0,0,0,0,0,
0,0,0,0,0,0,0,0,0,0,0,0,0,0,0,0,0,0,0,0,0,0,0,0,0,0,0,0,0,0,0,0,0,0,0,0,0,0,0,0,0,0,0,0,0,0,0,0,0,0,0,0,0,0,0,0,0,0,0,0,0,0,0,0,0,0,0,0,0,0,0,0,0,0,0,0,0,0,0,0,0,0,0,0,0,0,0,0,0,0,0,0,0,0,0,0,0,0,0,0,0,0,0,0,0,0,0,0,0,0,0,0,0,0,0,0,0,0,0,0,
0,0,0,0,4761,4761,4761,4761,0,0,0,0,0,0,0,0,0,0,0,0,0,0,0,0,0,0,0,0,0,0,0,0,0,0,0,0,0,0,0,0,0,0,0,0,0,0,0,0,0,0,0,0,0,0,0,0,0,0,0,0,0,0,0,0,0,0,0,0,0,0,0,0,0,0,0,0,0,0,0,0,0,0,0,0,0,0,0,0,0,0,0,0,0,0,0,0,0,0,0,0,0,0,0,0,0,0,0,0,0,0,0,0,0,0,0,0,0,0,0,0,
0,0,0,0,0,0,0,0,0,0,0,0,0,0,0,0,0,0,0,0,0,0,0,0,0,0,0,0,0,0,0,0,0,0,0,0,0,0,0,0,0,0,0,0,0,0,0,0,0,0,0,0,0,0,0,0,0,0,0,0,0,0,0,0,0,0,0,0,0,0,0,0,0,0,0,0,0,0,0,0,0,0,0,0,0,0,0,0,0,0,0,0,0,0,0,0,0,0,0,0,4777,4815,4815,4815,4815,4815,4815,4815,0,0,0,0,0,0,0,0,0,0,0,0,
0,0,0,0,0,0,0,0,0,0,0,0,0,0,0,0,0,0,0,0,0,0,0,0,0,0,0,0,0,0,0,0,0,0,0,0,0,0,0,0,0,0,0,0,0,0,0,0,0,0,0,0,0,0,0,0,0,0,0,0,0,0,0,0,0,0,0,0,0,0,0,0,0,0,0,0,0,0,0,0,0,0,0,0,0,0,0,0,0,0,0,0,0,0,0,0,0,0,0,0,4796,4848,4848,4848,4848,4848,4848,4848,0,0,0,0,0,0,0,0,0,0,0,0,
0,0,0,0,0,0,0,0,0,0,0,0,0,0,0,0,0,0,0,0,0,0,0,0,0,0,0,0,0,0,0,0,0,0,0,0,0,0,0,0,0,0,0,0,0,0,0,0,0,0,0,0,0,0,0,0,0,0,0,0,0,0,0,0,0,0,0,0,0,0,0,0,0,0,0,0,0,0,0,0,0,0,0,0,0,0,0,0,0,0,0,0,0,0,0,0,0,0,0,0,4796,4848,4848,4848,4848,4848,4848,4848,0,0,0,0,0,0,0,0,0,0,0,0,
0,0,0,0,0,0,0,0,0,0,0,0,0,0,0,0,0,0,0,0,0,0,0,0,0,0,0,0,0,0,0,0,0,0,0,0,0,0,0,0,0,0,0,0,0,0,0,0,0,0,0,0,0,0,0,0,0,0,0,0,0,0,0,0,0,0,0,0,0,0,0,0,0,0,0,0,0,0,0,0,0,0,0,0,0,0,0,0,0,0,0,0,0,0,0,0,0,0,0,0,4758,4814,4814,4814,4814,4837,4848,4848,0,0,0,0,0,0,0,0,0,0,0,0,
0,0,0,0,0,0,0,0,0,0,0,0,0,0,0,0,0,0,0,0,0,0,0,0,0,0,0,0,0,0,0,0,0,0,0,0,0,0,0,0,0,0,0,0,0,0,0,0,0,0,0,0,0,0,0,0,0,0,0,0,0,0,0,0,0,0,0,0,0,0,0,0,0,0,0,0,0,0,0,0,0,0,0,0,0,0,0,0,0,0,0,0,0,0,0,0,0,0,0,0,0,0,0,0,0,4778,4814,4814,4797,0,0,0,0,0,0,0,0,0,0,0,
0,0,0,0,0,0,0,0,0,0,0,0,0,0,0,0,0,0,0,0,0,0,0,0,0,0,0,0,0,0,0,0,0,0,0,0,0,0,0,0,0,0,0,0,0,0,0,0,0,0,0,0,0,0,0,0,0,0,0,0,0,0,0,0,0,0,0,0,0,0,0,0,0,0,0,0,0,0,0,0,0,0,0,0,0,0,0,0,0,0,0,0,0,0,0,0,0,0,0,0,0,0,0,0,0,0,0,0,0,0,0,0,0,0,0,0,0,0,0,0,
0,0,0,0,0,0,0,0,0,0,0,0,0,0,0,0,0,0,0,0,0,0,0,0,0,0,0,0,0,0,0,0,0,0,0,0,0,0,0,0,0,0,0,0,0,0,0,0,0,0,0,0,0,0,0,0,0,0,0,0,0,0,0,0,0,0,0,0,0,0,0,0,0,0,0,0,0,0,0,0,0,0,0,0,0,0,0,0,0,0,0,0,0,0,0,0,0,0,0,0,0,0,0,0,0,0,0,0,0,0,0,0,0,0,0,0,0,0,0,0,
0,0,0,0,0,0,0,0,0,0,0,0,0,0,0,0,0,0,0,0,0,0,0,0,0,0,0,0,0,0,0,0,0,0,0,0,0,0,0,0,0,0,0,0,0,0,0,0,0,0,0,0,0,0,0,0,0,0,0,0,0,0,0,0,0,0,0,0,0,0,0,0,0,0,0,0,0,0,0,0,0,0,0,0,0,0,0,0,0,0,0,0,0,0,0,0,0,0,0,0,0,0,0,0,0,0,0,0,0,0,0,0,0,0,0,0,0,0,0,0,
0,0,0,0,0,0,0,0,0,0,0,0,0,0,0,0,0,0,0,0,0,0,0,0,0,0,0,0,0,0,0,0,0,0,0,0,0,0,0,0,0,0,0,0,0,0,0,0,0,0,0,0,0,0,0,0,0,0,0,0,0,0,0,0,0,0,0,0,0,0,0,0,0,0,0,0,0,0,0,0,0,0,0,0,0,0,0,0,0,0,0,0,0,0,0,0,0,0,0,0,0,0,0,0,0,0,0,0,0,0,0,0,0,0,0,0,0,0,0,0,
0,0,0,0,0,0,0,0,0,0,0,0,0,0,0,0,0,0,0,0,0,0,0,0,0,0,0,0,0,0,0,0,0,0,0,0,0,0,0,0,0,0,0,0,0,0,0,0,0,0,0,0,0,0,0,0,0,0,0,0,0,0,0,0,0,0,0,0,0,0,0,0,0,0,0,0,0,0,0,0,0,0,0,0,0,0,0,0,0,0,0,0,0,0,0,0,0,0,0,0,0,0,0,0,0,0,0,0,0,0,0,0,0,0,0,0,0,0,0,0,
0,0,0,0,0,0,0,0,0,0,0,0,0,0,0,0,0,0,0,0,0,0,0,0,0,0,0,0,0,0,0,0,0,0,0,0,0,0,0,0,0,0,0,0,0,0,0,0,0,0,0,0,0,0,0,0,0,0,0,0,0,0,0,0,0,0,0,0,0,0,0,0,0,0,0,0,0,0,0,0,0,0,0,0,0,0,0,0,0,0,0,0,0,0,0,0,0,0,0,0,0,0,0,0,0,0,0,0,0,0,0,0,0,0,0,0,0,0,0,0,
0,0,0,0,0,0,0,0,0,0,0,0,0,0,0,0,0,0,0,0,0,0,0,0,0,0,0,0,0,0,0,0,0,0,0,0,0,0,0,0,0,0,0,0,0,0,0,0,0,0,0,0,0,0,0,0,0,0,0,0,0,0,0,0,0,0,0,0,0,0,0,0,0,0,0,0,0,0,0,0,0,0,0,0,0,0,0,0,0,0,0,0,0,0,0,0,0,0,0,0,0,0,0,0,0,0,0,0,0,0,0,0,0,0,0,0,0,0,0,0,
0,0,0,0,0,0,0,0,0,0,0,0,0,0,0,0,0,0,0,0,0,0,0,0,0,0,0,0,0,0,0,0,0,0,0,0,0,0,0,0,0,0,0,0,0,0,0,0,0,0,0,0,0,0,0,0,0,0,0,0,0,0,0,0,0,0,0,0,0,0,0,0,0,0,0,0,0,0,0,0,0,0,0,0,0,0,0,0,0,0,0,0,0,0,0,0,0,0,0,0,0,0,0,0,0,0,0,0,0,0,0,0,0,0,0,0,0,0,0,0,
0,0,0,0,0,0,0,0,0,0,0,0,0,0,0,0,0,0,0,0,0,0,0,0,0,0,0,0,0,0,0,0,0,0,0,0,0,0,0,0,0,0,0,0,0,0,0,0,0,0,0,0,0,0,0,0,0,0,0,0,0,0,0,0,0,0,0,0,0,0,0,0,0,0,0,0,0,0,0,0,0,0,0,0,0,0,0,0,0,0,0,0,0,0,0,0,0,0,0,0,0,0,0,0,0,0,0,0,0,0,0,0,0,0,0,0,0,0,0,0,
0,0,0,0,0,0,0,0,0,0,0,0,0,0,0,0,0,0,0,0,0,0,0,0,0,0,0,0,0,0,0,0,0,0,0,0,0,0,0,0,0,0,0,0,0,0,0,0,0,0,0,0,0,0,0,0,0,0,0,0,0,0,0,0,0,0,0,0,0,0,0,0,0,0,0,0,0,0,0,0,0,0,0,0,0,0,0,0,0,0,0,0,0,0,0,0,0,0,0,0,0,0,0,0,0,0,0,0,0,0,0,0,0,0,0,0,0,0,0,0,
0,0,0,0,0,0,0,0,0,0,0,0,0,0,0,0,0,0,0,0,0,0,0,0,0,0,0,0,0,0,0,0,0,0,0,0,0,0,0,0,0,0,0,0,0,0,0,0,0,0,0,0,0,0,0,0,0,0,0,0,0,0,0,0,0,0,0,0,0,0,0,0,0,0,0,0,0,0,0,0,0,0,0,0,0,0,0,0,0,0,0,0,0,0,0,0,0,0,0,0,0,0,0,0,0,0,0,0,0,0,0,0,0,0,0,0,0,0,0,0,
0,0,0,0,0,0,0,0,0,0,0,0,0,0,0,0,0,0,0,0,0,0,0,0,0,0,0,0,0,0,0,0,0,0,0,0,0,0,0,0,0,0,0,0,0,0,0,0,0,0,0,0,0,0,0,0,0,0,0,0,0,0,0,0,0,0,0,0,0,0,0,0,0,0,0,0,0,0,0,0,0,0,0,0,0,0,0,0,0,0,0,0,0,0,0,0,0,0,0,0,0,0,0,0,0,0,0,0,0,0,0,0,0,0,0,0,0,0,0,0,
0,0,0,0,0,0,0,0,0,0,0,0,0,0,0,0,0,0,0,0,0,0,0,0,0,0,0,0,0,0,0,0,0,0,0,0,0,0,0,0,0,0,0,0,0,0,0,0,0,0,0,0,0,0,0,0,0,0,0,0,0,0,0,0,0,0,0,0,0,0,0,0,0,0,0,0,0,0,0,0,0,0,0,0,0,0,0,0,0,0,0,0,0,0,0,0,0,0,0,0,0,0,0,0,0,0,0,0,0,0,0,0,0,0,0,0,0,0,0,0,
0,0,0,0,0,0,0,0,0,0,0,0,0,0,0,0,0,0,0,0,0,0,0,0,0,0,0,0,0,0,0,0,0,0,0,0,0,0,0,0,0,0,0,0,0,0,0,0,0,0,0,0,0,0,0,0,0,0,0,0,0,0,0,0,0,0,0,0,0,0,0,0,0,0,0,0,0,0,0,0,0,0,0,0,0,0,0,0,0,0,0,0,0,0,0,0,0,0,0,0,0,0,0,0,0,0,0,0,0,0,0,0,0,0,0,0,0,0,0,0,
0,0,0,0,0,0,0,0,0,0,0,0,0,0,0,0,0,0,0,0,0,0,0,0,0,0,0,0,0,0,0,0,0,0,0,0,0,0,0,0,0,0,0,0,0,0,0,0,0,0,0,0,0,0,0,0,0,0,0,0,0,0,0,0,0,0,0,0,0,0,0,0,0,0,0,0,0,0,0,0,0,0,0,0,0,0,0,0,0,0,0,0,0,0,0,0,0,0,0,0,0,0,0,0,0,0,0,0,0,0,0,0,0,0,0,0,0,0,0,0,
0,0,0,0,0,0,0,0,0,0,0,0,0,0,0,0,0,0,0,0,0,0,0,0,0,0,0,0,0,0,0,0,0,0,0,0,0,0,0,0,0,0,0,0,0,0,0,0,0,0,0,0,0,0,0,0,0,0,0,0,0,0,0,0,0,0,0,0,0,0,0,0,0,0,0,0,0,0,0,0,0,0,0,0,0,0,0,0,0,0,0,0,0,0,0,0,0,0,0,0,0,0,0,0,0,0,0,0,0,0,0,0,0,0,0,0,0,0,0,0,
0,0,0,0,0,0,0,0,0,0,0,0,0,0,0,0,0,0,0,0,0,0,0,0,0,0,0,0,0,0,0,0,0,0,0,0,0,0,0,0,0,0,0,0,0,0,0,0,0,0,0,0,0,0,0,0,0,0,0,0,0,0,0,0,0,0,0,0,0,0,0,0,0,0,0,0,0,0,0,0,0,0,0,0,0,0,0,0,0,0,0,0,0,0,0,0,0,0,0,0,0,0,0,0,0,0,0,0,0,0,0,0,0,0,0,0,0,0,0,0,
0,0,0,0,0,0,0,0,0,0,0,0,0,0,0,0,0,0,0,0,0,0,0,0,0,0,0,0,0,0,0,0,0,0,0,0,0,0,0,0,0,0,0,0,0,0,0,0,0,0,0,0,0,0,0,0,0,0,0,0,0,0,0,0,0,0,0,0,0,0,0,0,0,0,0,0,0,0,0,0,0,0,0,0,0,0,0,0,0,0,0,0,0,0,0,0,0,0,0,0,0,0,0,0,0,0,0,0,0,0,0,0,0,0,0,0,0,0,0,0,
0,0,0,0,0,0,0,0,0,0,0,0,0,0,0,0,0,0,0,0,0,0,0,0,0,0,0,0,0,0,0,0,0,0,0,0,0,0,0,0,0,0,0,0,0,0,0,0,0,0,0,0,0,0,0,0,0,0,0,0,0,0,0,0,0,0,0,0,0,0,0,0,0,0,0,0,0,0,0,0,0,0,0,0,0,0,0,0,0,0,0,0,0,0,0,0,0,0,0,0,0,0,0,0,0,0,0,0,0,0,0,0,0,0,0,0,0,0,0,0,
0,0,0,0,0,0,0,0,0,0,0,0,0,0,0,0,0,0,0,0,0,0,0,0,0,0,0,0,0,0,0,0,0,0,0,0,0,0,0,0,0,0,0,0,0,0,0,0,0,0,0,0,0,0,0,0,0,0,0,0,0,0,0,0,0,0,0,0,0,0,0,0,0,0,0,0,0,0,0,0,0,0,0,0,0,0,0,0,0,0,0,0,0,0,0,0,0,0,0,0,0,0,0,0,0,0,0,0,0,0,0,0,0,0,0,0,0,0,0,0,
0,0,0,0,0,0,0,0,0,0,0,0,0,0,0,0,0,0,0,0,0,0,0,0,0,0,0,0,0,0,0,0,0,0,0,0,0,0,0,0,0,0,0,0,0,0,0,0,0,0,0,0,0,0,0,0,0,0,0,0,0,0,0,0,0,0,0,0,0,0,0,0,0,0,0,0,0,0,0,0,0,0,0,0,0,0,0,0,0,0,0,0,0,0,0,0,0,0,0,0,0,0,0,0,0,0,0,0,0,0,0,0,0,0,0,0,0,0,0,0,
0,0,0,0,0,0,0,0,0,0,0,0,0,0,0,0,0,0,0,0,0,0,0,0,0,0,0,0,0,0,0,0,0,0,0,0,0,0,0,0,0,0,0,0,0,0,0,0,0,0,0,0,0,0,0,0,0,0,0,0,0,0,0,0,0,0,0,0,0,0,0,0,0,0,0,0,0,0,0,0,0,0,0,0,0,0,0,0,0,0,0,0,0,0,0,0,0,0,0,0,0,0,0,0,0,0,0,0,0,0,0,0,0,0,0,0,0,0,0,0,
0,0,0,0,0,0,0,0,0,0,0,0,0,0,0,0,0,0,0,0,0,0,0,0,0,0,0,0,0,0,0,0,0,0,0,0,0,0,0,0,0,0,0,0,0,0,0,0,0,0,0,0,0,0,0,0,0,0,0,0,0,0,0,0,0,0,0,0,0,0,0,0,0,0,0,0,0,0,0,0,0,0,0,0,0,0,0,0,0,0,0,0,0,0,0,0,0,0,0,0,0,0,0,0,0,0,0,0,0,0,0,0,0,0,0,0,0,0,0,0,
0,0,0,0,0,0,0,0,0,0,0,0,0,0,0,0,0,0,0,0,0,0,0,0,0,0,0,0,0,0,0,0,0,0,0,0,0,0,0,0,0,0,0,0,0,0,0,0,0,0,0,0,0,0,0,0,0,0,0,0,0,0,0,0,0,0,0,0,0,0,0,0,0,0,0,0,0,0,0,0,0,0,0,0,0,0,0,0,0,0,0,0,0,0,0,0,0,0,0,0,0,0,0,0,0,0,0,0,0,0,0,0,0,0,0,0,0,0,0,0,
0,0,0,0,0,0,0,0,0,0,0,0,0,0,0,0,0,0,0,0,0,0,0,0,0,0,0,0,0,0,0,0,0,0,0,0,0,0,0,0,0,0,0,0,0,0,0,0,0,0,0,0,0,0,0,0,0,0,0,0,0,0,0,0,0,0,0,0,0,0,0,0,0,0,0,0,0,0,0,0,0,0,0,0,0,0,0,0,0,0,0,0,0,0,0,0,0,0,0,0,0,0,0,0,0,0,0,0,0,0,0,0,0,0,0,0,0,0,0,0,
0,0,0,0,0,0,0,0,0,0,0,0,0,0,0,0,0,0,0,0,0,0,0,0,0,0,0,0,0,0,0,0,0,0,0,0,0,0,0,0,0,0,0,0,0,0,0,0,0,0,0,0,0,0,0,0,0,0,0,0,0,0,0,0,0,0,0,0,0,0,0,0,0,0,0,0,0,0,0,0,0,0,0,0,0,0,0,0,0,0,0,0,0,0,0,0,0,0,0,0,0,0,0,0,0,0,0,0,0,0,0,0,0,0,0,0,0,0,0,0,
0,0,0,0,0,0,0,0,0,0,0,0,0,0,0,0,0,0,0,0,0,0,0,0,0,0,0,0,0,0,0,0,0,0,0,0,0,0,0,0,0,0,0,0,0,0,0,0,0,0,0,0,0,0,0,0,0,0,0,0,0,0,0,0,0,0,0,0,0,0,0,0,0,0,0,0,0,0,0,0,0,0,0,0,0,0,0,0,0,0,0,0,0,0,0,0,0,0,0,0,0,0,0,0,0,0,0,0,0,0,0,0,0,0,0,0,0,0,0,0,
0,0,0,0,0,0,0,0,0,0,0,0,0,0,0,0,0,0,0,0,0,0,0,0,0,0,0,0,0,0,0,0,0,0,0,0,0,0,0,0,0,0,0,0,0,0,0,0,0,0,0,0,0,0,0,0,0,0,0,0,0,0,0,0,0,0,0,0,0,0,0,0,0,0,0,0,0,0,0,0,0,0,0,0,0,0,0,0,0,0,0,0,0,0,0,0,0,0,0,0,0,0,0,0,0,0,0,0,0,0,0,0,0,0,0,0,0,0,0,0,
0,0,0,0,0,0,0,0,0,0,0,0,0,0,0,0,0,0,0,0,0,0,0,0,0,0,0,0,0,0,0,0,0,0,0,0,0,0,0,0,0,0,0,0,0,0,0,0,0,0,0,0,0,0,0,0,0,0,0,0,0,0,0,0,0,0,0,0,0,0,0,0,0,0,0,0,0,0,0,0,0,0,0,0,0,0,0,0,0,0,0,0,0,0,0,0,0,0,0,0,0,0,0,0,0,0,0,0,0,0,0,0,0,0,0,0,0,0,0,0,
0,0,0,0,0,0,0,0,0,0,0,0,0,0,0,0,0,0,0,0,0,0,0,0,0,0,0,0,0,0,0,0,0,0,0,0,0,0,0,0,0,0,0,0,0,0,0,0,0,0,0,0,0,0,0,0,0,0,0,0,0,0,0,0,0,0,0,0,0,0,0,0,0,0,0,0,0,0,0,0,0,0,0,0,0,0,0,0,0,0,0,0,0,0,0,0,0,0,0,0,0,0,0,0,0,0,0,0,0,0,0,0,0,0,0,0,0,0,0,0,
0,0,0,0,0,0,0,0,0,0,0,0,0,0,0,0,0,0,0,0,0,0,0,0,0,0,0,0,0,0,0,0,0,0,0,0,0,0,0,0,0,0,0,0,0,0,0,0,0,0,0,0,0,0,0,0,0,0,0,0,0,0,0,0,0,0,0,0,0,0,0,0,0,0,0,0,0,0,0,0,0,0,0,0,0,0,0,0,0,0,0,0,0,0,0,0,0,0,0,0,0,0,0,0,0,0,0,0,0,0,0,0,0,0,0,0,0,0,0,0,
0,0,0,0,0,0,0,0,0,0,0,0,0,0,0,0,0,0,0,0,0,0,0,0,0,0,0,0,0,0,0,0,0,0,0,0,0,0,0,0,0,0,0,0,0,0,0,0,0,0,0,0,0,0,0,0,0,0,0,0,0,0,0,0,0,0,0,0,0,0,0,0,0,0,0,0,0,0,0,0,0,0,0,0,0,0,0,0,0,0,0,0,0,0,0,0,0,0,0,0,0,0,0,0,0,0,0,0,0,0,0,0,0,0,0,0,0,0,0,0,
0,0,0,0,0,0,0,0,0,0,0,0,0,0,0,0,0,0,0,0,0,0,0,0,0,0,0,0,0,0,0,0,0,0,0,0,0,0,0,0,0,0,0,0,0,0,0,0,0,0,0,0,0,0,0,0,0,0,0,0,0,0,0,0,0,0,0,0,0,0,0,0,0,0,0,0,0,0,0,0,0,0,0,0,0,0,0,0,0,0,0,0,0,0,0,0,0,0,0,0,0,0,0,0,0,0,0,0,0,0,0,0,0,0,0,0,0,0,0,0,
0,0,0,0,0,0,0,0,0,0,0,0,0,0,0,0,0,0,0,0,0,0,0,0,0,0,0,0,0,0,0,0,0,0,0,0,0,0,0,0,0,0,0,0,0,0,0,0,0,0,0,0,0,0,0,0,0,0,0,0,0,0,0,0,0,0,0,0,0,0,0,0,0,0,0,0,0,0,0,0,0,0,0,0,0,0,0,0,0,0,0,0,0,0,0,0,0,0,0,0,0,0,0,0,0,0,0,0,0,0,0,0,0,0,0,0,0,0,0,0,
0,0,0,0,0,0,0,0,0,0,0,0,0,0,0,0,0,0,0,0,0,0,0,0,0,0,0,0,0,0,0,0,0,0,0,0,0,0,0,0,0,0,0,0,0,0,0,0,0,0,0,0,0,0,0,0,0,0,0,0,0,0,0,0,0,0,0,0,0,0,0,0,0,0,0,0,0,0,0,0,0,0,0,0,0,0,0,0,0,0,0,0,0,0,0,0,0,0,0,0,0,0,0,0,0,0,0,0,0,0,0,0,0,0,0,0,0,0,0,0,
0,0,0,0,0,0,0,0,0,0,0,0,0,0,0,0,0,0,0,0,0,0,6543,0,0,0,0,0,0,0,0,0,0,0,0,0,0,0,0,0,0,0,0,0,0,0,0,0,0,0,0,0,0,0,0,0,0,0,0,0,0,0,0,0,0,0,0,0,0,0,0,0,0,0,0,0,0,0,0,0,0,0,0,0,0,0,0,0,0,0,0,0,0,0,0,0,0,0,0,0,0,0,0,0,0,0,0,0,0,0,0,0,0,0,0,0,0,0,0,0,
0,0,0,0,0,0,0,0,0,0,0,0,0,0,0,0,0,0,0,0,0,0,0,0,0,0,0,0,0,0,0,0,0,0,0,0,0,0,0,0,0,0,0,0,0,0,0,0,0,0,0,0,0,0,0,0,0,0,0,0,0,0,0,0,0,0,0,0,0,0,0,0,0,0,0,0,0,0,0,0,0,0,0,0,0,0,0,0,0,0,0,0,0,0,0,0,0,0,0,0,0,0,0,0,0,0,0,0,0,0,0,0,0,0,0,0,0,0,0,0,
0,0,0,0,0,0,0,0,0,0,0,0,0,0,0,0,0,0,0,0,0,0,0,0,0,0,0,0,0,0,0,0,0,0,0,0,0,0,0,0,0,0,0,0,0,0,0,0,0,0,0,0,0,0,0,0,0,0,0,0,0,0,0,0,0,0,0,0,0,0,0,0,0,0,0,0,0,0,0,0,0,0,0,0,0,0,0,0,0,0,0,0,0,0,0,0,0,0,0,0,0,0,0,0,0,0,0,0,0,0,0,0,0,0,0,0,0,0,0,0,
0,0,0,0,0,0,0,0,0,0,0,0,0,0,0,0,0,0,0,0,0,0,0,0,0,0,0,0,0,0,0,0,0,0,0,0,0,0,0,0,0,0,0,0,0,0,0,0,0,0,0,0,0,0,0,0,0,0,0,0,0,0,0,0,0,0,0,0,0,0,0,0,0,0,0,0,0,0,0,0,0,0,0,0,0,0,0,0,0,0,0,0,0,0,0,0,0,0,0,0,0,0,0,0,0,0,0,0,0,0,0,0,0,0,0,0,0,0,0,0,
0,0,0,0,0,0,0,0,0,0,0,0,0,0,0,0,0,0,0,0,0,0,0,0,0,0,0,0,0,0,0,0,0,0,0,0,0,0,0,0,0,0,0,0,0,0,0,0,0,0,0,0,0,0,0,0,0,0,0,0,0,0,0,0,0,0,0,0,0,0,0,0,0,0,0,0,0,0,0,0,0,0,0,0,0,0,0,0,0,0,0,0,0,0,0,0,0,0,0,0,0,0,0,0,0,0,0,0,0,0,0,0,0,0,0,0,0,0,0,0,
0,0,0,0,0,0,0,0,0,0,0,0,0,0,0,0,0,0,0,0,0,0,0,0,0,0,0,0,0,0,0,0,0,0,0,0,0,0,0,0,0,0,0,0,0,0,0,0,0,0,0,0,0,0,0,0,0,0,0,0,0,0,0,0,0,0,0,0,0,0,0,0,0,0,0,0,0,0,0,0,0,0,0,0,0,0,0,0,0,0,0,0,0,0,0,0,0,0,0,0,0,0,0,0,0,0,0,0,0,0,0,0,0,0,0,0,0,0,0,0,
0,0,0,0,0,0,0,0,0,0,0,0,0,0,0,0,0,0,0,0,0,6543,0,0,0,0,0,0,0,0,0,0,0,0,0,0,0,0,0,0,0,0,0,0,0,0,0,0,0,0,0,0,0,0,0,0,0,0,0,0,0,0,0,0,0,0,0,0,0,0,0,0,0,0,0,0,0,0,0,0,0,0,0,0,0,0,0,0,0,0,0,0,0,0,0,0,0,0,0,0,0,0,0,0,0,0,0,0,0,0,0,0,0,0,0,0,0,0,0,0,
0,0,0,0,0,0,0,0,0,0,0,0,0,0,0,0,0,0,0,0,0,0,0,0,0,0,0,0,0,0,0,0,0,0,0,0,0,0,0,0,0,0,0,0,0,0,0,0,0,0,0,0,0,0,0,0,0,0,0,0,0,0,0,0,0,0,0,0,0,0,0,0,0,0,0,0,0,0,0,0,0,0,0,0,0,0,0,0,0,0,0,0,0,0,0,0,0,0,0,0,0,0,0,0,0,0,0,0,0,0,0,0,0,0,0,0,0,0,0,0,
0,0,0,0,0,0,0,0,0,0,0,0,0,0,0,0,0,0,0,0,0,0,0,0,0,0,0,0,0,0,0,0,0,0,0,0,0,0,0,0,0,0,0,0,0,0,0,0,0,0,0,0,0,0,0,0,0,0,0,0,0,0,0,0,0,0,0,0,0,0,0,0,0,0,0,0,0,0,0,0,0,0,0,0,0,0,0,0,0,0,0,0,0,0,0,0,0,0,0,0,0,0,0,0,0,0,0,0,0,0,0,0,0,0,0,0,0,0,0,0,
0,0,0,0,0,0,0,0,0,0,0,0,0,0,0,0,0,0,0,0,0,0,0,0,0,0,0,0,0,0,0,0,0,0,0,0,0,0,0,0,0,0,0,0,0,0,0,0,0,0,0,0,0,0,0,0,0,0,0,0,0,0,0,0,0,0,0,0,0,0,0,0,0,0,0,0,0,0,0,0,0,0,0,0,0,0,0,0,0,0,0,0,0,0,0,0,0,0,0,0,0,0,0,0,0,0,0,0,0,0,0,0,0,0,0,0,0,0,0,0,
0,0,0,0,0,0,0,0,0,0,0,0,0,0,0,0,0,0,0,0,0,0,0,0,0,0,0,0,0,0,0,0,0,0,0,0,0,0,0,0,0,0,0,0,0,0,0,0,0,0,0,0,0,0,0,0,0,0,0,0,0,0,0,0,0,0,0,0,0,0,0,0,0,0,0,0,0,0,0,0,0,0,0,0,0,0,0,0,0,0,0,0,0,0,0,0,0,0,0,0,0,0,0,0,0,0,0,0,0,0,0,0,0,0,0,0,0,0,0,0,
0,0,0,0,0,0,0,0,0,0,0,0,0,0,0,0,0,0,0,0,0,0,0,0,0,0,0,0,0,0,0,0,0,0,0,0,0,0,0,0,0,0,0,0,0,0,0,0,0,0,0,0,0,0,0,0,0,0,0,0,0,0,0,0,0,0,0,0,0,0,0,0,0,0,0,0,0,0,0,0,0,0,0,0,0,0,0,0,0,0,0,0,0,0,0,0,0,0,0,0,0,0,0,0,0,0,0,0,0,0,0,0,0,0,0,0,0,0,0,0,
0,0,0,0,0,0,0,0,0,0,0,0,0,0,0,0,0,0,0,0,0,0,0,0,0,0,0,0,0,0,0,0,0,0,0,0,0,0,0,0,0,0,0,0,0,0,0,0,0,0,0,0,0,0,0,0,0,0,0,0,0,0,0,0,0,0,0,0,0,0,0,0,0,0,0,0,0,0,0,0,0,0,0,0,0,0,0,0,0,0,0,0,0,0,0,0,0,0,0,0,0,0,0,0,0,0,0,0,0,0,0,0,0,0,0,0,0,0,0,0,
0,0,0,0,0,0,0,0,0,0,0,0,0,0,0,0,0,0,0,0,0,0,0,0,0,0,0,0,0,0,0,0,0,0,0,0,0,0,0,0,0,0,0,0,0,0,0,0,0,0,0,0,0,0,0,0,0,0,0,0,0,0,0,0,0,0,0,0,0,0,0,0,0,0,0,0,0,0,0,0,0,0,0,0,0,0,0,0,0,0,0,0,0,0,0,0,0,0,0,0,0,0,0,0,0,0,0,0,0,0,0,0,0,0,0,0,0,0,0,0,
0,0,0,0,0,0,0,0,0,0,0,0,0,0,0,0,0,0,0,0,0,0,0,0,0,0,0,0,0,0,0,0,0,0,0,0,0,0,0,0,0,0,0,0,0,0,0,0,0,0,0,0,0,0,0,0,0,0,0,0,0,0,0,0,0,0,0,0,0,0,0,0,0,0,0,0,0,0,0,0,0,0,0,0,0,0,0,0,0,0,0,0,0,0,0,0,0,0,0,0,0,0,0,0,0,0,0,0,0,0,0,0,0,0,0,0,0,0,0,0,
0,0,0,0,0,0,0,0,0,0,0,0,0,0,0,0,0,0,0,0,0,0,0,0,0,0,0,0,0,0,0,0,0,0,0,0,0,0,0,0,0,0,0,0,0,0,0,0,0,0,0,0,0,0,0,0,0,0,0,0,0,0,0,0,0,0,0,0,0,0,0,0,0,0,0,0,0,0,0,0,0,0,0,0,0,0,0,0,0,0,0,0,0,0,0,0,0,0,0,0,0,0,0,0,0,0,0,0,0,0,0,0,0,0,0,0,0,0,0,0,
0,0,0,0,0,0,0,0,0,0,0,0,0,0,0,0,0,0,0,0,0,0,0,0,0,0,0,0,0,0,0,0,0,0,0,0,0,0,0,0,0,0,0,0,0,0,0,0,0,0,0,0,0,0,0,0,0,0,0,0,0,0,0,0,0,0,0,0,0,0,0,0,0,0,0,0,0,0,0,0,0,0,0,0,0,0,0,0,0,0,0,0,0,0,0,0,0,0,0,0,0,0,0,0,0,0,0,0,0,0,0,0,0,0,0,0,0,0,0,0,
0,0,0,0,0,0,0,0,0,0,0,0,0,0,0,0,0,0,0,0,0,0,0,0,0,0,0,0,0,0,0,0,0,0,0,0,0,0,0,0,0,0,0,0,0,0,0,0,0,0,0,0,0,0,0,0,0,0,0,0,0,0,0,0,0,0,0,0,0,0,0,0,0,0,0,0,0,0,0,0,0,0,0,0,0,0,0,0,0,0,0,0,0,0,0,0,0,0,0,0,0,0,0,0,0,0,0,0,0,0,0,0,0,0,0,0,0,0,0,0,
0,0,0,0,0,0,0,0,0,0,0,0,0,0,0,0,0,0,0,0,0,0,0,0,0,0,0,0,0,0,0,0,0,0,0,0,0,0,0,0,0,0,0,0,0,0,0,0,0,0,0,0,0,0,0,0,0,0,0,0,0,0,0,0,0,0,0,0,0,0,0,0,0,0,0,0,0,0,0,0,0,0,0,0,0,0,0,0,0,0,0,0,0,0,0,0,0,0,0,0,0,0,0,0,0,0,0,0,0,0,0,0,0,0,0,0,0,0,0,0,
0,0,0,0,0,0,0,0,0,0,0,0,0,0,0,0,0,0,0,0,0,0,0,0,0,0,0,0,0,0,0,0,0,0,0,0,0,0,0,0,0,0,0,0,0,0,0,0,0,0,0,0,0,0,0,0,0,0,0,0,0,0,0,0,0,0,0,0,0,0,0,0,0,0,0,0,0,0,0,0,0,0,0,0,0,0,0,0,0,0,0,0,0,0,0,0,0,0,0,0,0,0,0,0,0,0,0,0,0,0,0,0,0,0,0,0,0,0,0,0,
0,0,0,0,0,0,0,0,0,0,0,0,0,0,0,0,0,0,0,0,0,0,0,0,0,0,0,0,0,0,0,0,0,0,0,0,0,0,0,0,0,0,0,0,0,0,0,0,0,0,0,0,0,0,0,0,0,0,0,0,0,0,0,0,0,0,0,0,0,0,0,0,0,0,0,0,0,0,0,0,0,0,0,0,0,0,0,0,0,0,0,0,0,0,0,0,0,0,0,0,0,0,0,0,0,0,0,0,0,0,0,0,0,0,0,0,0,0,0,0,
0,0,0,0,0,0,0,0,0,0,0,0,0,0,0,0,0,0,0,0,0,0,0,0,0,0,0,0,0,0,0,0,0,0,0,0,0,0,0,0,0,0,0,0,0,0,0,0,0,0,0,0,0,0,0,0,0,0,0,0,0,0,0,0,0,0,0,0,0,0,0,0,0,0,0,0,0,0,0,0,0,0,0,0,0,0,0,0,0,0,0,0,0,0,0,0,0,0,0,0,0,0,0,0,0,0,0,0,0,0,0,0,0,0,0,0,0,0,0,0,
0,0,0,0,0,0,0,0,0,0,0,0,0,0,0,0,0,0,0,0,0,0,0,0,0,0,0,0,0,0,0,0,0,0,0,0,0,0,0,0,0,0,0,0,0,0,0,0,0,0,0,0,0,0,0,0,0,0,0,0,0,0,0,0,0,0,0,0,0,0,0,0,0,0,0,0,0,0,0,0,0,0,0,0,0,0,0,0,0,0,0,0,0,0,0,0,0,0,0,0,0,0,0,0,0,0,0,0,0,0,0,0,0,0,0,0,0,0,0,0,
0,0,0,0,0,0,0,0,0,0,0,0,0,0,0,0,0,0,0,0,0,0,0,0,0,0,0,0,0,4777,4815,0,0,0,0,0,0,0,0,0,0,0,0,0,0,0,0,0,0,0,0,0,0,0,0,0,0,0,0,0,0,0,0,0,0,0,0,0,0,0,0,0,0,0,0,0,0,0,0,0,0,0,0,0,0,0,0,0,0,0,0,0,0,0,0,0,0,0,0,0,0,0,0,0,0,0,0,0,0,0,0,0,0,0,0,0,0,0,0,0,
0,0,0,0,0,0,0,0,0,0,0,0,0,0,0,0,0,0,0,0,0,0,0,0,0,0,0,0,0,4796,4767,0,0,0,0,0,0,0,0,0,0,0,0,0,0,0,0,0,0,0,0,0,0,0,0,0,0,0,0,0,0,0,0,0,0,0,0,0,0,0,0,0,0,0,0,0,0,0,0,0,0,0,0,0,0,0,0,0,0,0,0,0,0,0,0,0,0,0,0,0,0,0,0,0,0,0,0,0,0,0,0,0,0,0,0,0,0,0,0,0,
0,0,0,0,0,0,0,0,0,0,0,0,0,0,0,0,0,0,0,0,0,0,0,0,0,0,0,0,0,4796,0,0,0,0,0,0,0,0,0,0,0,0,0,0,0,0,0,0,0,0,0,0,0,0,0,0,0,0,0,0,0,0,0,0,0,0,0,0,0,0,0,0,0,0,0,0,0,0,0,0,0,0,0,0,0,0,0,0,0,0,0,0,0,0,0,0,0,0,0,0,0,0,0,0,0,0,0,0,0,0,0,0,0,0,0,0,0,0,0,0,
0,0,0,0,0,0,0,0,0,0,0,0,0,0,0,0,0,0,0,0,0,0,0,0,0,0,0,0,0,4758,4814,4814,4814,4814,4814,4814,4798,0,0,0,0,0,0,0,0,0,0,0,0,0,0,0,0,0,0,0,0,0,0,0,0,0,0,0,0,0,0,0,0,0,0,0,0,0,0,0,0,0,0,0,0,0,0,0,0,0,0,0,0,0,0,0,0,0,0,0,0,0,0,0,0,0,0,0,0,0,0,0,0,0,0,0,0,0,0,0,0,0,0,0,
0,0,0,0,0,0,0,0,0,0,0,0,0,0,0,0,0,0,0,0,0,0,0,0,0,0,0,0,0,0,0,0,0,0,0,0,0,0,0,0,0,0,0,0,0,0,0,0,0,0,0,0,0,0,0,0,0,0,0,0,0,0,0,0,0,0,0,0,0,0,0,0,0,0,0,0,0,0,0,0,0,0,0,0,0,0,0,0,0,0,0,0,0,0,0,0,0,0,0,0,0,0,0,0,0,0,0,0,0,0,0,0,0,0,0,0,0,0,0,0,
0,0,0,0,0,0,0,0,0,0,0,0,0,0,0,0,0,0,0,0,0,0,0,0,0,0,0,0,0,0,0,0,0,0,0,0,0,0,0,0,0,0,0,0,0,0,0,0,0,0,0,0,0,0,0,0,0,0,0,0,0,0,0,0,0,0,0,0,0,0,0,0,0,0,0,0,0,0,0,0,0,0,0,0,0,0,0,0,0,0,0,0,0,0,0,0,0,0,0,0,0,0,0,0,0,0,0,0,0,0,0,0,0,0,0,0,0,0,0,0,
0,0,0,0,0,0,0,0,0,0,0,0,0,0,0,0,0,0,0,0,0,0,0,0,0,0,0,0,0,0,0,0,0,0,0,0,0,0,0,0,0,0,0,0,0,0,0,0,0,0,0,0,0,0,0,0,0,0,0,0,6885,0,0,0,0,0,0,0,6860,0,0,0,0,0,0,0,0,0,0,0,0,0,0,0,0,0,0,0,0,0,0,0,0,0,0,0,0,0,0,0,0,0,0,0,0,0,0,0,0,0,0,0,0,0,0,0,0,0,0,0,
0,0,0,0,0,0,0,0,0,0,0,0,0,0,0,0,0,0,0,0,0,0,0,0,0,0,0,0,0,0,0,0,0,0,0,0,0,0,0,0,0,0,0,0,0,0,0,0,0,0,0,0,0,0,0,0,0,0,0,0,6910,0,0,0,0,2632,0,0,6885,0,0,0,0,0,0,0,0,0,0,0,0,0,0,0,0,0,0,0,0,0,0,0,0,0,0,0,0,0,0,0,0,0,0,0,0,0,0,0,0,0,0,0,0,0,0,0,0,0,0,0,
0,0,0,0,0,0,0,0,0,0,0,0,0,0,0,0,0,0,0,0,0,0,0,0,0,0,0,0,0,0,0,0,0,0,0,0,0,0,0,0,0,0,0,0,0,0,0,0,0,0,0,0,0,0,0,0,0,0,0,0,0,0,0,0,0,0,0,0,6910,0,0,0,0,0,0,0,0,0,0,0,0,0,0,0,0,0,0,0,0,0,0,0,0,0,0,0,0,0,0,0,0,0,0,0,0,0,0,0,0,0,0,0,0,0,0,0,0,0,0,0,
0,0,0,0,0,0,0,0,0,0,0,0,0,0,0,0,0,0,0,0,0,0,0,0,0,0,0,0,0,0,0,0,0,0,0,0,0,0,0,0,0,0,0,0,0,0,0,0,0,0,6910,0,0,0,0,0,0,0,0,0,0,0,0,0,0,0,0,0,0,0,0,0,0,0,0,0,0,0,0,0,0,0,0,0,0,0,0,0,0,0,0,0,0,0,0,0,0,0,0,0,0,0,0,0,0,0,0,0,0,0,0,0,0,0,0,0,0,0,0,0,
0,0,0,0,0,0,0,0,0,0,0,0,0,0,0,0,0,0,0,0,0,0,0,0,0,0,0,0,0,0,0,0,0,0,0,0,0,0,0,0,0,0,0,0,0,0,0,6784,0,0,0,0,0,0,0,0,0,0,0,0,0,0,0,0,0,0,0,0,0,0,0,2134,0,0,0,0,0,0,0,0,0,0,0,0,0,0,0,0,0,0,0,0,0,0,0,0,0,0,0,0,0,0,0,0,0,0,0,0,0,0,0,0,0,0,0,0,0,0,0,0,
0,0,0,0,0,0,0,0,0,0,0,0,0,0,0,0,0,0,0,0,0,0,0,0,0,0,0,0,0,0,0,0,0,0,0,0,0,0,0,0,0,0,0,0,0,0,0,0,0,0,0,0,0,0,0,0,0,0,0,0,0,0,0,0,0,0,0,0,0,0,0,2139,0,0,0,0,0,0,0,0,0,0,0,0,0,0,0,0,0,0,0,0,0,0,0,0,0,0,0,0,0,0,0,0,0,0,0,0,0,0,0,0,0,0,0,0,0,0,0,0,
0,0,0,0,0,0,0,0,0,0,0,0,0,0,0,0,0,0,0,0,0,0,0,0,0,0,0,0,0,0,0,0,0,0,0,0,0,0,0,0,0,0,0,0,0,0,0,0,0,0,0,0,0,0,0,0,0,0,0,0,0,0,0,0,0,0,0,0,0,0,0,2134,0,0,0,0,0,0,0,0,0,0,0,0,0,0,0,0,0,0,0,0,0,0,0,0,0,0,0,0,0,0,0,0,0,0,0,0,0,0,0,0,0,0,0,0,0,0,0,0,
0,0,0,0,0,0,0,0,0,0,0,0,0,0,0,0,0,0,0,0,0,0,0,0,0,0,0,0,0,0,0,0,0,0,0,0,0,0,0,0,0,0,0,0,0,0,0,0,0,0,0,0,0,0,0,0,0,0,0,0,0,0,0,0,0,0,0,0,0,0,0,6886,0,0,0,0,0,0,0,0,0,0,0,0,0,0,0,0,0,0,0,0,0,0,0,0,0,0,0,0,0,0,0,0,0,0,0,0,0,0,0,0,0,0,0,0,0,0,0,0,
0,0,0,0,0,0,0,0,0,0,0,0,0,0,0,0,0,0,0,0,0,0,0,0,0,0,0,0,0,0,0,0,0,0,0,0,0,0,0,0,0,0,0,0,0,0,0,6910,0,0,0,0,0,0,0,0,0,0,0,0,6860,0,0,0,0,0,0,0,0,0,0,6911,0,0,0,0,0,0,0,0,0,0,0,0,0,0,0,0,0,0,0,0,0,0,0,0,0,0,0,0,0,0,0,0,0,0,0,0,0,0,0,0,0,0,0,0,0,0,0,0,
0,0,0,0,0,0,0,0,0,0,0,0,0,0,0,0,0,0,0,0,0,0,0,0,0,0,0,0,0,0,0,0,0,0,0,0,0,0,0,0,0,0,0,0,0,0,0,0,0,0,0,0,0,0,0,0,0,0,0,0,6885,0,0,0,0,0,0,0,0,0,0,0,0,0,0,0,0,0,0,0,0,0,0,0,0,0,0,0,0,0,0,0,0,0,0,0,0,0,0,0,0,0,0,0,0,0,0,0,0,0,0,0,0,0,0,0,0,0,0,0,
0,0,0,0,0,0,0,0,0,0,0,0,0,0,0,0,0,0,0,0,0,0,0,0,0,0,0,0,0,0,0,0,0,0,0,0,0,0,0,0,0,0,0,0,0,0,0,0,0,0,0,0,0,0,0,0,0,0,0,0,6910,0,0,0,0,0,0,0,0,0,0,0,0,0,0,0,0,0,0,0,0,0,0,0,0,0,0,0,0,0,0,0,0,0,0,0,0,0,0,0,0,0,0,0,0,0,0,0,0,0,0,0,0,0,0,0,0,0,0,0,
0,0,0,0,0,0,0,0,0,0,0,0,0,0,0,0,0,0,0,0,0,0,0,0,0,0,0,0,0,0,0,0,0,0,0,0,0,0,0,0,0,0,0,0,0,0,0,0,0,0,0,0,0,0,0,0,0,0,0,0,0,0,0,0,0,0,0,0,0,0,0,0,0,0,0,0,0,0,0,0,0,0,0,0,0,0,0,0,0,0,0,0,0,0,0,0,0,0,0,0,0,0,0,0,0,0,0,0,0,0,0,0,0,0,0,0,0,0,0,0,
0,0,0,0,0,0,0,0,0,0,0,0,0,0,0,0,0,0,0,0,0,0,0,0,0,0,0,0,0,0,0,0,0,0,0,0,0,0,0,0,0,0,0,0,0,0,0,0,0,0,0,0,0,0,0,0,0,0,0,0,0,0,0,0,0,0,0,0,0,0,0,0,0,0,0,0,0,0,0,0,0,0,0,0,0,0,0,0,0,0,0,0,0,0,0,0,0,0,0,0,0,0,0,0,0,0,0,0,0,0,0,0,0,0,0,0,0,0,0,0,
0,0,0,0,0,0,0,0,0,0,0,0,0,0,0,0,0,0,0,0,0,0,0,0,0,0,0,0,0,0,0,0,0,0,0,0,0,0,0,0,0,0,0,0,0,0,0,0,0,0,0,0,0,0,0,0,0,0,0,0,0,0,0,0,0,0,0,0,0,0,0,0,0,0,0,0,0,0,0,0,0,0,0,0,0,0,0,0,0,0,0,0,0,0,0,0,0,0,0,0,0,0,0,0,0,0,0,0,0,0,0,0,0,0,0,0,0,0,0,0,
0,0,0,0,0,0,0,0,0,0,0,0,0,0,0,0,0,0,0,0,0,0,0,0,0,0,0,0,0,0,0,0,0,0,0,0,0,0,0,0,0,0,0,0,0,0,0,0,0,0,0,0,0,0,0,0,0,0,0,0,0,0,0,0,0,0,0,0,0,0,0,0,0,0,0,0,0,0,0,0,0,0,0,0,0,0,0,0,0,0,0,0,0,0,0,0,0,0,0,0,0,0,0,0,0,0,0,0,0,0,0,0,0,0,0,0,0,0,0,0,
0,0,0,0,0,0,0,0,0,0,0,0,0,0,0,0,0,0,0,0,0,0,0,0,0,0,0,0,0,0,0,0,0,0,0,0,0,0,0,0,0,0,0,0,0,0,0,0,0,0,0,0,0,0,0,0,0,0,0,0,0,0,0,0,0,0,0,0,0,0,0,0,0,0,0,0,0,0,0,0,0,0,0,0,0,0,0,0,0,0,0,0,0,0,0,0,0,0,0,0,0,0,0,0,0,0,0,0,0,0,0,0,0,0,0,0,0,0,0,0,
0,0,0,0,0,0,0,0,0,0,0,0,0,0,0,0,0,0,0,0,0,0,0,0,0,0,0,0,0,0,0,0,0,0,0,0,0,0,0,0,0,0,0,0,0,0,0,0,0,0,0,0,0,0,0,0,0,0,0,0,0,0,0,0,0,0,0,0,0,0,0,0,0,0,0,0,0,0,0,0,0,0,0,0,0,0,0,0,0,0,0,0,0,0,0,0,0,0,0,0,0,0,0,0,0,0,0,0,0,0,0,0,0,0,0,0,0,0,0,0,
0,0,0,0,0,0,0,0,0,0,0,0,0,0,0,0,0,0,0,0,0,0,0,0,0,0,0,0,0,0,0,0,0,0,0,0,0,0,0,0,0,0,0,0,0,0,0,0,0,0,0,0,0,0,0,0,0,0,0,0,0,0,0,0,0,0,0,0,0,0,0,0,0,0,0,0,0,0,0,0,0,0,0,0,0,0,0,0,0,0,0,0,0,0,0,0,0,0,0,0,0,0,0,0,0,0,0,0,0,0,0,0,0,0,0,0,0,0,0,0,
0,0,0,0,0,0,0,0,0,0,0,0,0,0,0,0,0,0,0,0,0,0,0,0,0,0,0,0,0,0,0,0,0,0,0,0,0,0,0,0,0,0,0,0,0,0,0,0,0,0,0,0,0,0,0,0,0,0,0,0,0,0,0,0,0,0,0,0,0,0,0,0,0,0,0,0,0,0,0,0,0,0,0,0,0,0,0,0,0,0,0,0,0,0,0,0,0,0,0,0,0,0,0,0,0,0,0,0,0,0,0,0,0,0,0,0,0,0,0,0,
0,0,0,0,0,0,0,0,0,0,0,0,0,0,0,0,0,0,0,0,0,0,0,0,0,0,0,0,0,0,0,0,0,0,0,0,0,0,0,0,0,0,0,0,0,0,0,0,0,0,0,0,0,0,0,0,0,0,0,0,0,0,0,0,0,0,0,0,0,0,0,0,0,0,0,0,0,0,0,0,0,0,0,0,0,0,0,0,0,0,0,0,0,0,0,0,0,0,0,0,0,0,0,0,0,0,0,0,0,0,0,0,0,0,0,0,0,0,0,0,
0,0,0,0,0,0,0,0,0,0,0,0,0,0,0,0,0,0,0,0,0,0,0,0,0,0,0,0,0,0,0,0,0,0,0,0,0,0,0,0,0,0,0,0,0,0,0,0,0,0,0,0,0,0,0,0,0,0,0,0,0,0,0,0,0,0,0,0,0,0,0,0,0,0,0,0,0,0,0,0,0,0,0,0,0,0,0,0,0,0,0,0,0,0,0,0,0,0,0,0,0,0,0,0,0,0,0,0,0,0,0,0,0,0,0,0,0,0,0,0
</data>
 </layer>
 <layer id="3" name="Back3" width="120" height="120">
  <properties>
   <property name="Draw" value="Back"/>
  </properties>
  <data encoding="csv">
0,0,0,0,0,0,0,0,0,0,0,0,0,0,0,0,0,0,0,0,0,0,0,0,0,0,0,0,0,0,0,0,0,0,0,0,0,0,0,0,0,0,0,0,0,0,0,0,0,0,0,0,0,0,0,0,0,0,0,0,0,0,0,0,0,0,0,0,0,0,0,0,0,0,0,0,0,0,0,0,0,0,0,0,0,0,0,0,0,0,0,0,0,0,0,0,0,0,0,0,0,0,0,0,0,0,0,0,0,0,0,0,0,0,0,0,0,0,0,0,
0,0,0,0,0,0,0,0,0,0,0,0,0,0,0,0,0,0,0,0,0,0,0,0,0,0,0,0,0,0,0,0,0,0,0,0,0,0,0,0,0,0,0,0,0,0,0,0,0,0,0,0,0,0,0,0,0,0,0,0,0,0,0,0,0,0,0,0,0,0,0,0,0,0,0,0,0,0,0,0,0,0,0,0,0,0,0,0,0,0,0,0,0,0,0,0,0,0,0,0,0,0,0,0,0,0,0,0,0,0,0,0,0,0,0,0,0,0,0,0,
0,0,0,0,0,0,0,0,0,0,0,0,0,0,0,0,0,0,0,0,0,0,0,0,0,0,0,0,0,0,0,0,0,0,0,0,0,0,0,0,0,0,0,0,0,0,0,0,0,0,0,0,0,0,0,0,0,0,0,0,0,0,0,0,0,0,0,0,0,0,0,0,0,0,0,0,0,0,0,0,0,0,0,0,0,0,0,0,0,0,0,0,0,0,0,0,0,0,0,0,0,0,0,0,0,0,0,0,0,0,0,0,0,0,0,0,0,0,0,0,
0,0,0,0,0,0,0,0,0,0,0,0,0,0,0,0,0,0,0,0,0,0,0,0,0,0,0,0,0,0,0,0,0,0,0,0,0,0,0,0,0,0,0,0,0,0,0,0,0,0,0,0,0,0,0,0,0,0,0,0,0,0,0,0,0,0,0,0,0,0,0,0,0,0,0,0,0,0,0,0,0,0,0,0,0,0,0,0,0,0,0,0,0,0,0,0,0,0,0,0,0,0,0,0,0,0,0,0,0,0,0,0,0,0,0,0,0,0,0,0,
0,0,0,0,0,0,0,0,0,0,0,0,0,0,0,0,0,0,0,0,0,0,0,0,0,0,0,0,0,0,0,0,0,0,0,0,0,0,0,0,0,0,0,0,0,0,0,0,0,0,0,0,0,0,0,0,0,0,0,0,0,0,0,0,0,0,0,0,0,0,0,0,0,0,0,0,0,0,0,0,0,0,0,0,0,0,0,0,0,0,0,0,0,0,0,0,0,0,0,0,0,0,0,0,0,0,0,0,0,0,0,0,0,0,0,0,0,0,0,0,
0,0,0,0,0,0,0,0,0,0,0,0,0,0,0,0,0,0,0,0,0,0,0,0,0,0,0,0,0,0,0,0,0,0,0,0,0,0,0,0,0,0,0,0,0,0,0,0,0,0,0,0,0,0,0,0,0,0,0,0,0,0,0,0,0,0,0,0,0,0,0,0,0,0,0,0,0,0,0,0,0,0,0,0,0,0,0,0,0,0,0,0,0,0,0,0,0,0,0,0,0,0,0,0,0,0,0,0,0,0,0,0,0,0,0,0,0,0,0,0,
0,0,0,0,0,0,0,0,0,0,0,0,0,0,0,0,0,0,0,0,0,0,0,0,0,0,0,0,0,0,0,0,0,0,0,0,0,0,0,0,0,0,0,0,0,0,0,0,0,0,0,0,0,0,0,0,0,0,0,0,0,0,0,0,0,0,0,0,0,0,0,0,0,0,0,0,0,0,0,0,0,0,0,0,0,0,0,0,0,0,0,0,0,0,0,0,0,0,0,0,0,0,0,0,0,0,0,0,0,0,0,0,0,0,0,0,0,0,0,0,
0,0,0,0,0,0,0,0,0,0,0,0,0,0,0,0,0,0,0,0,0,0,0,0,0,0,0,0,0,0,0,0,0,0,0,0,0,0,0,0,0,0,0,0,0,0,0,0,0,0,0,0,0,0,0,0,0,0,0,0,0,0,0,0,0,0,0,0,0,0,0,0,0,0,0,0,0,0,0,0,0,0,0,0,0,0,0,0,0,0,0,0,0,0,0,0,0,0,0,0,0,0,0,0,0,0,0,0,0,0,0,0,0,0,0,0,0,0,0,0,
0,0,0,0,0,0,0,0,0,0,0,0,0,0,0,0,0,0,0,0,0,0,0,0,0,0,0,0,0,0,0,0,0,0,0,0,0,0,0,0,0,0,0,0,0,0,0,0,0,0,0,0,0,0,0,0,0,0,0,0,0,0,0,0,0,0,0,0,0,0,0,0,0,0,0,0,0,0,0,0,0,0,0,0,0,0,0,0,0,0,0,0,0,0,0,0,0,0,0,0,0,0,0,0,0,0,0,0,0,0,0,0,0,0,0,0,0,0,0,0,
0,0,0,0,0,0,0,0,0,0,0,0,0,0,0,0,0,0,0,0,0,0,0,0,0,0,0,0,0,0,0,0,0,0,0,0,0,0,0,0,0,0,0,0,0,0,0,0,0,0,0,0,0,0,0,0,0,0,0,0,0,0,0,0,0,0,0,0,0,0,0,0,0,0,0,0,0,0,0,0,0,0,0,0,0,0,0,0,0,0,0,0,0,0,0,0,0,0,0,0,0,0,0,0,0,0,0,0,0,0,0,0,0,0,0,0,0,0,0,0,
0,0,0,0,0,0,0,0,0,0,0,0,0,0,0,0,0,0,0,0,0,0,0,0,0,0,0,0,0,0,0,0,0,0,0,0,0,0,0,0,0,0,0,0,0,0,0,0,0,0,0,0,0,0,0,0,0,0,0,0,0,0,0,0,0,0,0,0,0,0,0,0,0,0,0,0,0,0,0,0,0,0,0,0,0,0,0,0,0,0,0,0,0,0,0,0,0,0,0,0,0,0,0,0,0,0,0,0,0,0,0,0,0,0,0,0,0,0,0,0,
0,0,0,0,0,0,0,0,0,0,0,0,0,0,0,0,0,0,0,0,0,0,0,0,0,0,0,0,0,0,0,0,0,0,0,0,0,0,0,0,0,0,0,0,0,0,0,0,0,0,0,0,0,0,0,0,0,0,0,0,0,0,0,0,0,0,0,0,0,0,0,0,0,0,0,0,0,0,0,0,0,0,0,0,0,0,0,0,0,0,0,0,0,0,0,0,0,0,0,0,0,0,0,0,0,0,0,0,0,0,0,0,0,0,0,0,0,0,0,0,
0,0,0,0,0,0,0,0,0,0,0,0,0,0,0,0,0,0,0,0,0,0,0,0,0,0,0,0,0,0,0,0,0,0,0,0,0,0,0,0,0,0,0,0,0,0,0,0,0,0,0,0,0,0,0,0,0,0,0,0,0,0,0,0,0,0,0,0,0,0,0,0,0,0,0,0,0,0,0,0,0,0,0,0,0,0,0,0,0,0,0,0,0,0,0,0,0,0,0,0,0,0,0,0,0,0,0,0,0,0,0,0,0,0,0,0,0,0,0,0,
0,0,0,0,0,0,0,0,0,0,0,0,0,0,0,0,0,0,0,0,0,0,0,0,0,0,0,0,0,0,0,0,0,0,0,0,0,0,0,0,0,0,0,0,0,0,0,0,0,0,0,0,0,0,0,0,0,0,0,0,0,0,0,0,0,0,0,0,0,0,0,0,0,0,0,0,0,0,0,0,0,0,0,0,0,0,0,0,0,0,0,0,0,0,0,0,0,0,0,0,0,0,0,0,0,0,0,0,0,0,0,0,0,0,0,0,0,0,0,0,
0,0,0,0,0,0,0,0,0,0,0,0,0,0,0,0,0,0,0,0,0,0,0,0,0,0,0,0,0,0,0,0,0,0,0,0,0,0,0,0,0,0,0,0,0,0,0,0,0,0,0,0,0,0,0,0,0,0,0,0,0,0,0,0,0,0,0,0,0,0,0,0,0,0,0,0,0,0,0,0,0,0,0,0,0,0,0,0,0,0,0,0,0,0,0,0,0,0,0,0,0,0,0,0,0,0,0,0,0,0,0,0,0,0,0,0,0,0,0,0,
0,0,0,0,0,0,0,0,0,0,0,0,0,0,0,0,0,0,0,0,0,0,0,0,0,0,0,0,0,0,0,0,0,0,0,0,0,0,0,0,0,0,0,0,0,0,0,0,0,0,0,0,0,0,0,0,0,0,0,0,0,0,0,0,0,0,0,0,0,0,0,0,0,0,0,0,0,0,0,0,0,0,0,0,0,4761,4761,4761,4761,4761,4761,4761,4761,0,0,0,0,0,0,0,0,0,0,0,0,0,0,0,0,0,0,0,0,0,0,0,0,0,0,0,
0,0,0,0,0,0,0,0,0,0,0,0,0,0,0,0,0,0,0,0,0,0,0,0,0,0,0,0,0,0,0,0,0,0,0,0,0,0,0,0,0,0,0,0,0,0,0,0,0,0,0,0,0,0,0,0,0,0,0,0,0,0,0,0,0,0,0,0,0,0,0,0,0,0,0,0,0,0,0,0,0,0,0,0,0,0,0,0,0,0,0,0,4762,4762,4762,4762,0,0,0,4784,4762,4762,4762,0,0,0,0,0,0,0,0,0,0,0,0,0,0,0,0,0,
0,0,0,0,0,0,0,0,0,0,0,0,0,0,0,0,0,0,0,0,0,0,0,0,0,0,0,0,0,0,0,0,0,0,0,0,0,0,0,0,0,0,0,0,0,0,0,0,0,0,0,0,0,0,0,0,0,0,0,0,0,0,0,0,0,0,0,0,0,0,0,0,0,0,0,0,0,0,0,0,0,0,0,0,0,0,0,0,0,0,0,0,0,0,0,0,0,0,0,0,0,0,0,0,0,0,0,0,0,0,0,0,0,0,0,0,0,0,0,0,
0,0,0,0,0,0,0,0,0,0,0,0,0,0,0,0,0,0,0,0,0,0,0,0,0,0,0,0,0,0,0,0,0,0,0,0,0,0,0,0,0,0,0,0,0,0,0,0,0,0,0,0,0,0,0,0,0,0,0,0,0,0,0,0,0,0,0,0,0,0,0,0,0,0,0,0,0,0,0,0,0,0,0,0,0,0,0,0,0,0,0,0,0,0,0,0,0,0,0,0,0,0,0,0,0,0,0,0,0,0,0,0,0,0,0,0,0,0,0,0,
0,0,0,0,0,0,0,0,0,0,0,0,0,0,0,0,0,0,0,0,0,0,0,0,0,0,0,0,0,0,0,0,0,0,0,0,0,0,0,0,0,0,0,0,0,0,0,0,0,0,0,0,0,0,0,0,0,0,0,0,0,0,0,0,0,0,0,0,0,0,0,0,0,0,0,0,0,0,0,0,0,0,0,0,0,0,0,0,0,0,0,0,0,0,0,0,0,0,0,0,0,0,0,0,0,0,0,0,0,0,0,0,0,0,0,0,0,0,0,0,
0,0,0,0,0,0,0,0,0,0,0,0,0,0,0,0,0,0,0,0,0,0,0,0,0,0,0,0,0,0,0,0,0,0,0,0,0,0,0,0,0,0,0,0,0,0,0,0,0,0,0,0,0,0,0,0,0,0,0,0,0,0,0,0,0,0,0,0,0,0,0,0,0,0,0,0,0,0,0,0,0,0,0,0,0,0,0,0,0,0,0,0,0,0,0,0,0,0,0,0,0,0,0,0,0,0,0,0,0,0,0,0,0,0,0,0,0,0,0,0,
0,0,0,0,0,0,0,0,0,0,0,0,0,0,0,0,0,0,0,0,0,0,0,0,0,0,0,0,0,0,0,0,0,0,0,0,0,0,0,0,0,0,0,0,0,0,0,0,0,0,0,0,0,0,0,0,0,0,0,0,0,0,0,0,0,0,0,0,0,0,0,0,0,0,0,0,0,0,0,0,0,0,0,0,0,0,0,0,0,0,0,0,0,0,0,0,0,0,0,0,0,0,0,0,0,0,0,0,0,0,0,0,0,0,0,0,0,0,0,0,
0,0,0,0,0,0,0,0,0,0,0,0,0,0,0,0,0,0,0,0,0,0,0,0,0,0,0,0,0,0,0,0,0,0,0,0,0,0,0,0,0,0,0,0,0,0,0,0,0,0,0,0,0,0,0,0,0,0,0,0,0,0,0,0,0,0,0,0,0,0,0,0,0,0,0,0,0,0,0,0,0,0,0,0,0,0,0,0,0,0,0,0,0,0,0,0,0,0,0,0,0,0,0,0,0,0,0,0,0,0,0,0,0,0,0,0,0,0,0,0,
0,0,0,0,0,0,0,0,0,0,0,0,0,0,0,0,0,0,0,0,0,0,0,0,0,0,0,0,0,0,0,0,0,0,0,0,0,0,0,0,0,0,0,0,0,0,0,0,0,0,0,0,0,0,0,0,0,0,0,0,0,0,0,0,0,0,0,0,0,0,0,0,0,0,0,0,0,0,0,0,0,0,0,0,0,0,0,0,0,0,0,0,0,0,0,0,0,0,0,0,0,0,0,0,0,0,0,0,0,0,0,0,0,0,0,0,0,0,0,0,
0,0,0,0,0,0,0,0,0,0,0,0,0,0,0,0,0,0,0,0,0,0,0,0,0,0,0,0,0,0,0,0,0,0,0,0,0,0,0,0,0,0,0,0,0,0,0,0,0,0,0,0,0,0,0,0,0,0,0,0,0,0,0,0,0,0,0,0,0,0,0,0,0,0,0,0,0,0,0,0,0,0,0,0,0,0,0,0,0,0,0,0,0,0,0,0,0,0,0,0,0,0,0,0,0,0,0,0,0,0,0,0,0,0,0,0,0,0,0,0,
0,0,0,0,0,0,0,0,0,0,0,0,0,0,0,0,0,0,0,0,0,0,0,0,0,0,0,0,0,0,0,0,0,0,0,0,0,0,0,0,0,0,0,0,0,0,0,0,0,0,0,0,0,0,0,0,0,0,0,0,0,0,0,0,0,0,0,0,0,0,0,0,0,0,0,0,0,0,0,0,0,0,0,0,0,0,0,0,0,0,0,0,0,0,0,0,0,0,0,0,0,0,0,0,0,0,0,0,0,0,0,0,0,0,0,0,0,0,0,0,
0,0,0,0,0,0,0,0,0,0,0,0,0,0,0,0,0,0,0,0,0,0,0,0,0,0,0,0,0,0,0,0,0,0,0,0,0,0,0,0,0,0,0,0,0,0,0,0,0,0,0,0,0,0,0,0,0,0,0,0,0,0,0,0,0,0,0,0,0,0,0,0,0,0,0,0,0,0,0,0,0,0,0,0,0,0,0,0,0,0,0,0,0,0,0,0,0,0,0,0,0,0,0,0,0,0,0,0,0,0,0,0,0,0,0,0,0,0,0,0,
0,0,0,0,0,0,0,0,0,0,0,0,0,0,0,0,0,0,0,0,0,0,0,0,0,0,0,0,0,0,0,0,0,0,0,0,0,0,0,0,0,0,0,0,0,0,0,0,0,0,0,0,0,0,0,0,0,0,0,0,0,0,0,0,0,0,0,0,0,0,0,0,0,0,0,0,0,0,0,0,0,0,0,0,0,0,0,0,0,0,0,0,0,0,0,0,0,0,0,0,0,0,0,0,0,0,0,0,0,0,0,0,0,0,0,0,0,0,0,0,
0,0,0,0,0,0,0,0,0,0,0,0,0,0,0,0,0,0,0,0,0,0,0,0,0,0,0,0,0,0,0,0,0,0,0,0,0,0,0,0,0,0,0,0,0,0,0,0,0,0,0,0,0,0,0,0,0,0,0,0,0,0,0,0,0,0,0,0,0,0,0,0,0,0,0,0,0,0,0,0,0,0,0,0,0,0,0,0,0,0,0,0,0,0,0,0,0,0,0,0,0,0,0,0,0,0,0,0,0,0,0,0,0,0,0,0,0,0,0,0,
0,0,0,0,0,0,0,0,0,0,0,0,0,0,0,0,0,0,0,0,0,0,0,0,0,0,0,0,0,0,0,0,0,0,0,0,0,0,0,0,0,0,0,0,0,0,0,0,0,0,0,0,0,0,0,0,0,0,0,0,0,0,0,0,0,0,0,0,0,0,0,0,0,0,0,0,0,0,0,0,0,0,0,0,0,0,0,0,0,0,0,0,0,0,0,0,0,0,0,0,0,0,0,0,0,0,0,0,0,0,0,0,0,0,0,0,0,0,0,0,
0,0,0,0,0,0,0,0,0,0,0,0,0,0,0,0,0,0,0,0,0,0,0,0,0,0,0,0,0,0,0,0,0,0,0,0,0,0,0,0,0,0,0,0,0,0,0,0,0,0,0,0,0,0,0,0,0,0,0,0,0,0,0,0,0,0,0,0,0,0,0,0,0,0,0,0,0,0,0,0,0,0,0,0,0,0,0,0,0,0,0,0,0,0,0,0,0,0,0,0,0,0,0,0,0,0,0,0,0,0,0,0,0,0,0,0,0,0,0,0,
0,0,0,0,0,0,0,0,0,0,0,0,0,0,0,0,0,0,0,0,0,0,0,0,0,0,0,0,0,0,0,0,0,0,0,0,0,0,0,0,0,0,0,0,0,0,0,0,0,0,0,0,0,0,0,0,0,0,0,0,0,0,0,0,0,0,0,0,0,0,0,0,0,0,0,0,0,0,0,0,0,0,0,0,0,0,0,0,0,0,0,0,0,0,0,0,0,0,0,0,0,0,0,0,0,0,0,0,0,0,0,0,0,0,0,0,0,0,0,0,
0,0,0,0,0,0,0,0,0,0,0,0,0,0,0,0,0,0,0,0,0,0,0,0,0,0,0,0,0,0,0,0,0,0,0,0,0,0,0,0,0,0,0,0,0,0,0,0,0,0,0,0,0,0,0,0,0,0,0,0,0,0,0,0,0,0,0,0,0,0,0,0,0,0,0,0,0,0,0,0,0,0,0,0,0,0,0,0,0,0,0,0,0,0,0,0,0,0,0,0,0,0,0,0,0,0,0,0,0,0,0,0,0,0,0,0,0,0,0,0,
0,0,0,0,0,0,0,0,0,0,0,0,0,0,0,0,0,0,0,0,0,0,0,0,0,0,0,0,0,0,0,0,0,0,0,0,0,0,0,0,0,0,0,0,0,0,0,0,0,0,0,0,0,0,0,0,0,0,0,0,0,0,0,0,0,0,0,0,0,0,0,0,0,0,0,0,0,0,0,0,0,0,0,0,0,0,0,0,0,0,0,0,0,0,0,0,0,0,0,0,0,4785,4762,4762,4762,4762,4762,0,0,0,0,0,0,0,0,0,0,0,0,0,
0,0,0,0,0,0,0,0,0,0,0,0,0,0,0,0,0,0,0,0,0,0,0,0,0,0,0,0,0,0,0,0,0,0,0,0,0,0,0,0,0,0,0,0,0,0,0,0,0,0,0,0,0,0,0,0,0,0,0,0,0,0,0,0,0,0,0,0,0,0,0,0,0,0,0,0,0,0,0,0,0,0,0,0,0,0,0,0,0,0,0,0,0,0,0,0,0,0,0,0,0,0,0,0,0,0,4785,4762,4786,0,0,0,0,0,0,0,0,0,0,0,
0,0,0,0,0,0,0,0,0,0,0,0,0,0,0,0,0,0,0,0,0,0,0,0,0,0,0,0,0,0,0,0,0,0,0,0,0,0,0,0,0,0,0,0,0,0,0,0,0,0,0,0,0,0,0,0,0,0,0,0,0,0,0,0,0,0,0,0,0,0,0,0,0,0,0,0,0,0,0,0,0,0,0,0,0,0,0,0,0,0,0,0,0,0,0,0,0,0,0,0,0,0,0,0,0,0,0,0,0,0,0,0,0,0,0,0,0,0,0,0,
0,0,0,0,0,0,0,0,0,0,0,0,0,0,0,0,0,0,0,0,0,0,0,0,0,0,0,0,0,0,0,0,0,0,0,0,0,0,0,0,0,0,0,0,0,0,0,0,0,0,0,0,0,0,0,0,0,0,0,0,0,0,0,0,0,0,0,0,0,0,0,0,0,0,0,0,0,0,0,0,0,0,0,0,0,0,0,0,0,0,0,0,0,0,0,0,0,0,0,0,0,0,0,0,0,0,0,0,0,0,0,0,0,0,0,0,0,0,0,0,
0,0,0,0,0,0,0,0,0,0,0,0,0,0,0,0,0,0,0,0,0,0,0,0,0,0,0,0,0,0,0,0,0,0,0,0,0,0,0,0,0,0,0,0,0,0,0,0,0,0,0,0,0,0,0,0,0,0,0,0,0,0,0,0,0,0,0,0,0,0,0,0,0,0,0,0,0,0,0,0,0,0,0,0,0,0,0,0,0,0,0,0,0,0,0,0,0,0,0,0,0,0,0,0,0,0,0,0,0,0,0,0,0,0,0,0,0,0,0,0,
0,0,0,0,0,0,0,0,0,0,0,0,0,0,0,0,0,0,0,0,0,0,0,0,0,0,0,0,0,0,0,0,0,0,0,0,0,0,0,0,0,0,0,0,0,0,0,0,0,0,0,0,0,0,0,0,0,0,0,0,0,0,0,0,0,0,0,0,0,0,0,0,0,0,0,0,0,0,0,0,0,0,0,0,0,0,0,0,0,0,0,0,0,0,0,0,0,0,0,0,0,0,0,0,0,0,0,0,0,0,0,0,0,0,0,0,0,0,0,0,
0,0,0,0,0,0,0,0,0,0,0,0,0,0,0,0,0,0,0,0,0,0,0,0,0,0,0,0,0,0,0,0,0,0,0,0,0,0,0,0,0,0,0,0,0,0,0,0,0,0,0,0,0,0,0,0,0,0,0,0,0,0,0,0,0,0,0,0,0,0,0,0,0,0,0,0,0,0,0,0,0,0,0,0,0,0,0,0,0,0,0,0,0,0,0,0,0,0,0,0,0,0,0,0,0,0,0,0,0,0,0,0,0,0,0,0,0,0,0,0,
0,0,0,0,0,0,0,0,0,0,0,0,0,0,0,0,0,0,0,0,0,0,0,0,0,0,0,0,0,0,0,0,0,0,0,0,0,0,0,0,0,0,0,0,0,0,0,0,0,0,0,0,0,0,0,0,0,0,0,0,0,0,0,0,0,0,0,0,0,0,0,0,0,0,0,0,0,0,0,0,0,0,0,0,0,0,0,0,0,0,0,0,0,0,0,0,0,0,0,0,0,0,0,0,0,0,0,0,0,0,0,0,0,0,0,0,0,0,0,0,
0,0,0,0,0,0,0,0,0,0,0,0,0,0,0,0,0,0,0,0,0,0,0,0,0,0,0,0,0,0,0,0,0,0,0,0,0,0,0,0,0,0,0,0,0,0,0,0,0,0,0,0,0,0,0,0,0,0,0,0,0,0,0,0,0,0,0,0,0,0,0,0,0,0,0,0,0,0,0,0,0,0,0,0,0,0,0,0,0,0,0,0,0,0,0,0,0,0,0,0,0,0,0,0,0,0,0,0,0,0,0,0,0,0,0,0,0,0,0,0,
0,0,0,0,0,0,0,0,0,0,0,0,0,0,0,0,0,0,0,0,0,0,0,0,0,0,0,0,0,0,0,0,0,0,0,0,0,0,0,0,0,0,0,0,0,0,0,0,0,0,0,0,0,0,0,0,0,0,0,0,0,0,0,0,0,0,0,0,0,0,0,0,0,0,0,0,0,0,0,0,0,0,0,0,0,0,0,0,0,0,0,0,0,0,0,0,0,0,0,0,0,0,0,0,0,0,0,0,0,0,0,0,0,0,0,0,0,0,0,0,
0,0,0,0,0,0,0,0,0,0,0,0,0,0,0,0,0,0,0,0,0,0,0,0,0,0,0,0,0,0,0,0,0,0,0,0,0,0,0,0,0,0,0,0,0,0,0,0,0,0,0,0,0,0,0,0,0,0,0,0,0,0,0,0,0,0,0,0,0,0,0,0,0,0,0,0,0,0,0,0,0,0,0,0,0,0,0,0,0,0,0,0,0,0,0,0,0,0,0,0,0,0,0,0,0,0,0,0,0,0,0,0,0,0,0,0,0,0,0,0,
0,0,0,0,0,0,0,0,0,0,0,0,0,0,0,0,0,0,0,0,0,0,0,0,0,0,0,0,0,0,0,0,0,0,0,0,0,0,0,0,0,0,0,0,0,0,0,0,0,0,0,0,0,0,0,0,0,0,0,0,0,0,0,0,0,0,0,0,0,0,0,0,0,0,0,0,0,0,0,0,0,0,0,0,0,0,0,0,0,0,0,0,0,0,0,0,0,0,0,0,0,0,0,0,0,0,0,0,0,0,0,0,0,0,0,0,0,0,0,0,
0,0,0,0,0,0,0,0,0,0,0,0,0,0,0,0,0,0,0,0,0,0,0,0,0,0,0,0,0,0,0,0,0,0,0,0,0,0,0,0,0,0,0,0,0,0,0,0,0,0,0,0,0,0,0,0,0,0,0,0,0,0,0,0,0,0,0,0,0,0,0,0,0,0,0,0,0,0,0,0,0,0,0,0,0,0,0,0,0,0,0,0,0,0,0,0,0,0,0,0,0,0,0,0,0,0,0,0,0,0,0,0,0,0,0,0,0,0,0,0,
0,0,0,0,0,0,0,0,0,0,0,0,0,0,0,0,0,0,0,0,0,0,0,0,0,0,0,0,0,0,0,0,0,0,0,0,0,0,0,0,0,0,0,0,0,0,0,0,0,0,0,0,0,0,0,0,0,0,0,0,0,0,0,0,0,0,0,0,0,0,0,0,0,0,0,0,0,0,0,0,0,0,0,0,0,0,0,0,0,0,0,0,0,0,0,0,0,0,0,0,0,0,0,0,0,0,0,0,0,0,0,0,0,0,0,0,0,0,0,0,
0,0,0,0,0,0,0,0,0,0,0,0,0,0,0,0,0,0,0,0,0,0,0,0,0,0,0,0,0,0,0,0,0,0,0,0,0,0,0,0,0,0,0,0,0,0,0,0,0,0,0,0,0,0,0,0,0,0,0,0,0,0,0,0,0,0,0,0,0,0,0,0,0,0,0,0,0,0,0,0,0,0,0,0,0,0,0,0,0,0,0,0,0,0,0,0,0,0,0,0,0,0,0,0,0,0,0,0,0,0,0,0,0,0,0,0,0,0,0,0,
0,0,0,0,0,0,0,0,0,0,0,0,0,0,0,0,0,0,0,0,0,0,0,0,0,0,0,0,0,0,0,0,0,0,0,0,0,0,0,0,0,0,0,0,0,0,0,0,0,0,0,0,0,0,0,0,0,0,0,0,0,0,0,0,0,0,0,0,0,0,0,0,0,0,0,0,0,0,0,0,0,0,0,0,0,0,0,0,0,0,0,0,0,0,0,0,0,0,0,0,0,0,0,0,0,0,0,0,0,0,0,0,0,0,0,0,0,0,0,0,
0,0,0,0,0,0,0,0,0,0,0,0,0,0,0,0,0,0,0,0,0,0,0,0,0,0,0,0,0,0,0,0,0,0,0,0,0,0,0,0,0,0,0,0,0,0,0,0,0,0,0,0,0,0,0,0,0,0,0,0,0,0,0,0,0,0,0,0,0,0,0,0,0,0,0,0,0,0,0,0,0,0,0,0,0,0,0,0,0,0,0,0,0,0,0,0,0,0,0,0,0,0,0,0,0,0,0,0,0,0,0,0,0,0,0,0,0,0,0,0,
0,0,0,0,0,0,0,0,0,0,0,0,0,0,0,0,0,0,0,0,0,0,0,0,0,0,0,0,0,0,0,0,0,0,0,0,0,0,0,0,0,0,0,0,0,0,0,0,0,0,0,0,0,0,0,0,0,0,0,0,0,0,0,0,0,0,0,0,0,0,0,0,0,0,0,0,0,0,0,0,0,0,0,0,0,0,0,0,0,0,0,0,0,0,0,0,0,0,0,0,0,0,0,0,0,0,0,0,0,0,0,0,0,0,0,0,0,0,0,0,
0,0,0,0,0,0,0,0,0,0,0,0,0,0,0,0,0,0,0,0,0,0,0,0,0,0,0,0,0,0,0,0,0,0,0,0,0,0,0,0,0,0,0,0,0,0,0,0,0,0,0,0,0,0,0,0,0,0,0,0,0,0,0,0,0,0,0,0,0,0,0,0,0,0,0,0,0,0,0,0,0,0,0,0,0,0,0,0,0,0,0,0,0,0,0,0,0,0,0,0,0,0,0,0,0,0,0,0,0,0,0,0,0,0,0,0,0,0,0,0,
0,0,0,0,0,0,0,0,0,0,0,0,0,0,0,0,0,0,0,0,0,0,0,0,0,0,0,0,0,0,0,0,0,0,0,0,0,0,0,0,0,0,0,0,0,0,0,0,0,0,0,0,0,0,0,0,0,0,0,0,0,0,0,0,0,0,0,0,0,0,0,0,0,0,0,0,0,0,0,0,0,0,0,0,0,0,0,0,0,0,0,0,0,0,0,0,0,0,0,0,0,0,0,0,0,0,0,0,0,0,0,0,0,0,0,0,0,0,0,0,
0,0,0,0,0,0,0,0,0,0,0,0,0,0,0,0,0,0,0,0,0,0,0,0,0,0,0,0,0,0,0,0,0,0,0,0,0,0,0,0,0,0,0,0,0,0,0,0,0,0,0,0,0,0,0,0,0,0,0,0,0,0,0,0,0,0,0,0,0,0,0,0,0,0,0,0,0,0,0,0,0,0,0,0,0,0,0,0,0,0,0,0,0,0,0,0,0,0,0,0,0,0,0,0,0,0,0,0,0,0,0,0,0,0,0,0,0,0,0,0,
0,0,0,0,0,0,0,0,0,0,0,0,0,0,0,0,0,0,0,0,0,0,0,0,0,0,0,0,0,0,0,0,0,0,0,0,0,0,0,0,0,0,0,0,0,0,0,0,0,0,0,0,0,0,0,0,0,0,0,0,0,0,0,0,0,0,0,0,0,0,0,0,0,0,0,0,0,0,0,0,0,0,0,0,0,0,0,0,0,0,0,0,0,0,0,0,0,0,0,0,0,0,0,0,0,0,0,0,0,0,0,0,0,0,0,0,0,0,0,0,
0,0,0,0,0,0,0,0,0,0,0,0,0,0,0,0,0,0,0,0,0,0,0,0,0,0,0,0,0,0,0,0,0,0,0,0,0,0,0,0,0,0,0,0,0,0,0,0,0,0,0,0,0,0,0,0,0,0,0,0,0,0,0,0,0,0,0,0,0,0,0,0,0,0,0,0,0,0,0,0,0,0,0,0,0,0,0,0,0,0,0,0,0,0,0,0,0,0,0,0,0,0,0,0,0,0,0,0,0,0,0,0,0,0,0,0,0,0,0,0,
0,0,0,0,0,0,0,0,0,0,0,0,0,0,0,0,0,0,0,0,0,0,0,0,0,0,0,0,0,0,0,0,0,0,0,0,0,0,0,0,0,0,0,0,0,0,0,0,0,0,0,0,0,0,0,0,0,0,0,0,0,0,0,0,0,0,0,0,0,0,0,0,0,0,0,0,0,0,0,0,0,0,0,0,0,0,0,0,0,0,0,0,0,0,0,0,0,0,0,0,0,0,0,0,0,0,0,0,0,0,0,0,0,0,0,0,0,0,0,0,
0,0,0,0,0,0,0,0,0,0,0,0,0,0,0,0,0,0,0,0,0,0,0,0,0,0,0,0,0,0,0,0,0,0,0,0,0,0,0,0,0,0,0,0,0,0,0,0,0,0,0,0,0,0,0,0,0,0,0,0,0,0,0,0,0,0,0,0,0,0,0,0,0,0,0,0,0,0,0,0,0,0,0,0,0,0,0,0,0,0,0,0,0,0,0,0,0,0,0,0,0,0,0,0,0,0,0,0,0,0,0,0,0,0,0,0,0,0,0,0,
0,0,0,0,0,0,0,0,0,0,0,0,0,0,0,0,0,0,0,0,0,0,0,0,0,0,0,0,0,0,0,0,0,0,0,0,0,0,0,0,0,0,0,0,0,0,0,0,0,0,0,0,0,0,0,0,0,0,0,0,0,0,0,0,0,0,0,0,0,0,0,0,0,0,0,0,0,0,0,0,0,0,0,0,0,0,0,0,0,0,0,0,0,0,0,0,0,0,0,0,0,0,0,0,0,0,0,0,0,0,0,0,0,0,0,0,0,0,0,0,
0,0,0,0,0,0,0,0,0,0,0,0,0,0,0,0,0,0,0,0,0,0,0,0,0,0,0,0,0,0,0,0,0,0,0,0,0,0,0,0,0,0,0,0,0,0,0,0,0,0,0,0,0,0,0,0,0,0,0,0,0,0,0,0,0,0,0,0,0,0,0,0,0,0,0,0,0,0,0,0,0,0,0,0,0,0,0,0,0,0,0,0,0,0,0,0,0,0,0,0,0,0,0,0,0,0,0,0,0,0,0,0,0,0,0,0,0,0,0,0,
0,0,0,0,0,0,0,0,0,0,0,0,0,0,0,0,0,0,0,0,0,0,0,0,0,0,0,0,0,0,0,0,0,0,0,0,0,0,0,0,0,0,0,0,0,0,0,0,0,0,0,0,0,0,0,0,0,0,0,0,0,0,0,0,0,0,0,0,0,0,0,0,0,0,0,0,0,0,0,0,0,0,0,0,0,0,0,0,0,0,0,0,0,0,0,0,0,0,0,0,0,0,0,0,0,0,0,0,0,0,0,0,0,0,0,0,0,0,0,0,
0,0,0,0,0,0,0,0,0,0,0,0,0,0,0,0,0,0,0,0,0,0,0,0,0,0,0,0,0,0,0,0,0,0,0,0,0,0,0,0,0,0,0,0,0,0,0,0,0,0,0,0,0,0,0,0,0,0,0,0,0,0,0,0,0,0,0,0,0,0,0,0,0,0,0,0,0,0,0,0,0,0,0,0,0,0,0,0,0,0,0,0,0,0,0,0,0,0,0,0,0,0,0,0,0,0,0,0,0,0,0,0,0,0,0,0,0,0,0,0,
0,0,0,0,0,0,0,0,0,0,0,0,0,0,0,0,0,0,0,0,0,0,0,0,0,0,0,0,0,0,0,0,0,0,0,0,0,0,0,0,0,0,0,0,0,0,0,0,0,0,0,0,0,0,0,0,0,0,0,0,0,0,0,0,0,0,0,0,0,0,0,0,0,0,0,0,0,0,0,0,0,0,0,0,0,0,0,0,0,0,0,0,0,0,0,0,0,0,0,0,0,0,0,0,0,0,0,0,0,0,0,0,0,0,0,0,0,0,0,0,
0,0,0,0,0,0,0,0,0,0,0,0,0,0,0,0,0,0,0,0,0,0,0,0,0,0,0,0,0,0,0,0,0,0,0,0,0,0,0,0,0,0,0,0,0,0,0,0,0,0,0,0,0,0,0,0,0,0,0,0,0,0,0,0,0,0,0,0,0,0,0,0,0,0,0,0,0,0,0,0,0,0,0,0,0,0,0,0,0,0,0,0,0,0,0,0,0,0,0,0,0,0,0,0,0,0,0,0,0,0,0,0,0,0,0,0,0,0,0,0,
0,0,0,0,0,0,0,0,0,0,0,0,0,0,0,0,0,0,0,0,0,0,0,0,0,0,0,0,0,0,0,0,0,0,0,0,0,0,0,0,0,0,0,0,0,0,0,0,0,0,0,0,0,0,0,0,0,0,0,0,0,0,0,0,0,0,0,0,0,0,0,0,0,0,0,0,0,0,0,0,0,0,0,0,0,0,0,0,0,0,0,0,0,0,0,0,0,0,0,0,0,0,0,0,0,0,0,0,0,0,0,0,0,0,0,0,0,0,0,0,
0,0,0,0,0,0,0,0,0,0,0,0,0,0,0,0,0,0,0,0,0,0,0,0,0,0,0,0,0,0,0,0,0,0,0,0,0,0,0,0,0,0,0,0,0,0,0,0,0,0,0,0,0,0,0,0,0,0,0,0,0,0,0,0,0,0,0,0,0,0,0,0,0,0,0,0,0,0,0,0,0,0,0,0,0,0,0,0,0,0,0,0,0,0,0,0,0,0,0,0,0,0,0,0,0,0,0,0,0,0,0,0,0,0,0,0,0,0,0,0,
0,0,0,0,0,0,0,0,0,0,0,0,0,0,0,0,0,0,0,0,0,0,0,0,0,0,0,0,0,0,0,0,0,0,0,0,0,0,0,0,0,0,0,0,0,0,0,0,0,0,0,0,0,0,0,0,0,0,0,0,0,0,0,0,0,0,0,0,0,0,0,0,0,0,0,0,0,0,0,0,0,0,0,0,0,0,0,0,0,0,0,0,0,0,0,0,0,0,0,0,0,0,0,0,0,0,0,0,0,0,0,0,0,0,0,0,0,0,0,0,
0,0,0,0,0,0,0,0,0,0,0,0,0,0,0,0,0,0,0,0,0,0,0,0,0,0,0,0,0,0,0,0,0,0,0,0,0,0,0,0,0,0,0,0,0,0,0,0,0,0,0,0,0,0,0,0,0,0,0,0,0,0,0,0,0,0,0,0,0,0,0,0,0,0,0,0,0,0,0,0,0,0,0,0,0,0,0,0,0,0,0,0,0,0,0,0,0,0,0,0,0,0,0,0,0,0,0,0,0,0,0,0,0,0,0,0,0,0,0,0,
0,0,0,0,0,0,0,0,0,0,0,0,0,0,0,0,0,0,0,0,0,0,0,0,0,0,0,0,0,0,0,0,0,0,0,0,0,0,0,0,0,0,0,0,0,0,0,0,0,0,0,0,0,0,0,0,0,0,0,0,0,0,0,0,0,0,0,0,0,0,0,0,0,0,0,0,0,0,0,0,0,0,0,0,0,0,0,0,0,0,0,0,0,0,0,0,0,0,0,0,0,0,0,0,0,0,0,0,0,0,0,0,0,0,0,0,0,0,0,0,
0,0,0,0,0,0,0,0,0,0,0,0,0,0,0,0,0,0,0,0,0,0,0,0,0,0,0,0,0,0,0,0,0,0,0,0,0,0,0,0,0,0,0,0,0,0,0,0,0,0,0,0,0,0,0,0,0,0,0,0,0,0,0,0,0,0,0,0,0,0,0,0,0,0,0,0,0,0,0,0,0,0,0,0,0,0,0,0,0,0,0,0,0,0,0,0,0,0,0,0,0,0,0,0,0,0,0,0,0,0,0,0,0,0,0,0,0,0,0,0,
0,0,0,0,0,0,0,0,0,0,0,0,0,0,0,0,0,0,0,0,0,0,0,0,0,0,0,0,0,0,0,0,0,0,0,0,0,0,0,0,0,0,0,0,0,0,0,0,0,0,0,0,0,0,0,0,0,0,0,0,0,0,0,0,0,0,0,0,0,0,0,0,0,0,0,0,0,0,0,0,0,0,0,0,0,0,0,0,0,0,0,0,0,0,0,0,0,0,0,0,0,0,0,0,0,0,0,0,0,0,0,0,0,0,0,0,0,0,0,0,
0,0,0,0,0,0,0,0,0,0,0,0,0,0,0,0,0,0,0,0,0,0,0,0,0,0,0,0,0,0,0,0,0,0,0,0,0,0,0,0,0,0,0,0,0,0,0,0,0,0,0,0,0,0,0,0,0,0,0,0,0,0,0,0,0,0,0,0,0,0,0,0,0,0,0,0,0,0,0,0,0,0,0,0,0,0,0,0,0,0,0,0,0,0,0,0,0,0,0,0,0,0,0,0,0,0,0,0,0,0,0,0,0,0,0,0,0,0,0,0,
0,0,0,0,0,0,0,0,0,0,0,0,0,0,0,0,0,0,0,0,0,0,0,0,0,0,0,0,0,0,0,0,0,0,0,0,0,0,0,0,0,0,0,0,0,0,0,0,0,0,0,0,0,0,0,0,0,0,0,0,0,0,0,0,0,0,0,0,0,0,0,0,0,0,0,0,0,0,0,0,0,0,0,0,0,0,0,0,0,0,0,0,0,0,0,0,0,0,0,0,0,0,0,0,0,0,0,0,0,0,0,0,0,0,0,0,0,0,0,0,
0,0,0,0,0,0,0,0,0,0,0,0,0,0,0,0,0,0,0,0,0,0,0,0,0,0,0,0,0,0,0,0,0,0,0,0,0,0,0,0,0,0,0,0,0,0,0,0,0,0,0,0,0,0,0,0,0,0,0,0,0,0,0,0,0,0,0,0,0,0,0,0,0,0,0,0,0,0,0,0,0,0,0,0,0,0,0,0,0,0,0,0,0,0,0,0,0,0,0,0,0,0,0,0,0,0,0,0,0,0,0,0,0,0,0,0,0,0,0,0,
0,0,0,0,0,0,0,0,0,0,0,0,0,0,0,0,0,0,0,0,0,0,0,0,0,0,0,0,0,0,0,0,0,0,0,0,0,0,0,0,0,0,0,0,0,0,0,0,0,0,0,0,0,0,0,0,0,0,0,0,0,0,0,0,0,0,0,0,0,0,0,0,0,0,0,0,0,0,0,0,0,0,0,0,0,0,0,0,0,0,0,0,0,0,0,0,0,0,0,0,0,0,0,0,0,0,0,0,0,0,0,0,0,0,0,0,0,0,0,0,
0,0,0,0,0,0,0,0,0,0,0,0,0,0,0,0,0,0,0,0,0,0,0,0,0,0,0,0,0,0,0,0,0,0,0,0,0,0,0,0,0,0,0,0,0,0,0,0,0,0,0,0,0,0,0,0,0,0,0,0,0,0,0,0,0,0,0,0,0,0,0,0,0,0,0,0,0,0,0,0,0,0,0,0,0,0,0,0,0,0,0,0,0,0,0,0,0,0,0,0,0,0,0,0,0,0,0,0,0,0,0,0,0,0,0,0,0,0,0,0,
0,0,0,0,0,0,0,0,0,0,0,0,0,0,0,0,0,0,0,0,0,0,0,0,0,0,0,0,0,0,0,0,0,0,0,0,0,0,0,0,0,0,0,0,0,0,0,0,0,0,0,0,0,0,0,0,0,0,0,0,0,0,0,0,0,0,0,0,0,0,0,0,0,0,0,0,0,0,0,0,0,0,0,0,0,0,0,0,0,0,0,0,0,0,0,0,0,0,0,0,0,0,0,0,0,0,0,0,0,0,0,0,0,0,0,0,0,0,0,0,
0,0,0,0,0,0,0,0,0,0,0,0,0,0,0,0,0,0,0,0,0,0,0,0,0,0,0,0,0,0,0,0,0,0,0,0,0,0,0,0,0,0,0,0,0,0,0,0,0,0,0,0,0,0,0,0,0,0,0,0,0,0,0,0,0,0,0,0,0,0,0,0,0,0,0,0,0,0,0,0,0,0,0,0,0,0,0,0,0,0,0,0,0,0,0,0,0,0,0,0,0,0,0,0,0,0,0,0,0,0,0,0,0,0,0,0,0,0,0,0,
0,0,0,0,0,0,0,0,0,0,0,0,0,0,0,0,0,0,0,0,0,0,0,0,0,0,0,0,0,0,0,0,0,0,0,0,0,0,0,0,0,0,0,0,0,0,0,0,0,0,0,0,0,0,0,0,0,0,0,0,0,0,0,0,0,0,0,0,0,0,0,0,0,0,0,0,0,0,0,0,0,0,0,0,0,0,0,0,0,0,0,0,0,0,0,0,0,0,0,0,0,0,0,0,0,0,0,0,0,0,0,0,0,0,0,0,0,0,0,0,
0,0,0,0,0,0,0,0,0,0,0,0,0,0,0,0,0,0,0,0,0,0,0,0,0,0,0,0,0,0,0,0,0,0,0,0,0,0,0,0,0,0,0,0,0,0,0,0,0,0,0,0,0,0,0,0,0,0,0,0,0,0,0,0,0,0,0,0,0,0,0,0,0,0,0,0,0,0,0,0,0,0,0,0,0,0,0,0,0,0,0,0,0,0,0,0,0,0,0,0,0,0,0,0,0,0,0,0,0,0,0,0,0,0,0,0,0,0,0,0,
0,0,0,0,0,0,0,0,0,0,0,0,0,0,0,0,0,0,0,0,0,0,0,0,0,0,0,0,0,0,0,0,0,0,0,0,0,0,0,0,0,0,0,0,0,0,0,0,0,0,0,0,0,0,0,0,0,0,0,0,0,0,0,0,0,0,0,0,0,0,0,0,0,0,0,0,0,0,0,0,0,0,0,0,0,0,0,0,0,0,0,0,0,0,0,0,0,0,0,0,0,0,0,0,0,0,0,0,0,0,0,0,0,0,0,0,0,0,0,0,
0,0,0,0,0,0,0,0,0,0,0,0,0,0,0,0,0,0,0,0,0,0,0,0,0,0,0,0,0,0,0,0,0,0,0,0,0,0,0,0,0,0,0,0,0,0,0,0,0,0,0,0,0,0,0,0,0,0,0,0,0,0,0,0,0,0,0,0,0,0,0,0,0,0,0,0,0,0,0,0,0,0,0,0,0,0,0,0,0,0,0,0,0,0,0,0,0,0,0,0,0,0,0,0,0,0,0,0,0,0,0,0,0,0,0,0,0,0,0,0,
0,0,0,0,0,0,0,0,0,0,0,0,0,0,0,0,0,0,0,0,0,0,0,0,0,0,0,0,0,0,0,0,0,0,0,0,0,0,0,0,0,0,0,0,0,0,0,0,0,0,0,0,0,0,0,0,0,0,0,0,0,0,0,0,0,0,0,0,0,0,0,0,0,0,0,0,0,0,0,0,0,0,0,0,0,0,0,0,0,0,0,0,0,0,0,0,0,0,0,0,0,0,0,0,0,0,0,0,0,0,0,0,0,0,0,0,0,0,0,0,
0,0,0,0,0,0,0,0,0,0,0,0,0,0,0,0,0,0,0,0,0,0,0,0,0,0,0,0,0,0,0,0,0,0,0,0,0,0,0,0,0,0,0,0,0,0,0,0,0,0,0,0,0,0,0,0,0,0,0,0,0,0,0,0,0,0,0,0,0,0,0,0,0,0,0,0,0,0,0,0,0,0,0,0,0,0,0,0,0,0,0,0,0,0,0,0,0,0,0,0,0,0,0,0,0,0,0,0,0,0,0,0,0,0,0,0,0,0,0,0,
0,0,0,0,0,0,0,0,0,0,0,0,0,0,0,0,0,0,0,0,0,0,0,0,0,0,0,0,0,0,0,0,0,0,0,0,0,0,0,0,0,0,0,0,0,0,0,0,0,0,0,0,0,0,0,0,0,0,0,0,0,0,0,0,0,0,0,0,0,0,0,0,0,0,0,0,0,0,0,0,0,0,0,0,0,0,0,0,0,0,0,0,0,0,0,0,0,0,0,0,0,0,0,0,0,0,0,0,0,0,0,0,0,0,0,0,0,0,0,0,
0,0,0,0,0,0,0,0,0,0,0,0,0,0,0,0,0,0,0,0,0,0,0,0,0,0,0,0,0,0,0,0,0,0,0,0,0,0,0,0,0,0,0,0,0,0,0,0,0,0,0,0,0,0,0,0,0,0,0,0,0,0,0,0,0,0,0,0,0,0,0,0,0,0,0,0,0,0,0,0,0,0,0,0,0,0,0,0,0,0,0,0,0,0,0,0,0,0,0,0,0,0,0,0,0,0,0,0,0,0,0,0,0,0,0,0,0,0,0,0,
0,0,0,0,0,0,0,0,0,0,0,0,0,0,0,0,0,0,0,0,0,0,0,0,0,0,0,0,0,0,0,0,0,0,0,0,0,0,0,0,0,0,0,0,0,0,0,0,0,0,0,0,0,0,0,0,0,0,0,0,0,0,0,0,0,0,0,0,0,0,0,0,0,0,0,0,0,0,0,0,0,0,0,0,0,0,0,0,0,0,0,0,0,0,0,0,0,0,0,0,0,0,0,0,0,0,0,0,0,0,0,0,0,0,0,0,0,0,0,0,
0,0,0,0,0,0,0,0,0,0,0,0,0,0,0,0,0,0,0,0,0,0,0,0,0,0,0,0,0,0,0,0,0,0,0,0,0,0,0,0,0,0,0,0,0,0,0,0,0,0,0,0,0,0,0,0,0,0,0,0,0,0,0,0,0,0,0,0,0,0,0,0,0,0,0,0,0,0,0,0,0,0,0,0,0,0,0,0,0,0,0,0,0,0,0,0,0,0,0,0,0,0,0,0,0,0,0,0,0,0,0,0,0,0,0,0,0,0,0,0,
0,0,0,0,0,0,0,0,0,0,0,0,0,0,0,0,0,0,0,0,0,0,0,0,0,0,0,0,0,0,0,0,0,0,0,0,0,0,0,0,0,0,0,0,0,0,0,0,0,0,0,0,0,0,0,0,0,0,0,0,0,0,0,0,0,0,0,0,0,0,0,0,0,0,0,0,0,0,0,0,0,0,0,0,0,0,0,0,0,0,0,0,0,0,0,0,0,0,0,0,0,0,0,0,0,0,0,0,0,0,0,0,0,0,0,0,0,0,0,0,
0,0,0,0,0,0,0,0,0,0,0,0,0,0,0,0,0,0,0,0,0,0,0,0,0,0,0,0,0,0,0,0,0,0,0,0,0,0,0,0,0,0,0,0,0,0,0,0,0,0,0,0,0,0,0,0,0,0,0,0,0,0,0,0,0,0,0,0,0,0,0,0,0,0,0,0,0,0,0,0,0,0,0,0,0,0,0,0,0,0,0,0,0,0,0,0,0,0,0,0,0,0,0,0,0,0,0,0,0,0,0,0,0,0,0,0,0,0,0,0,
0,0,0,0,0,0,0,0,0,0,0,0,0,0,0,0,0,0,0,0,0,0,0,0,0,0,0,0,0,0,0,0,0,0,0,0,0,0,0,0,0,0,0,0,0,0,0,0,0,0,0,0,0,0,0,0,0,0,0,0,0,0,0,0,0,0,0,0,0,0,0,0,0,0,0,0,0,0,0,0,0,0,0,0,0,0,0,0,0,0,0,0,0,0,0,0,0,0,0,0,0,0,0,0,0,0,0,0,0,0,0,0,0,0,0,0,0,0,0,0,
0,0,0,0,0,0,0,0,0,0,0,0,0,0,0,0,0,0,0,0,0,0,0,0,0,0,0,0,0,0,0,0,0,0,0,0,0,0,0,0,0,0,0,0,0,0,0,0,0,0,0,0,0,0,0,0,0,0,0,0,0,0,0,0,0,0,0,0,0,0,0,0,0,0,0,0,0,0,0,0,0,0,0,0,0,0,0,0,0,0,0,0,0,0,0,0,0,0,0,0,0,0,0,0,0,0,0,0,0,0,0,0,0,0,0,0,0,0,0,0,
0,0,0,0,0,0,0,0,0,0,0,0,0,0,0,0,0,0,0,0,0,0,0,0,0,0,0,0,0,0,0,0,0,0,0,0,0,0,0,0,0,0,0,0,0,0,0,0,0,0,0,0,0,0,0,0,0,0,0,0,0,0,0,0,0,0,0,0,0,0,0,0,0,0,0,0,0,0,0,0,0,0,0,0,0,0,0,0,0,0,0,0,0,0,0,0,0,0,0,0,0,0,0,0,0,0,0,0,0,0,0,0,0,0,0,0,0,0,0,0,
0,0,0,0,0,0,0,0,0,0,0,0,0,0,0,0,0,0,0,0,0,0,0,0,0,0,0,0,0,0,0,0,0,0,0,0,0,0,0,0,0,0,0,0,0,0,0,0,0,0,0,0,0,0,0,0,0,0,0,0,0,0,0,0,0,0,0,0,0,0,0,0,0,0,0,0,0,0,0,0,0,0,0,0,0,0,0,0,0,0,0,0,0,0,0,0,0,0,0,0,0,0,0,0,0,0,0,0,0,0,0,0,0,0,0,0,0,0,0,0,
0,0,0,0,0,0,0,0,0,0,0,0,0,0,0,0,0,0,0,0,0,0,0,0,0,0,0,0,0,0,4849,4848,4848,0,0,0,0,0,0,0,0,0,0,0,0,0,0,0,0,0,0,0,0,0,0,0,0,0,0,0,0,0,0,0,0,0,0,0,0,0,0,0,0,0,0,0,0,0,0,0,0,0,0,0,0,0,0,0,0,0,0,0,0,0,0,0,0,0,0,0,0,0,0,0,0,0,0,0,0,0,0,0,0,0,0,0,0,0,0,0,
0,0,0,0,0,0,0,0,0,0,0,0,0,0,0,0,0,0,0,0,0,0,0,0,0,0,0,0,0,0,4849,4848,4848,0,0,0,0,0,0,0,0,0,0,0,0,0,0,0,0,0,0,0,0,0,0,0,0,0,0,0,0,0,0,0,0,0,0,0,0,0,0,0,0,0,0,0,0,0,0,0,0,0,0,0,0,0,0,0,0,0,0,0,0,0,0,0,0,0,0,0,0,0,0,0,0,0,0,0,0,0,0,0,0,0,0,0,0,0,0,0,
0,0,0,0,0,0,0,0,0,0,0,0,0,0,0,0,0,0,0,0,0,0,0,0,0,0,0,0,0,0,0,0,4764,4762,4762,4762,0,0,0,0,0,0,0,0,0,0,0,0,0,0,0,0,0,0,0,0,0,0,0,0,0,0,0,0,0,0,0,0,0,0,0,0,0,0,0,0,0,0,0,0,0,0,0,0,0,0,0,0,0,0,0,0,0,0,0,0,0,0,0,0,0,0,0,0,0,0,0,0,0,0,0,0,0,0,0,0,0,0,0,0,
0,0,0,0,0,0,0,0,0,0,0,0,0,0,0,0,0,0,0,0,0,0,0,0,0,0,0,0,0,0,0,0,0,0,0,0,0,0,0,0,0,0,0,0,0,0,0,0,0,0,0,0,0,0,0,0,0,0,0,0,0,0,0,0,0,0,0,0,0,0,0,0,0,0,0,0,0,0,0,0,0,0,0,0,0,0,0,0,0,0,0,0,0,0,0,0,0,0,0,0,0,0,0,0,0,0,0,0,0,0,0,0,0,0,0,0,0,0,0,0,
0,0,0,0,0,0,0,0,0,0,0,0,0,0,0,0,0,0,0,0,0,0,0,0,0,0,0,0,0,0,0,0,0,0,0,0,0,0,0,0,0,0,0,0,0,0,0,0,0,0,0,0,0,0,0,0,0,0,0,0,0,0,0,0,0,0,0,0,0,0,0,0,0,0,0,0,0,0,0,0,0,0,0,0,0,0,0,0,0,0,0,0,0,0,0,0,0,0,0,0,0,0,0,0,0,0,0,0,0,0,0,0,0,0,0,0,0,0,0,0,
0,0,0,0,0,0,0,0,0,0,0,0,0,0,0,0,0,0,0,0,0,0,0,0,0,0,0,0,0,0,0,0,0,0,0,0,0,0,0,0,0,0,0,0,0,0,0,0,0,0,0,0,0,0,0,0,0,0,0,0,0,0,0,0,0,0,0,0,0,0,0,0,0,0,0,0,0,0,0,0,0,0,0,0,0,0,0,0,0,0,0,0,0,0,0,0,0,0,0,0,0,0,0,0,0,0,0,0,0,0,0,0,0,0,0,0,0,0,0,0,
0,0,0,0,0,0,0,0,0,0,0,0,0,0,0,0,0,0,0,0,0,0,0,0,0,0,0,0,0,0,0,0,0,0,0,0,0,0,0,0,0,0,0,0,0,0,0,0,0,0,0,0,0,0,0,0,0,0,0,0,0,0,0,0,0,0,0,0,0,0,0,0,0,0,0,0,0,0,0,0,0,0,0,0,0,0,0,0,0,0,0,0,0,0,0,0,0,0,0,0,0,0,0,0,0,0,0,0,0,0,0,0,0,0,0,0,0,0,0,0,
0,0,0,0,0,0,0,0,0,0,0,0,0,0,0,0,0,0,0,0,0,0,0,0,0,0,0,0,0,0,0,0,0,0,0,0,0,0,0,0,0,0,0,0,0,0,0,0,0,0,0,0,0,0,0,0,0,0,0,0,0,0,0,0,0,0,0,0,0,0,0,0,0,0,0,0,0,0,0,0,0,0,0,0,0,0,0,0,0,0,0,0,0,0,0,0,0,0,0,0,0,0,0,0,0,0,0,0,0,0,0,0,0,0,0,0,0,0,0,0,
0,0,0,0,0,0,0,0,0,0,0,0,0,0,0,0,0,0,0,0,0,0,0,0,0,0,0,0,0,0,0,0,0,0,0,0,0,0,0,0,0,0,0,0,0,0,0,0,0,0,0,0,0,0,0,0,0,0,0,0,0,0,0,0,0,0,0,0,0,0,0,0,0,0,0,0,0,0,0,0,0,0,0,0,0,0,0,0,0,0,0,0,0,0,0,0,0,0,0,0,0,0,0,0,0,0,0,0,0,0,0,0,0,0,0,0,0,0,0,0,
0,0,0,0,0,0,0,0,0,0,0,0,0,0,0,0,0,0,0,0,0,0,0,0,0,0,0,0,0,0,0,0,0,0,0,0,0,0,0,0,0,0,0,0,0,0,0,0,0,0,0,0,0,0,0,0,0,0,0,0,0,0,0,0,0,0,0,0,0,0,0,0,0,0,0,0,0,0,0,0,0,0,0,0,0,0,0,0,0,0,0,0,0,0,0,0,0,0,0,0,0,0,0,0,0,0,0,0,0,0,0,0,0,0,0,0,0,0,0,0,
0,0,0,0,0,0,0,0,0,0,0,0,0,0,0,0,0,0,0,0,0,0,0,0,0,0,0,0,0,0,0,0,0,0,0,0,0,0,0,0,0,0,0,0,0,0,0,0,0,0,0,0,0,0,0,0,0,0,0,0,0,0,0,0,0,0,0,0,0,0,0,0,0,0,0,0,0,0,0,0,0,0,0,0,0,0,0,0,0,0,0,0,0,0,0,0,0,0,0,0,0,0,0,0,0,0,0,0,0,0,0,0,0,0,0,0,0,0,0,0,
0,0,0,0,0,0,0,0,0,0,0,0,0,0,0,0,0,0,0,0,0,0,0,0,0,0,0,0,0,0,0,0,0,0,0,0,0,0,0,0,0,0,0,0,0,0,0,0,0,0,0,0,0,0,0,0,0,0,0,0,0,0,0,0,0,0,0,0,0,0,0,0,0,0,0,0,0,0,0,0,0,0,0,0,0,0,0,0,0,0,0,0,0,0,0,0,0,0,0,0,0,0,0,0,0,0,0,0,0,0,0,0,0,0,0,0,0,0,0,0,
0,0,0,0,0,0,0,0,0,0,0,0,0,0,0,0,0,0,0,0,0,0,0,0,0,0,0,0,0,0,0,0,0,0,0,0,0,0,0,0,0,0,0,0,0,0,0,0,0,0,0,0,0,0,0,0,0,0,0,0,0,0,0,0,0,0,0,0,0,0,0,0,0,0,0,0,0,0,0,0,0,0,0,0,0,0,0,0,0,0,0,0,0,0,0,0,0,0,0,0,0,0,0,0,0,0,0,0,0,0,0,0,0,0,0,0,0,0,0,0,
0,0,0,0,0,0,0,0,0,0,0,0,0,0,0,0,0,0,0,0,0,0,0,0,0,0,0,0,0,0,0,0,0,0,0,0,0,0,0,0,0,0,0,0,0,0,0,0,0,0,0,0,0,0,0,0,0,0,0,0,0,0,0,0,0,0,0,0,0,0,0,0,0,0,0,0,0,0,0,0,0,0,0,0,0,0,0,0,0,0,0,0,0,0,0,0,0,0,0,0,0,0,0,0,0,0,0,0,0,0,0,0,0,0,0,0,0,0,0,0,
0,0,0,0,0,0,0,0,0,0,0,0,0,0,0,0,0,0,0,0,0,0,0,0,0,0,0,0,0,0,0,0,0,0,0,0,0,0,0,0,0,0,0,0,0,0,0,0,0,0,0,0,0,0,0,0,0,0,0,0,0,0,0,0,0,0,0,0,0,0,0,0,0,0,0,0,0,0,0,0,0,0,0,0,0,0,0,0,0,0,0,0,0,0,0,0,0,0,0,0,0,0,0,0,0,0,0,0,0,0,0,0,0,0,0,0,0,0,0,0,
0,0,0,0,0,0,0,0,0,0,0,0,0,0,0,0,0,0,0,0,0,0,0,0,0,0,0,0,0,0,0,0,0,0,0,0,0,0,0,0,0,0,0,0,0,0,0,0,0,0,0,0,0,0,0,0,0,0,0,0,0,0,0,0,0,0,0,0,0,0,0,0,0,0,0,0,0,0,0,0,0,0,0,0,0,0,0,0,0,0,0,0,0,0,0,0,0,0,0,0,0,0,0,0,0,0,0,0,0,0,0,0,0,0,0,0,0,0,0,0,
0,0,0,0,0,0,0,0,0,0,0,0,0,0,0,0,0,0,0,0,0,0,0,0,0,0,0,0,0,0,0,0,0,0,0,0,0,0,0,0,0,0,0,0,0,0,0,0,0,0,0,0,0,0,0,0,0,0,0,0,0,0,0,0,0,0,0,0,0,0,0,0,0,0,0,0,0,0,0,0,0,0,0,0,0,0,0,0,0,0,0,0,0,0,0,0,0,0,0,0,0,0,0,0,0,0,0,0,0,0,0,0,0,0,0,0,0,0,0,0,
0,0,0,0,0,0,0,0,0,0,0,0,0,0,0,0,0,0,0,0,0,0,0,0,0,0,0,0,0,0,0,0,0,0,0,0,0,0,0,0,0,0,0,0,0,0,0,0,0,0,0,0,0,0,0,0,0,0,0,0,0,0,0,0,0,0,0,0,0,0,0,0,0,0,0,0,0,0,0,0,0,0,0,0,0,0,0,0,0,0,0,0,0,0,0,0,0,0,0,0,0,0,0,0,0,0,0,0,0,0,0,0,0,0,0,0,0,0,0,0,
0,0,0,0,0,0,0,0,0,0,0,0,0,0,0,0,0,0,0,0,0,0,0,0,0,0,0,0,0,0,0,0,0,0,0,0,0,0,0,0,0,0,0,0,0,0,0,0,0,0,0,0,0,0,0,0,0,0,0,0,0,0,0,0,0,0,0,0,0,0,0,0,0,0,0,0,0,0,0,0,0,0,0,0,0,0,0,0,0,0,0,0,0,0,0,0,0,0,0,0,0,0,0,0,0,0,0,0,0,0,0,0,0,0,0,0,0,0,0,0,
0,0,0,0,0,0,0,0,0,0,0,0,0,0,0,0,0,0,0,0,0,0,0,0,0,0,0,0,0,0,0,0,0,0,0,0,0,0,0,0,0,0,0,0,0,0,0,0,0,0,0,0,0,0,0,0,0,0,0,0,0,0,0,0,0,0,0,0,0,0,0,0,0,0,0,0,0,0,0,0,0,0,0,0,0,0,0,0,0,0,0,0,0,0,0,0,0,0,0,0,0,0,0,0,0,0,0,0,0,0,0,0,0,0,0,0,0,0,0,0,
0,0,0,0,0,0,0,0,0,0,0,0,0,0,0,0,0,0,0,0,0,0,0,0,0,0,0,0,0,0,0,0,0,0,0,0,0,0,0,0,0,0,0,0,0,0,0,0,0,0,0,0,0,0,0,0,0,0,0,0,0,0,0,0,0,0,0,0,0,0,0,0,0,0,0,0,0,0,0,0,0,0,0,0,0,0,0,0,0,0,0,0,0,0,0,0,0,0,0,0,0,0,0,0,0,0,0,0,0,0,0,0,0,0,0,0,0,0,0,0,
0,0,0,0,0,0,0,0,0,0,0,0,0,0,0,0,0,0,0,0,0,0,0,0,0,0,0,0,0,0,0,0,0,0,0,0,0,0,0,0,0,0,0,0,0,0,0,0,0,0,0,0,0,0,0,0,0,0,0,0,0,0,0,0,0,0,0,0,0,0,0,0,0,0,0,0,0,0,0,0,0,0,0,0,0,0,0,0,0,0,0,0,0,0,0,0,0,0,0,0,0,0,0,0,0,0,0,0,0,0,0,0,0,0,0,0,0,0,0,0,
0,0,0,0,0,0,0,0,0,0,0,0,0,0,0,0,0,0,0,0,0,0,0,0,0,0,0,0,0,0,0,0,0,0,0,0,0,0,0,0,0,0,0,0,0,0,0,0,0,0,0,0,0,0,0,0,0,0,0,0,0,0,0,0,0,0,0,0,0,0,0,0,0,0,0,0,0,0,0,0,0,0,0,0,0,0,0,0,0,0,0,0,0,0,0,0,0,0,0,0,0,0,0,0,0,0,0,0,0,0,0,0,0,0,0,0,0,0,0,0,
0,0,0,0,0,0,0,0,0,0,0,0,0,0,0,0,0,0,0,0,0,0,0,0,0,0,0,0,0,0,0,0,0,0,0,0,0,0,0,0,0,0,0,0,0,0,0,0,0,0,0,0,0,0,0,0,0,0,0,0,0,0,0,0,0,0,0,0,0,0,0,0,0,0,0,0,0,0,0,0,0,0,0,0,0,0,0,0,0,0,0,0,0,0,0,0,0,0,0,0,0,0,0,0,0,0,0,0,0,0,0,0,0,0,0,0,0,0,0,0,
0,0,0,0,0,0,0,0,0,0,0,0,0,0,0,0,0,0,0,0,0,0,0,0,0,0,0,0,0,0,0,0,0,0,0,0,0,0,0,0,0,0,0,0,0,0,0,0,0,0,0,0,0,0,0,0,0,0,0,0,0,0,0,0,0,0,0,0,0,0,0,0,0,0,0,0,0,0,0,0,0,0,0,0,0,0,0,0,0,0,0,0,0,0,0,0,0,0,0,0,0,0,0,0,0,0,0,0,0,0,0,0,0,0,0,0,0,0,0,0,
0,0,0,0,0,0,0,0,0,0,0,0,0,0,0,0,0,0,0,0,0,0,0,0,0,0,0,0,0,0,0,0,0,0,0,0,0,0,0,0,0,0,0,0,0,0,0,0,0,0,0,0,0,0,0,0,0,0,0,0,0,0,0,0,0,0,0,0,0,0,0,0,0,0,0,0,0,0,0,0,0,0,0,0,0,0,0,0,0,0,0,0,0,0,0,0,0,0,0,0,0,0,0,0,0,0,0,0,0,0,0,0,0,0,0,0,0,0,0,0
</data>
 </layer>
 <layer id="4" name="Buildings" width="120" height="120">
  <data encoding="csv">
6493,6493,6493,6493,6493,6493,6493,6493,6493,6493,6493,6493,6493,6493,6493,6493,6493,6493,6493,6493,6493,6493,6493,6493,7391,6470,6470,6470,6493,6470,6504,6470,6493,6493,6493,6675,6493,6493,6497,6470,6493,6493,6493,6493,6493,6504,6470,6486,6487,6470,6493,6493,6504,6470,6470,6470,6486,6487,6406,6407,6408,6504,6470,6470,6470,6470,6754,0,0,0,0,0,0,6809,6431,6432,6433,6470,6470,6470,6470,6470,6470,6470,6470,6470,6470,6481,6482,6625,6470,6470,6470,6493,6493,6470,6470,6470,6406,6407,6408,6470,6481,6482,6470,6536,6537,6470,6470,6470,6470,6470,6470,6470,6470,6511,6512,6470,6470,6470,
6493,6493,6493,6493,6493,6493,6493,6493,6493,6493,6493,6493,6493,6493,6493,6493,6493,6493,6493,6493,6493,6493,6493,7391,6493,6470,6470,6470,6493,6470,6493,6493,6493,6493,6493,6470,6406,6407,6408,2421,2422,2423,2424,2425,2426,2427,6470,6511,6512,6470,6481,6482,6470,6470,6470,6470,6511,6512,6431,6432,6433,6600,6470,6470,6470,6675,6754,0,0,0,0,0,0,6813,6808,6470,6470,6511,6512,6470,6406,6407,6408,6470,6470,6470,6470,6470,6470,6470,6511,6512,6470,6481,6482,6470,6470,6470,6431,6432,6433,6470,6470,6470,6470,6470,6470,6470,6675,6406,6407,6408,6470,6625,6470,6536,6537,6481,6482,6470,
6493,6493,6493,6493,6493,6493,6493,6493,6493,6493,6493,6493,6493,6493,6493,6493,6493,6493,6493,6493,6493,6493,7391,6493,6470,6493,6493,6470,6497,6470,6481,6482,6470,6495,6470,6470,6431,6432,6433,2437,2438,2439,2440,2441,2442,2443,6470,6536,6537,6470,6470,6470,6470,6470,6470,6470,6536,6537,6625,6470,6470,6470,6470,6497,6470,6470,6754,0,0,0,0,0,0,6859,6692,6832,6808,6536,6537,6625,6431,6432,6433,6470,6470,6470,6470,6470,6470,6470,6536,6537,6710,6736,6836,6835,6836,6835,6836,6814,6836,6835,6836,6835,6836,6835,6832,6808,6470,6431,6432,6433,6470,6470,6470,6470,6470,6470,6470,6470,
7513,7391,6686,7512,7513,7391,6686,6493,6493,6493,6493,6493,6493,6493,6493,6493,6493,6493,6493,6493,6493,7391,6493,6470,6470,6481,6482,6470,6470,6470,6470,6470,6625,6470,6470,6470,6470,6470,6470,2453,2454,2455,6493,2457,2458,2459,6675,6470,6470,6493,6493,6493,6470,6470,6470,6470,6470,6470,6470,6470,6470,6470,6470,6470,6493,6493,6779,0,0,0,0,0,0,6884,6882,6857,6833,6832,6808,6470,6470,6470,6470,6470,6470,6470,6470,6470,6470,6470,6470,6662,6735,6761,6861,6860,6861,6860,6861,6860,6815,6860,6861,6860,6861,6860,6857,6833,6832,6808,6470,6470,6470,6470,6470,6470,6470,6470,6470,6470,
6493,7416,6711,0,0,7416,6711,6493,6493,6493,6493,6493,6493,6493,6493,6493,6493,6493,6493,6493,7391,6470,6470,6470,6470,6470,6493,6470,6470,6470,6470,6470,6470,6470,6470,6470,6470,6470,6470,6470,6470,6470,6470,6470,6470,6470,6470,6470,6493,6493,6493,6493,6493,6493,6470,6470,6470,6470,6470,6470,6470,6470,6470,6470,6481,6482,6754,0,0,0,0,0,0,6909,6907,6882,6858,6857,6833,6658,6659,6470,6470,6470,6470,6493,6675,6470,6470,6470,6470,6687,6760,6786,6886,6816,6886,6885,6886,6885,6886,6885,6886,6885,6886,6885,6882,6858,6857,6833,6659,6470,6470,6470,6470,6470,6470,6470,6470,6470,
6751,6752,6753,0,0,0,0,7391,6686,6493,6493,6493,6493,6493,6493,6493,6493,6493,6493,7391,6470,6470,6470,6470,6470,6600,2421,2422,2423,2424,2425,2426,2427,6754,6751,6751,6752,6752,6751,6752,6751,6752,6752,6753,6752,6753,6754,6775,6625,6493,6493,6493,6493,2421,2422,2423,2424,2425,2426,2427,6470,6406,6407,6408,6470,6470,6754,0,0,0,0,0,0,0,0,6909,6883,6816,6858,6683,6684,6470,6470,6470,6470,6494,6470,6470,6470,6470,6600,6712,6785,6811,6911,6910,6911,6910,6911,6910,6911,6910,6911,6910,6911,6910,6907,6883,6882,6858,6684,6470,6470,6470,6470,6470,6470,6470,6470,6470,
0,0,0,0,0,0,0,7416,6711,6686,7512,7513,7391,6686,7512,7513,7391,6686,7391,6686,6470,6493,6493,6470,6497,6470,2437,2438,2439,2440,2441,2442,2443,6754,0,0,0,0,0,0,0,0,0,0,0,0,6754,6772,6493,6493,6497,6493,6675,2437,2438,2439,2440,2441,2442,2443,6470,6431,6432,6433,6470,6625,6754,0,0,0,0,0,0,0,0,0,6908,6907,6883,6708,6759,6470,6470,6470,6470,6470,6470,6470,6470,6625,6470,6762,6810,6493,6382,6383,6600,6493,6625,6406,6407,6408,6470,6493,6493,6470,6600,6908,6907,6883,6709,6470,6470,6470,6470,6470,6470,6600,6493,6470,
0,0,0,0,0,0,0,0,7416,6711,0,0,7416,6711,6470,6470,7416,6711,7416,6711,6470,6481,6482,6470,6470,6470,2453,2454,2455,6493,2457,2458,2459,6779,0,0,0,0,0,0,0,0,0,0,0,0,6779,6470,6493,6493,6493,6493,6493,2453,2454,2455,0,2457,2458,2459,6470,6470,6470,6470,6497,6470,6754,0,0,0,0,0,0,0,0,0,0,0,6908,6733,6784,6511,6512,6675,6470,6470,6470,6470,6497,6470,6470,6787,6675,6406,6407,6408,6493,6497,6493,6431,6432,6433,6493,6511,6512,6675,6493,6493,6493,6908,6734,6470,6675,6511,6512,6470,6493,6493,6494,6470,
6543,0,0,0,0,0,0,0,0,0,0,0,0,6600,6470,6470,6470,6470,6470,6470,6470,6470,6470,6470,6470,6470,6470,6470,6470,6470,6470,6470,6470,6804,0,0,0,0,0,0,0,0,0,0,0,0,6804,6493,6493,6493,6493,6493,6493,6493,6470,0,0,0,6470,6470,6470,6470,6470,6470,6470,6470,6779,0,0,0,0,0,0,0,0,0,0,0,0,0,6809,6536,6537,6493,6470,6470,6470,6470,6470,6470,6543,6812,6456,6457,6432,6433,6493,6493,6493,6493,6493,6493,6493,6536,6537,6493,6493,6493,6493,6625,6759,6470,6470,6536,6537,6470,6481,6482,6625,6470,
6543,6543,0,0,0,0,0,0,0,0,0,0,0,0,6751,6751,6752,6752,6752,6751,6752,6751,6751,6752,6752,6752,6751,6752,6752,6753,6752,6752,6751,6753,0,0,0,0,0,6511,6512,0,0,0,0,0,6751,6752,6752,6752,6751,6752,6752,6753,0,0,0,0,0,6751,6752,6752,6751,6752,6752,6753,6804,0,0,0,0,0,0,0,0,0,0,0,0,0,6813,6835,6836,6835,6836,6814,6836,6835,6836,6835,6836,6837,6481,6482,6493,6493,6493,6493,6493,6493,6493,6493,6493,6493,6493,6493,6493,6493,6493,6470,6784,6493,6470,6470,6470,6470,6470,6470,6470,6470,
6470,6543,6543,6762,0,0,0,0,0,0,0,0,0,0,0,0,0,0,0,0,0,0,0,0,0,0,0,0,0,10657,0,0,0,0,0,0,0,0,0,6536,6537,0,0,0,0,0,0,0,0,0,0,0,0,0,0,0,0,0,0,0,0,0,0,0,0,0,0,0,0,0,0,0,0,0,0,0,0,0,0,0,6859,6860,6861,6860,6861,6860,6861,6860,6815,6860,6861,6862,6541,6541,6566,6566,6566,6566,6566,6566,6566,6566,6567,6493,6420,6493,6493,6444,6493,6470,6809,6481,6482,6470,6406,6407,6408,6470,6470,6719,
6470,6470,6470,6787,0,0,0,0,0,0,0,0,0,0,0,0,0,0,0,0,0,0,0,0,0,0,0,0,0,10697,0,0,0,0,0,0,0,0,0,0,0,0,0,0,0,0,0,0,0,0,0,0,0,0,0,0,0,0,0,0,0,0,0,0,0,6803,0,0,0,0,0,0,0,0,0,0,0,0,0,0,6884,6885,6886,6885,6886,6885,6886,6885,6886,6885,6886,6887,6660,6590,6591,6591,6591,6591,6591,6591,6591,6591,6493,6493,6493,6448,6493,6469,6493,6470,6813,6835,6832,6808,6431,6432,6433,6470,6470,6470,
6470,6470,6470,6762,0,0,0,0,0,0,0,0,0,0,0,0,0,0,0,0,0,0,0,0,0,0,0,0,0,10697,0,0,0,0,0,0,0,0,0,0,0,0,0,0,881,882,883,884,0,0,0,0,0,0,0,0,0,0,0,0,0,0,0,0,0,0,0,0,0,0,0,0,0,0,0,0,0,0,0,0,6909,6910,6911,6910,6911,6910,6911,6910,6911,6910,6911,6912,6660,6615,6639,6639,6635,6639,6639,6639,6639,6639,6493,7916,6493,6771,6493,6494,6493,6470,6859,6860,6857,6833,6832,6808,6470,6470,6470,6470,
6470,6470,6470,6787,0,0,0,0,0,0,0,0,0,0,0,0,0,0,0,0,0,0,0,0,0,0,0,0,0,10697,0,0,0,0,0,0,0,0,0,0,0,0,0,0,913,914,915,916,0,0,0,0,0,0,0,0,0,0,0,0,0,0,0,0,0,0,0,0,0,0,0,0,0,0,0,0,0,0,0,0,0,6440,6441,6442,6691,6590,6591,6591,6591,6591,6591,6590,6591,6615,6616,6493,6488,6489,6488,6489,6493,6639,6493,6625,6497,6493,6672,6493,6600,6748,6884,6816,6882,6858,6857,6833,6659,6470,6470,6470,
6470,6470,6470,6780,0,0,0,0,0,0,0,0,0,0,0,0,0,0,0,0,0,0,0,0,0,0,0,0,0,10697,0,0,0,0,0,0,0,0,0,0,0,0,0,0,945,946,947,948,0,0,0,0,0,0,0,0,0,0,0,0,0,0,0,0,0,0,0,0,0,0,889,890,0,0,0,0,0,0,0,0,0,6465,6466,6467,6716,6615,6616,6635,6639,6639,6492,6615,6616,6615,6638,6493,6513,6514,6513,6514,6493,6638,6493,7863,7864,6493,6493,6493,6493,6493,6909,6910,6907,6883,6882,6858,6684,6470,6497,6470,
6470,6479,6470,6470,6543,6543,6543,0,0,0,0,0,0,0,0,0,0,0,0,0,0,0,0,0,0,0,0,0,0,10697,0,0,0,0,0,0,0,0,0,0,0,0,0,0,0,0,0,0,0,0,0,0,0,0,0,0,0,0,0,0,0,0,0,0,0,0,0,0,0,0,921,922,0,0,0,0,0,0,0,0,0,0,6485,6613,6614,6640,6641,6641,6642,6641,6517,6640,6641,6640,6635,6642,6538,6539,6538,6539,6640,6635,6642,7888,7889,0,0,0,6406,6407,6408,6493,6493,6908,6907,6883,6709,6470,6470,6470,
6470,6504,6470,6470,0,0,0,6732,0,0,0,0,0,0,0,0,0,0,0,0,0,0,0,0,0,0,0,0,0,10737,0,0,0,0,0,0,0,0,0,0,0,0,0,0,0,0,6610,0,0,0,0,0,0,0,0,0,0,0,0,0,0,0,0,0,0,0,0,0,0,0,0,0,0,0,0,0,0,0,0,0,0,0,0,0,0,6516,6516,7890,6637,0,0,6613,6614,6754,6586,6587,0,0,0,0,0,6516,6516,0,0,0,0,0,6431,6432,6433,6493,6493,6493,6493,6908,6734,6470,6470,6470,
6470,6625,0,0,0,0,0,6543,0,0,0,0,0,0,0,0,0,0,0,0,0,0,0,0,0,0,0,0,0,10777,0,0,0,0,0,0,0,0,0,0,0,0,0,0,0,0,0,0,0,0,0,0,0,0,0,0,0,0,0,0,0,0,0,0,0,0,0,0,0,0,0,0,0,0,885,886,0,0,0,0,0,0,0,0,0,0,0,0,0,0,0,0,7890,6754,0,0,0,0,0,0,0,0,0,0,0,0,0,0,0,0,0,6493,6493,6493,6493,6493,6809,6470,6470,6470,
6470,6470,0,0,0,0,0,0,6543,0,0,0,0,0,0,0,0,0,0,0,0,0,0,0,0,0,0,0,6551,6579,6552,6579,6552,0,0,0,6552,6552,6579,6552,3093,0,0,0,0,0,0,0,0,0,0,0,0,0,0,0,0,0,0,0,0,0,0,0,0,0,887,888,0,0,0,0,0,0,917,918,0,0,0,0,0,0,0,0,0,0,0,0,0,0,0,0,7890,6754,0,0,0,0,0,0,0,0,0,0,0,0,0,0,0,0,0,6493,6493,6600,6481,6482,6834,6814,6836,6835,
6447,6470,0,0,0,0,0,0,6470,6787,0,0,0,0,0,0,0,0,0,0,0,0,0,0,0,0,6551,6579,6554,7661,0,0,8029,0,0,0,8033,0,0,7686,3109,3110,0,0,0,0,0,0,0,0,0,0,0,0,0,0,0,0,0,0,0,0,0,0,0,0,919,920,0,0,0,0,0,0,0,0,0,0,0,0,0,0,0,0,0,0,0,0,0,0,0,0,0,6754,0,0,0,0,0,0,0,0,0,0,0,0,0,0,0,0,0,6511,6512,6493,6493,6493,6859,6860,6815,6860,
6472,6470,0,0,0,0,0,0,6470,6762,0,0,0,0,0,0,0,0,0,0,0,0,0,0,0,6551,6554,0,0,0,0,0,8029,0,0,0,8033,8087,0,0,7661,6652,6552,6579,3093,0,0,0,0,0,0,0,0,0,0,0,0,0,0,0,0,0,0,0,0,0,0,0,0,0,0,0,0,0,0,0,0,0,0,0,0,0,0,0,0,0,0,0,0,0,0,0,0,6754,6588,6589,0,0,0,0,0,0,0,0,0,0,0,0,0,0,0,6536,6537,6406,6407,6408,6884,6885,6886,6885,
6497,0,0,0,0,0,0,0,6470,6787,0,0,0,0,0,0,0,0,0,0,0,0,0,0,0,6601,7661,0,0,0,0,8087,8054,0,0,0,8033,0,0,0,0,0,0,0,3109,3110,0,0,0,0,0,0,0,0,0,0,0,0,0,0,0,0,0,0,0,0,0,0,0,0,0,0,0,0,0,0,0,0,0,0,0,0,0,0,0,0,0,0,0,0,0,0,0,6779,6613,6614,0,0,0,0,0,0,0,0,0,6494,6625,6600,0,6481,6482,6493,6493,6431,6432,6433,6909,6910,6911,6910,
6600,0,0,0,0,0,0,0,6470,6762,0,0,0,0,0,0,0,0,0,0,0,0,0,0,0,3031,0,0,0,0,0,0,8029,0,0,0,8033,0,0,0,0,0,0,0,0,6652,3093,0,0,0,0,0,0,0,0,0,0,0,0,0,0,0,0,0,0,0,0,0,0,0,0,881,882,883,884,0,0,0,0,0,0,0,0,0,0,0,0,0,0,0,0,0,0,6804,6751,6752,6752,6753,6752,6752,6752,6753,6752,6752,6753,6752,6752,6753,6752,6752,6752,6752,6751,6753,6802,6752,6752,6751,6752,6752,
0,0,0,0,0,0,0,0,0,6787,0,0,0,0,0,0,0,0,0,0,0,0,0,0,0,3063,0,0,0,0,0,0,8054,0,0,0,8033,0,0,0,0,0,0,0,0,7661,3109,3110,0,0,0,0,0,0,0,0,0,0,0,0,0,0,0,0,0,0,0,0,0,0,0,913,914,915,916,0,0,0,0,0,0,0,0,0,0,0,0,0,0,0,0,0,0,0,0,0,0,0,0,0,0,0,0,0,0,0,0,0,0,0,0,0,0,0,0,0,0,0,0,6600,
0,0,0,0,0,0,0,0,0,6543,0,0,0,0,0,0,0,0,0,0,0,0,0,0,6551,6554,0,0,0,0,0,8087,8029,0,0,0,8033,0,0,0,0,0,0,0,0,0,0,6603,0,0,0,0,0,0,0,0,0,0,0,0,0,1086,1087,1088,1089,0,0,0,0,0,0,945,946,947,948,0,0,0,0,0,0,0,0,0,0,0,0,0,0,0,0,0,0,0,0,0,0,0,0,0,0,0,0,0,0,0,6803,0,0,6497,0,0,0,0,0,0,0,0,0,0,
0,0,0,0,0,0,0,0,0,0,6543,0,0,0,0,0,0,0,0,0,0,0,0,6551,6554,0,0,0,0,0,0,0,8054,0,0,0,8058,0,0,0,0,0,0,0,0,0,0,6628,0,0,0,0,0,0,0,0,0,0,0,0,0,1118,1119,1120,1121,0,0,0,0,0,0,0,0,0,0,0,0,0,0,0,0,0,0,0,0,0,0,0,0,0,0,0,0,0,0,0,0,0,0,0,0,0,0,0,0,0,0,0,0,0,0,0,0,0,0,0,0,0,0,0,
6470,0,0,0,0,0,0,0,0,0,6470,6543,0,0,0,0,0,0,0,0,0,0,6551,6554,0,0,0,0,0,0,0,0,8079,8080,8081,8082,8083,8087,0,0,0,0,0,0,0,0,3018,0,0,0,0,0,0,0,0,0,0,0,0,0,0,1150,1151,1152,1153,1154,1155,0,0,0,0,0,0,0,0,0,0,0,0,0,0,0,0,0,0,0,0,0,0,0,0,0,0,0,0,0,0,0,0,0,0,0,0,0,0,0,0,0,0,0,0,0,0,0,0,0,0,0,0,0,
6675,0,0,0,0,0,0,0,0,0,0,6555,6556,0,0,0,0,0,0,0,0,0,6601,0,0,0,0,0,0,0,0,0,0,0,0,0,0,0,0,0,0,0,0,0,0,0,3095,0,0,0,0,0,0,0,0,0,0,0,0,0,0,0,0,0,0,0,0,0,0,0,0,0,0,0,0,0,0,0,0,0,0,0,0,0,0,0,0,0,0,0,0,0,0,0,0,0,0,0,0,0,0,0,0,0,0,0,0,0,0,6600,0,0,0,0,0,0,0,0,0,0,
6470,6470,6470,6780,6806,0,0,6807,0,6481,6482,6470,6470,6543,0,0,0,0,0,0,0,0,3031,0,0,0,0,0,0,0,0,0,0,0,0,0,0,0,0,0,0,0,0,0,0,0,3111,0,0,0,0,0,0,0,0,0,0,0,0,0,0,0,0,0,0,0,0,0,0,0,0,0,0,0,0,0,0,0,6636,0,0,0,0,0,0,0,0,0,0,0,0,0,0,0,0,0,0,0,0,0,0,0,0,6751,6752,6751,6752,6751,6802,6753,6751,6752,6753,6752,6752,6753,6752,6751,6752,6753,
6470,6481,6482,6470,6812,0,0,6809,6470,6470,6470,6470,6470,6470,6543,0,0,0,0,0,0,0,3047,0,0,0,0,0,0,0,0,0,0,0,0,0,0,0,0,0,0,0,0,0,0,0,6652,6553,0,0,0,0,0,0,0,10656,0,0,0,10656,0,0,0,0,0,0,0,0,0,0,0,0,0,0,0,0,0,0,0,0,0,0,0,0,0,0,0,0,0,0,0,0,0,0,0,0,0,0,0,0,0,7197,7198,6493,6493,6493,7588,7589,7590,6493,6470,6470,6470,6470,6470,6481,6482,6675,6470,6470,
6470,6662,6663,6835,6837,0,0,6834,6814,6832,6808,6470,6470,6470,6470,6543,0,0,0,0,0,0,3063,0,0,0,0,0,0,0,0,0,0,0,0,0,0,0,0,0,0,0,0,0,0,7661,0,6603,0,0,0,0,0,0,0,0,0,0,0,0,10656,0,0,0,0,0,0,0,0,1050,1051,0,0,0,0,0,0,0,0,0,881,882,883,884,0,0,0,0,0,0,0,0,0,0,0,0,0,0,0,0,0,7222,7223,6493,6493,6493,7557,7558,7559,6493,6675,6493,6691,6406,6407,6408,6470,6470,6497,6470,
6470,6687,6860,6861,6862,0,0,6859,6860,6861,6833,6658,6659,6470,6470,6470,6762,10733,10734,10736,10734,10735,6601,0,0,0,0,0,0,0,0,0,0,0,0,0,0,0,0,0,0,0,0,0,0,0,0,6652,6579,6553,0,0,0,0,0,0,0,0,0,0,0,0,0,0,0,0,0,0,0,1082,1083,0,0,0,0,0,0,0,0,0,913,914,915,916,0,0,0,0,0,0,0,0,0,0,0,0,0,0,0,0,0,7247,7248,7249,7250,7251,7582,7583,7584,6493,6493,6497,6716,6431,6432,6433,6493,6493,6493,6493,
6470,6712,6885,6886,6887,0,0,6884,6885,6886,6858,6683,6684,6470,6470,6470,6787,0,0,0,0,0,6626,0,0,0,0,0,0,0,0,0,0,0,0,0,0,0,0,0,0,0,0,0,0,0,0,0,0,6652,6553,0,0,0,0,0,0,0,0,0,0,0,0,0,0,0,0,0,0,0,0,0,0,0,1050,1051,0,0,0,0,945,946,947,948,0,0,0,0,0,0,0,0,0,0,0,0,0,0,0,0,0,7272,7273,7274,7275,7276,7560,7561,7562,6751,6753,6752,6802,6753,6752,6751,6752,6753,6752,6753,
6470,6737,6910,6911,6912,0,0,6909,6910,6907,6883,6708,6709,6470,6470,6470,6762,0,0,0,0,0,0,3127,0,0,0,0,0,0,0,0,0,0,0,0,0,0,0,0,0,0,0,0,0,0,0,0,7661,7686,6652,6553,0,0,0,0,0,0,0,0,0,0,0,0,0,0,0,0,0,0,0,0,0,0,1082,1083,0,0,0,0,0,0,0,0,0,0,0,0,0,0,0,0,0,0,0,0,0,0,0,0,0,0,0,0,0,0,7585,7586,7587,0,0,0,0,0,0,0,0,0,6600,0,
6470,6762,0,0,0,0,0,0,0,6600,6908,6733,6734,6470,6504,6470,6787,0,0,0,0,0,0,0,6580,0,7686,0,0,0,0,0,0,0,0,0,0,0,0,0,0,0,0,0,0,0,0,0,0,0,0,6603,0,0,0,0,0,0,10656,0,0,0,0,0,0,0,0,0,0,0,0,0,0,0,0,0,0,0,0,0,0,0,0,0,0,0,0,881,882,883,884,0,0,0,0,0,0,0,0,0,0,0,0,0,0,0,0,6516,0,0,0,0,0,0,0,0,0,0,0,0,
6470,6787,0,0,0,0,0,0,0,0,0,0,6809,6470,6470,6470,6812,0,0,0,0,0,0,0,0,3127,0,0,0,0,0,0,0,0,0,0,0,0,0,0,0,0,0,0,0,0,0,0,0,0,0,3079,0,0,0,0,0,0,0,0,0,0,0,0,0,0,1050,1051,0,0,0,0,0,0,0,0,0,0,0,0,0,0,0,0,0,0,0,913,914,915,916,0,0,0,0,0,0,0,0,0,0,0,0,0,0,0,0,0,0,0,0,0,0,0,0,0,0,0,0,0,
6470,6762,0,0,0,0,0,0,0,0,0,0,6813,6835,6836,6835,6837,0,0,0,0,0,0,0,0,0,6580,6627,0,0,0,0,0,0,0,0,0,0,0,0,0,0,0,0,0,0,0,0,0,0,0,3095,0,0,0,0,0,0,0,0,0,0,0,0,0,0,1082,1083,0,0,0,0,0,0,0,0,0,0,0,0,0,0,0,0,0,0,0,945,946,947,948,0,0,0,0,0,0,0,0,0,0,0,0,0,0,0,0,0,0,0,0,0,0,0,0,0,0,0,0,6600,
6470,6787,0,0,0,0,0,0,0,0,0,0,6859,6860,6861,6815,6862,0,0,0,0,0,0,0,0,0,0,0,6580,6627,0,0,0,0,0,0,0,0,0,0,0,0,0,0,0,0,0,0,0,0,0,3111,0,0,0,0,0,0,0,0,0,0,0,0,0,0,0,0,0,0,0,0,0,0,0,1050,1051,0,0,0,0,0,0,0,0,0,0,0,0,0,0,0,0,0,0,0,0,0,0,0,0,0,6551,6579,6552,6579,6552,6579,6552,6579,6552,6579,6552,6579,6552,6579,6552,6579,6552,6579,
6470,6543,0,0,0,0,0,0,0,0,0,0,6884,6885,6886,6885,6887,0,0,0,0,0,0,0,0,0,0,0,0,0,6580,0,0,0,0,0,0,0,0,0,0,0,0,0,0,0,0,0,0,0,0,6628,0,0,0,0,0,0,0,881,882,883,884,0,0,0,0,0,0,0,0,0,0,0,0,1082,1083,0,0,0,0,0,0,0,0,0,0,0,0,0,0,0,0,0,0,0,0,0,0,0,0,3030,6554,7661,6577,6577,6577,6577,6577,6577,6577,6577,6577,6577,6577,6577,7661,6577,6577,6577,
6470,6470,6470,0,6470,0,0,0,881,882,883,884,6909,6910,6911,6910,6912,0,0,0,0,0,0,0,0,0,0,0,0,0,0,6580,6627,6627,6627,0,0,0,0,0,7686,0,0,0,7661,0,0,0,0,0,3144,0,0,0,0,0,0,0,0,913,914,915,916,0,0,0,0,0,0,0,1050,1051,0,0,0,0,0,0,0,0,0,0,0,0,0,0,0,0,0,0,0,0,0,0,0,0,0,0,0,6551,3189,3046,7686,0,0,0,0,0,0,0,0,0,0,0,0,0,0,0,0,0,
6470,6470,6685,6720,0,0,0,0,913,914,915,916,0,0,0,0,0,0,0,0,0,0,0,0,0,0,0,0,0,0,0,0,0,0,0,6580,6627,3157,3158,3159,6627,6627,3157,3158,3159,3157,3158,3159,6627,6581,0,0,0,0,0,0,0,0,0,945,946,947,948,0,0,0,0,0,0,0,1082,1083,0,0,0,0,0,0,0,0,0,0,0,0,0,0,0,0,0,0,0,0,3030,6579,6552,6579,6552,6579,6552,6554,0,6996,6602,0,0,0,0,0,0,0,0,0,0,0,0,0,0,0,0,0,
6470,6470,6470,6543,6787,10733,10734,10735,945,946,947,948,0,0,0,0,0,0,0,0,0,0,0,0,0,0,0,0,0,0,0,0,0,0,0,0,0,0,0,0,0,0,0,0,0,0,0,0,0,0,0,0,0,0,0,0,0,0,0,0,0,0,0,0,0,0,0,0,0,0,0,0,0,0,0,0,0,0,0,0,0,0,6551,6579,6552,6579,6552,6579,6552,6579,6579,3189,3046,7661,7686,6577,6577,6577,6577,0,0,0,0,0,0,0,0,0,0,0,0,0,0,0,0,0,0,0,0,0,
6625,6504,6744,6745,2504,0,0,0,0,0,0,0,0,0,0,0,0,0,0,0,0,0,0,0,0,0,0,0,0,0,0,0,0,0,0,0,0,0,0,0,0,0,0,0,0,0,0,0,0,0,0,0,0,0,0,0,0,0,0,0,0,0,0,0,0,0,0,0,0,0,0,0,0,0,0,0,0,0,0,0,0,3030,6554,6577,6577,6577,6577,6577,6577,6577,6577,6577,0,0,0,0,0,0,0,0,0,0,0,0,0,0,0,0,0,0,0,0,0,0,0,0,0,0,0,0,
2507,2508,2527,2528,2520,0,0,0,0,0,0,0,0,0,0,0,0,0,0,0,0,0,0,0,0,0,0,0,0,0,0,0,0,0,0,0,0,0,0,0,0,0,0,0,0,0,0,0,0,0,0,0,0,0,0,0,0,0,0,0,0,6610,0,0,0,0,0,6636,0,0,0,0,0,0,0,0,0,0,0,0,3045,3046,6996,0,0,0,0,0,0,0,6602,6602,0,0,0,0,0,0,0,0,0,0,0,0,0,0,0,0,0,0,0,0,0,0,0,0,0,0,0,0,
2523,2524,2543,2544,2536,0,0,0,0,0,0,0,0,0,0,0,0,0,0,0,0,0,0,0,0,0,0,0,0,0,0,0,0,0,0,0,0,0,0,0,0,0,0,0,0,881,882,883,884,0,0,0,0,0,0,0,0,0,0,0,0,0,0,0,0,0,0,0,0,0,0,0,0,0,0,0,0,0,0,6551,6554,0,0,0,0,0,0,0,0,0,6602,6602,0,0,0,0,0,0,0,0,0,0,0,0,0,0,0,0,0,0,0,0,0,0,0,0,0,0,0,0,
6762,0,0,0,0,0,0,0,0,0,0,0,0,0,0,0,0,0,0,0,0,0,0,0,0,0,0,0,0,0,0,0,0,0,0,0,0,0,0,0,0,0,0,0,0,913,914,915,916,0,0,0,0,0,0,0,0,0,0,0,0,0,0,0,0,0,0,0,881,882,883,884,0,0,0,0,0,0,3030,6554,7686,0,0,0,0,0,0,0,0,0,0,0,0,0,0,0,0,0,0,0,0,0,0,0,0,0,0,0,0,0,0,0,0,0,0,0,0,0,0,0,
6787,0,0,0,0,0,0,0,0,0,0,0,0,0,0,0,0,0,0,0,0,0,0,0,0,0,0,0,0,0,0,0,0,0,0,0,0,0,0,0,0,0,0,0,0,945,946,947,948,0,0,0,0,0,0,0,0,0,0,0,0,0,0,0,0,0,0,0,913,914,915,916,0,0,0,0,0,3045,3046,0,0,0,0,0,0,0,0,0,0,0,0,0,0,0,0,0,0,0,0,0,0,0,0,0,0,0,0,0,0,0,0,0,0,0,0,0,0,0,0,0,
6780,0,0,0,0,0,0,0,0,0,0,0,0,0,0,0,0,0,0,0,0,0,0,0,0,0,0,0,0,0,0,0,0,0,0,0,0,0,0,0,0,0,0,0,0,0,0,0,0,0,0,0,0,0,0,0,0,0,0,0,0,0,0,0,0,0,0,0,945,946,947,948,0,0,0,0,0,6576,0,0,0,0,0,0,3157,3158,3159,6627,0,0,0,0,0,0,0,0,0,0,0,0,0,0,0,0,0,0,0,0,0,0,0,0,0,0,0,0,0,0,0,0,
6694,6694,6695,6780,0,0,0,0,0,0,0,0,0,0,0,0,0,0,0,0,0,0,0,0,0,0,0,0,0,0,0,0,0,0,0,0,0,0,0,0,0,0,0,0,0,0,0,0,0,0,0,0,0,0,0,0,0,0,0,0,0,0,0,0,0,0,0,0,0,0,0,0,0,0,0,0,0,6601,6493,6493,6493,6493,6493,6581,0,0,0,0,3128,0,0,0,0,0,0,0,0,0,0,0,0,0,0,0,7686,7661,6627,6627,6627,6627,6627,6627,6627,6627,6627,6627,6627,6627,6627,0,
6470,6470,6470,6695,6732,0,0,0,0,0,0,0,0,0,0,0,0,0,0,0,0,0,0,0,0,0,0,0,0,0,0,0,0,0,0,0,0,0,0,0,0,0,0,0,0,0,0,0,0,0,0,0,0,0,0,0,0,0,0,0,0,0,0,0,0,0,0,0,0,0,0,0,0,0,0,0,0,7147,7148,7149,7148,7149,7150,0,0,0,0,0,0,3017,0,0,0,0,0,0,0,0,0,0,0,0,0,6677,6627,6581,6470,0,6470,6470,6470,6470,6781,6782,6470,6470,6470,6470,6470,6470,
6470,6470,6470,6470,6518,0,0,0,0,0,0,0,0,0,0,0,0,0,0,0,0,0,0,0,0,0,0,0,0,0,0,0,0,0,0,0,0,0,0,0,0,0,0,0,0,0,0,0,0,0,0,0,0,0,0,0,0,0,0,0,0,0,0,0,0,0,0,0,0,0,0,0,0,0,0,0,6551,6651,6493,6493,6493,6493,3079,0,0,0,0,0,0,3063,0,0,0,0,0,0,0,0,0,0,0,6627,6627,6628,6493,6470,6470,0,6493,6805,2216,6470,6511,6512,6470,6470,6470,6470,6600,6470,
6470,6470,6675,6470,6470,6762,0,0,0,0,0,0,0,0,0,0,0,0,0,0,0,0,0,0,0,0,0,0,0,0,0,0,0,0,0,0,0,0,0,0,0,0,0,0,0,0,0,0,881,882,883,884,0,0,0,0,0,0,0,0,0,0,3030,6579,6552,6579,6552,6579,6552,6552,6579,6552,6579,6552,6579,6552,6554,0,0,0,0,0,3111,0,0,0,0,0,0,6601,0,0,0,0,0,6627,6627,0,0,0,6581,6493,6493,881,882,883,884,6493,6805,2216,6470,6470,6536,6537,6470,6470,6493,6493,6493,6600,
6470,6470,0,0,0,6787,0,0,0,0,0,0,0,0,0,0,0,0,0,0,0,0,0,0,0,0,0,0,0,0,0,0,0,0,0,0,0,0,0,0,0,0,0,0,0,0,0,0,913,914,915,916,0,0,0,0,0,0,0,0,3030,3189,3046,7661,0,0,0,0,0,0,7661,7686,6577,6577,6577,6577,0,0,0,0,0,0,6652,6552,6553,0,6551,7177,7177,6651,0,0,0,6627,6581,0,0,3128,6627,6581,6493,6493,6493,913,914,915,916,6805,2216,6493,6470,6470,6470,6470,6470,6470,6493,6493,6493,6470,
6470,0,0,0,0,2504,0,0,0,0,0,0,0,0,0,0,0,0,0,0,0,0,0,0,0,0,0,0,0,0,0,0,0,0,0,0,0,0,0,0,0,0,0,0,0,0,0,0,945,946,947,948,0,0,0,0,0,0,6551,3189,3046,0,0,0,0,0,0,0,0,0,0,0,0,0,0,0,0,0,0,0,0,0,0,6577,6652,6552,6554,7227,7228,6493,0,7686,6581,0,0,0,0,0,0,0,0,6493,6470,945,946,947,948,6759,6493,6493,6470,6493,6493,6470,6470,6470,6431,6432,6433,6470,
6470,6470,6470,2507,2508,2520,0,0,0,0,0,0,0,0,0,0,0,0,0,0,0,0,0,0,0,0,8743,8744,8745,8746,8747,8748,8749,8750,8751,0,0,0,0,0,0,0,0,0,0,0,0,0,0,0,0,0,0,0,0,0,3030,6552,6554,0,0,0,0,0,0,0,0,0,0,0,0,0,0,0,0,0,0,0,0,0,0,0,0,0,0,6577,6577,7278,7253,6493,7661,6606,0,0,0,0,0,0,0,0,0,0,0,0,0,0,0,6784,6504,6493,6470,6481,6482,6470,6470,6470,6470,6470,6470,6470,
6470,6470,6470,2523,2524,2536,0,0,0,0,0,0,0,0,0,0,0,0,0,0,0,0,0,0,0,0,8768,8769,8770,8771,8772,8773,8774,8775,8776,0,0,0,0,0,0,0,0,0,0,0,0,0,0,0,0,0,0,0,3030,3189,3046,0,0,0,0,0,0,0,0,0,0,0,0,0,0,0,0,0,0,0,0,0,0,0,0,0,0,0,0,0,6493,7227,7228,6493,6627,6628,0,0,0,984,0,0,0,0,0,0,0,0,0,0,0,6759,6493,6493,0,6470,6470,6470,6744,6744,0,0,0,0,
6470,6470,6470,2504,6470,6454,0,0,0,0,0,0,0,0,0,0,0,0,0,0,0,0,0,0,0,0,8793,8794,8795,8796,8797,8798,8799,8800,8801,0,0,0,0,0,0,0,0,0,0,0,0,0,0,0,0,0,3030,3189,3046,0,0,0,0,0,0,0,0,0,0,0,0,0,0,0,0,0,0,0,0,0,0,0,0,0,0,0,0,0,0,0,6493,7252,7252,6581,0,0,0,0,6600,0,0,0,0,0,0,0,983,0,0,0,0,6784,6493,6493,6470,6470,6470,6543,6470,6470,6470,6470,6470,6470,
2514,6814,2508,2520,6470,6479,0,0,0,0,0,0,0,0,6812,0,0,6809,0,0,0,0,0,0,0,0,0,0,8820,8821,8822,8823,8824,0,0,0,0,0,0,0,0,0,0,0,0,0,0,0,0,3030,6552,3189,3046,0,0,0,0,0,0,0,0,0,0,0,0,0,0,0,0,0,0,0,0,0,0,0,0,0,0,0,0,0,0,0,0,0,6606,0,0,0,0,0,0,0,0,0,0,0,0,0,0,0,0,0,0,0,0,6783,6493,6470,0,0,6543,6493,6470,6470,6470,6470,6470,6470,
0,0,6461,6462,6470,6504,0,0,6470,0,6470,6470,6710,6736,6837,0,0,6834,6835,6836,3628,3629,0,0,0,0,0,0,0,0,0,0,0,0,0,0,0,0,0,0,0,0,0,0,0,0,6551,6579,3189,3046,0,0,0,0,0,0,0,0,0,0,0,0,0,0,0,0,0,0,0,0,0,0,0,0,0,0,0,0,0,0,0,0,0,0,0,6627,6628,0,0,0,0,0,0,0,0,0,0,0,0,0,0,0,0,0,0,0,6783,6493,6493,0,0,6543,6481,6482,6470,6470,6470,6470,6470,6470,
0,0,6511,6512,6470,6470,0,0,6470,6470,6710,6736,6735,6815,6862,0,0,6859,6860,6861,6857,6833,3608,3609,0,0,0,0,0,0,0,0,0,0,0,0,0,0,0,0,0,0,0,0,3030,6552,6554,0,0,0,0,0,0,0,0,0,0,0,0,0,0,0,0,0,0,0,0,0,0,0,0,0,0,0,0,6627,3157,3158,3159,0,0,7686,0,0,3143,0,0,0,0,0,0,0,0,0,0,0,0,0,0,0,0,0,0,0,0,6759,6543,6543,6543,6543,6543,6470,6470,6470,6470,6470,6470,6470,6504,6470,
7510,7511,6721,6744,6744,6470,6470,6470,6710,6736,6735,6761,6760,6786,6887,0,0,6884,6885,6886,6816,6858,6683,3532,0,0,0,0,0,0,0,0,0,0,0,0,0,0,0,0,0,6551,6579,3189,3046,0,0,0,0,0,0,0,0,0,0,0,0,6677,6627,6627,6627,0,0,0,0,0,0,0,0,6627,3157,3158,3159,6627,3143,0,0,0,0,6580,3157,3158,3159,6581,10657,0,0,0,0,0,0,0,0,0,0,0,0,981,0,0,0,0,0,0,0,6784,6470,6494,6470,6431,6432,6433,6470,6675,6470,6470,6470,6470,6470,6470,
6748,6748,6720,6543,6543,6470,6662,6663,6735,6761,6760,6786,6785,6811,6912,0,0,6909,6910,6911,6907,6883,6708,3557,0,0,0,0,0,0,0,0,0,0,0,0,0,0,0,3030,6552,6554,0,0,0,0,0,0,0,0,0,0,0,0,0,0,6677,6628,0,3719,0,6605,0,0,0,0,0,6627,6581,0,0,0,0,0,0,0,0,0,0,0,0,0,0,0,10697,0,0,0,0,0,0,0,0,0,0,0,0,0,0,0,0,982,0,0,0,6809,6470,6470,6470,6470,6470,6470,6470,6470,6470,6504,6470,6600,6493,6470,
6774,6697,6720,6543,6543,6470,6687,6861,6760,6816,6785,6811,6810,0,0,0,0,0,0,0,0,6908,6733,3632,0,0,0,0,0,0,0,0,0,0,0,0,0,6551,3189,3046,0,0,0,0,0,0,0,6677,6627,6627,6627,6627,6627,6627,6627,6627,6628,0,0,3643,3644,6601,0,0,0,6627,3144,0,0,0,0,0,0,0,0,0,0,0,0,0,0,0,0,0,10697,0,0,0,0,0,0,0,0,0,0,0,0,0,0,0,0,0,0,0,0,6834,6835,6836,6832,6808,6493,6497,6470,6470,6470,6470,6470,6470,6470,6470,
6719,6719,6720,6543,6543,6470,6712,6886,6785,6811,6810,0,0,0,0,0,0,0,0,0,0,0,0,3657,0,0,0,0,0,0,0,0,0,0,0,0,0,6601,0,0,0,0,0,0,0,0,6677,6628,0,0,0,0,0,0,0,0,0,0,0,0,0,6601,0,0,3018,0,0,0,0,0,0,0,0,0,0,0,0,0,0,0,0,0,0,0,10697,0,0,0,0,0,0,0,0,10691,10692,0,0,0,0,0,0,0,0,0,0,6859,6860,6861,6857,6833,6832,6808,6470,6470,6470,6470,6470,6470,6470,6470,
6672,6672,6720,6543,6543,6622,6737,6911,6810,0,0,0,0,0,0,0,0,0,0,0,0,0,0,6834,3683,3684,3683,3684,3683,3628,3629,0,0,0,0,0,0,6601,0,0,0,0,0,0,6627,6627,6628,3630,3631,3684,3683,3684,3628,3629,0,0,0,0,0,0,0,6601,0,0,3095,0,0,0,0,0,0,0,0,0,0,0,0,0,0,0,0,0,0,0,10697,0,0,0,0,0,0,0,0,10731,10732,0,0,0,0,0,0,0,0,0,0,6884,6885,6886,6816,6858,6857,6833,6836,6835,6658,6659,6470,6470,6470,6470,
6719,6719,6720,6543,6543,6470,6762,0,0,0,0,0,0,0,0,0,0,0,0,0,0,0,0,6859,6860,6861,6860,6861,6860,6857,6833,3683,3684,3683,3684,3628,3629,6601,0,0,0,0,0,6606,0,3630,3631,6735,6761,6861,6860,6861,6857,6833,3683,3684,3628,3629,0,0,0,6601,0,0,3111,0,0,0,0,0,0,0,0,0,0,0,0,0,0,0,0,0,0,0,10737,0,0,0,0,0,0,0,0,0,0,0,0,0,0,0,0,0,0,0,0,6909,6910,6911,6907,6883,6882,6858,6861,6860,6683,6684,6470,6470,6470,6470,
5649,6719,6720,6543,6543,6470,6787,0,0,0,0,0,0,0,0,0,0,0,0,0,0,0,0,6884,6885,6886,6885,6886,6885,6882,6858,6860,6861,6860,6861,6857,6833,2581,2582,2583,2582,2582,2583,2584,3684,6735,6761,6760,6786,6886,6885,6886,6882,6858,6860,6861,6857,6833,3628,3629,0,6601,0,0,6603,0,0,0,0,0,0,0,0,0,0,0,0,0,0,0,0,0,0,0,10777,0,0,0,0,0,0,0,0,0,0,0,0,0,0,0,0,0,0,0,0,0,0,6470,6470,6908,6907,6883,6886,6885,6708,6709,6470,6470,6504,6470,
6719,6672,6720,6543,6543,6470,6762,0,0,0,0,0,0,0,0,0,0,0,0,0,0,0,0,6909,6910,6911,6910,6911,6910,6907,6883,6885,6886,6885,6886,6882,6858,2597,6860,6861,6860,6860,6861,6860,0,6760,6786,6785,6811,6911,6910,6911,6907,6883,6885,6886,6882,6858,6857,6833,3683,2581,2582,2583,2584,3683,3684,3683,3684,3628,3629,0,0,0,0,0,0,0,0,6710,6736,6836,6835,6836,6835,6836,6835,6836,6832,6808,6812,0,0,6809,0,0,0,6625,6622,0,0,0,0,0,0,0,6675,6470,6470,6493,6493,6908,6911,6910,6733,6734,6470,6470,6470,6470,
6719,6719,6720,6543,6543,6470,6787,0,0,0,0,0,0,0,0,0,0,0,0,0,0,0,0,0,0,0,0,0,0,0,6908,6910,6911,6910,6911,6907,6883,2613,6885,6886,6885,6885,6886,6885,0,6785,6811,6810,0,0,0,0,0,6908,6910,6911,6907,6883,6882,6858,6860,2597,6860,6861,6860,6860,6861,6860,6861,6857,6833,3628,3629,0,0,0,0,6710,6736,6735,6761,6861,6860,6861,6860,6861,6860,6861,6857,6833,6837,0,0,6834,6835,6836,6835,6836,6832,6808,6470,6470,6470,0,0,0,6493,6470,6470,6493,6493,6493,6470,6470,6470,6809,6470,6470,6625,6470,
6719,6719,6720,6543,6470,6470,6762,0,0,0,0,0,0,0,0,0,0,0,0,0,0,0,0,0,0,0,0,0,0,0,0,0,0,0,0,6551,6552,2750,2750,2750,2750,2750,2750,2750,2671,6810,0,0,0,0,0,0,0,0,0,0,0,6908,6907,6883,6885,2613,6885,6886,6885,6885,6886,6885,6886,6882,6858,6857,6833,6835,6836,6835,6836,6735,6761,6760,6786,6886,6885,6886,6885,6886,6885,6886,6816,6858,6862,0,0,6859,6860,6861,6860,6861,6857,6833,8001,8002,8003,6836,6658,6659,6493,6493,6470,6470,6470,6470,6470,6470,6470,6813,6658,6659,6470,6470,
6744,6744,6745,6520,0,0,6787,0,0,0,0,0,0,0,0,0,0,0,0,0,0,0,0,0,0,0,0,0,0,0,0,0,0,3030,6552,6651,6493,6493,6493,6493,6493,6493,6493,6493,2703,0,0,0,0,0,0,0,0,0,0,0,0,0,0,6908,6910,6579,6579,6579,6579,6553,6911,6910,6911,6907,6883,6882,6858,6860,6861,6860,6861,6760,6786,6785,6811,6911,6910,6911,6910,6911,6910,6911,6907,6883,6887,0,0,6884,6885,6886,6885,6886,6816,6858,2306,2307,2308,6861,6860,6684,6493,6493,6470,6493,6511,6512,6470,6470,6470,6859,6860,6684,6470,6470,
6543,6518,6543,0,0,0,2504,0,0,0,0,0,0,0,0,0,0,0,0,0,0,0,0,0,0,0,0,0,0,0,0,0,3045,3046,0,0,6493,6493,6493,6493,6493,6493,6493,6493,2703,0,0,0,0,0,0,0,0,0,0,0,0,0,0,0,3047,6493,6493,6493,6493,6603,0,0,0,0,6908,6907,6883,6885,6886,6885,6886,6785,6811,6810,0,0,0,0,0,0,0,0,0,6908,6912,0,0,6909,6910,6911,6910,6911,6907,6883,2322,2323,2324,6886,6885,6709,6493,6493,6493,6470,6536,6537,6470,6470,6470,6884,6885,6709,6470,6470,
2508,6836,6835,6836,2527,2528,2520,0,0,0,0,0,0,0,0,0,0,0,0,0,0,2669,2670,2671,0,0,0,0,0,0,0,0,6601,0,0,0,0,0,0,0,0,0,0,0,2719,0,0,0,0,0,0,0,0,0,0,0,0,0,0,0,3063,6493,6493,6493,6493,6652,6553,0,0,0,0,0,6908,6910,6911,6910,6911,6810,0,0,0,0,0,0,0,0,0,0,0,0,0,0,0,0,0,0,0,0,0,6908,2338,2339,2340,6911,6910,6734,6497,6470,6470,6470,6470,6493,6493,6470,6470,6909,6910,6734,6470,6470,
6857,6886,6760,6786,2203,2530,2536,0,0,0,0,0,0,0,0,0,0,0,0,7916,0,2685,2686,2687,0,0,0,0,0,0,0,6551,6554,0,0,0,0,0,0,0,2718,2718,2718,3152,0,0,0,0,0,0,0,0,0,0,0,0,0,0,0,0,6601,0,0,0,0,0,3079,0,0,0,0,0,0,0,0,0,0,0,0,0,0,0,0,0,0,0,0,0,0,0,0,0,0,0,0,0,0,0,0,0,0,0,0,0,0,6809,6470,6470,6470,6470,6470,6481,6482,6470,6470,6470,6470,6759,6470,6470,
2525,6785,6785,6885,2545,881,882,883,884,0,0,0,0,0,0,0,0,0,0,0,0,2717,2718,2719,0,0,0,0,0,0,0,6601,0,0,0,0,0,0,0,3152,0,0,0,0,0,0,0,0,0,0,0,0,0,0,0,0,0,0,0,0,6626,0,0,0,0,0,3095,0,0,0,0,0,0,0,0,0,0,0,0,0,0,0,0,0,0,0,0,0,0,0,0,0,0,0,0,0,0,0,0,0,0,0,0,0,0,6834,6832,6808,6470,6625,6470,6470,6470,6470,6470,6470,6470,6784,6470,6470,
0,0,7149,7148,0,913,914,915,916,0,0,0,0,0,0,0,0,0,0,0,0,0,0,0,0,0,0,0,0,0,0,6601,0,0,0,0,0,0,2831,0,0,0,0,0,0,0,0,0,0,0,0,0,0,0,0,0,0,0,0,0,0,6580,0,0,0,0,3111,0,0,0,0,0,0,0,0,0,0,0,0,0,0,0,0,0,0,0,0,0,0,0,0,0,0,0,0,0,0,0,0,0,0,0,0,0,0,6859,6857,6833,6832,6808,6470,6470,6600,6470,6493,6470,6470,6759,6431,6432,
0,6787,0,0,7115,945,946,947,948,0,0,0,0,0,0,0,0,0,0,0,0,0,0,0,0,0,0,0,0,0,0,3031,0,0,0,0,0,2733,0,0,0,0,0,0,0,0,0,0,0,0,0,0,0,0,0,0,0,0,0,0,0,0,6605,0,0,0,6652,6553,0,0,0,0,0,0,0,0,0,0,0,0,0,0,0,0,0,0,0,0,0,0,0,0,0,0,0,0,0,0,0,0,0,0,0,0,0,6884,6882,6858,6857,6833,6832,6808,6470,6470,6504,6470,6470,6784,6470,6470,
0,6812,6886,6885,2140,7115,0,0,0,0,0,0,0,0,0,0,0,0,0,0,0,0,0,0,0,0,0,0,0,0,0,3047,0,0,0,0,0,2749,2671,0,0,0,0,0,0,0,0,0,0,0,0,0,0,0,0,0,0,0,0,0,0,0,7147,7148,7149,7148,7149,7150,0,0,0,0,0,0,0,0,0,0,0,0,0,0,0,0,0,0,0,0,0,0,0,0,0,0,0,0,0,0,0,0,0,0,0,0,0,6909,6907,6883,6882,6858,6857,6833,6658,6659,6470,6675,6470,6759,6470,6470,
6836,6837,6885,6885,2156,6833,7115,0,0,0,0,0,0,0,0,0,0,0,0,0,0,0,0,0,0,0,0,0,0,0,0,3063,0,0,0,0,0,0,2749,2671,0,0,0,0,0,0,0,0,0,0,0,0,0,0,0,0,0,0,0,0,0,6551,6651,0,0,0,0,6603,0,0,0,0,0,0,0,0,0,0,0,0,0,0,0,0,0,0,0,0,0,0,0,0,0,0,0,0,0,0,0,0,0,0,0,0,0,0,0,6908,6907,6883,6816,6858,6860,6684,6470,6470,6470,6809,6470,6470,
6861,6886,6886,6885,2203,2156,6833,6659,0,0,0,0,0,0,0,0,0,0,0,0,0,0,0,0,0,0,0,0,0,0,0,6601,0,0,0,0,0,0,0,2749,7177,7177,6553,0,0,0,0,0,0,0,0,0,0,0,0,0,0,0,0,0,0,6601,0,0,0,0,0,3079,0,0,0,0,0,0,0,0,0,0,0,0,0,0,0,0,0,0,0,0,0,0,0,0,0,0,0,0,0,0,0,0,0,0,0,0,0,0,0,0,0,6908,6907,6883,6885,6709,6470,6493,6493,6834,6835,6836,
6886,6886,6860,6886,7215,2203,2156,6784,0,0,0,0,0,0,0,0,0,0,0,0,0,0,0,0,0,0,0,0,0,0,6551,6651,0,0,0,0,0,0,0,0,7278,7253,6652,6552,2765,3101,0,0,0,0,0,0,0,0,0,0,0,0,0,0,0,6601,0,0,0,0,0,3095,0,0,0,0,0,0,0,0,0,0,0,0,0,0,0,0,0,0,0,0,0,0,0,0,0,0,0,0,0,0,0,0,0,0,0,0,0,0,0,0,0,0,0,6908,6910,6734,6493,6493,6493,6859,6815,6861,
6886,6886,6886,6886,2155,6883,6886,6759,0,0,0,0,0,0,0,0,0,0,0,0,0,0,0,0,0,0,0,0,0,6551,6651,0,0,0,0,0,6627,6627,0,0,7227,7228,0,0,0,3117,3200,2750,3101,0,0,0,0,0,0,0,0,0,0,0,6551,6651,0,0,0,0,0,3111,0,0,0,0,0,0,0,0,0,0,0,0,0,0,0,0,0,0,0,0,0,0,0,0,0,0,0,0,0,0,0,0,0,0,0,0,0,0,0,0,0,0,0,0,0,6759,6481,6482,6493,6884,6885,6886,
6886,6886,6860,6886,7215,2202,2213,6784,0,0,0,0,0,0,0,0,0,0,0,0,0,0,0,0,0,0,0,0,0,6576,0,0,0,0,0,3018,0,0,6580,6627,7252,7252,0,0,0,0,0,0,3117,3200,2670,2750,3101,0,0,0,0,0,0,0,6601,0,0,0,0,0,0,6628,0,0,0,0,0,0,0,0,0,0,0,0,0,0,0,0,0,0,0,0,0,0,0,0,0,0,0,0,0,0,0,0,0,0,0,0,0,0,0,0,0,0,0,0,0,6759,6470,6470,6493,6909,6910,6911,
6886,6886,6816,6886,2155,6883,6886,6759,0,0,0,0,0,0,0,0,0,0,0,0,0,0,0,0,0,0,0,0,0,6601,0,0,0,0,0,3111,0,0,0,0,0,0,3017,0,0,0,0,7661,0,0,0,0,3117,3200,2766,6553,0,0,0,0,6601,0,0,0,0,0,3018,0,0,0,0,0,6497,0,0,0,0,0,0,0,0,0,0,0,0,0,0,0,0,0,0,0,0,0,0,0,0,0,0,0,0,0,0,0,0,0,0,0,0,0,0,0,0,6784,6470,6470,6511,6512,6470,6470,
6886,6886,6885,6886,2202,2155,6883,6784,0,0,0,0,0,0,0,0,0,0,0,0,0,0,0,0,0,0,0,0,0,6601,0,0,0,0,0,6652,6553,0,0,0,0,0,3063,0,0,0,0,0,0,0,0,0,0,0,0,6652,6553,0,0,6551,6651,0,0,0,0,0,3111,0,6600,0,0,0,0,0,0,0,0,0,0,0,0,0,0,0,0,0,0,0,0,0,0,0,0,0,0,0,0,0,0,0,0,0,0,0,0,0,0,0,0,0,0,0,0,6809,6470,6470,6536,6537,6470,6470,
6885,6910,6910,6911,6767,2188,2172,6759,0,0,0,0,0,0,0,0,0,0,0,0,0,0,0,0,0,0,0,0,0,6626,0,0,0,0,0,0,6652,7177,7177,6552,6579,6579,6554,0,0,0,0,0,0,0,0,0,0,0,0,0,6603,0,0,6601,0,0,0,0,0,0,6603,0,0,0,0,0,0,0,0,0,0,0,0,0,0,0,0,0,0,0,0,0,0,0,0,0,0,0,0,0,0,0,0,0,0,0,0,0,0,0,0,0,0,0,0,0,0,6834,6832,6808,6625,6470,6493,6493,
6886,0,0,7063,6470,7290,2188,6784,0,6600,0,0,0,0,0,0,0,0,0,0,0,0,0,0,0,0,0,0,0,0,6580,6627,6627,0,0,0,0,7227,7228,6470,0,0,0,0,0,0,0,0,0,0,0,0,0,0,0,0,6652,6553,0,6601,0,0,0,0,0,0,6628,0,0,0,0,0,0,0,0,0,0,0,0,0,0,0,0,0,0,0,0,0,0,0,0,0,0,0,0,0,0,0,0,0,0,0,0,0,0,0,0,0,0,0,0,0,0,6859,6857,6833,6658,6659,6481,6482,
6891,6905,7917,6905,7867,6470,7290,6759,0,0,0,0,0,0,0,0,0,0,0,0,0,0,0,0,0,0,0,0,0,0,0,0,0,6580,6627,6627,6627,7252,7252,0,0,0,0,0,0,0,0,0,0,0,0,0,0,0,0,0,0,6603,0,6601,0,0,0,0,0,6581,0,0,0,0,0,0,0,0,0,0,0,0,0,0,0,0,0,0,0,0,0,0,0,0,0,0,0,0,0,0,0,0,0,0,0,0,0,0,0,0,0,0,0,0,0,0,0,6884,6882,6858,6857,6809,6470,6470,
6930,6880,6930,6930,6470,6470,6470,6784,0,0,0,0,0,0,0,0,0,0,0,0,0,0,0,0,0,0,0,0,0,0,0,0,0,0,0,0,0,0,0,6580,3157,3159,0,0,0,0,0,0,0,0,0,0,0,0,0,0,0,6652,6552,6651,0,0,0,0,3143,0,0,0,0,0,0,0,0,0,0,0,0,0,0,0,0,0,0,0,0,0,0,0,0,0,0,0,0,0,0,0,0,0,0,0,0,0,0,0,0,0,0,0,0,0,0,0,0,6909,6907,6883,6882,6834,6835,6836,
6552,6579,6553,0,6470,6470,6470,6784,0,0,0,0,0,0,0,0,0,0,0,0,0,0,0,0,0,0,0,0,0,0,0,0,0,0,0,0,0,0,0,0,0,0,6580,6627,6627,0,0,0,0,0,0,0,0,0,0,0,0,0,0,0,0,0,0,6606,0,0,0,0,0,0,0,0,0,0,0,0,0,0,0,0,0,0,0,0,0,0,0,0,0,0,0,0,0,0,0,0,0,0,0,0,0,0,0,0,0,0,0,0,0,0,0,0,0,0,0,6908,6907,6859,6860,6861,
0,6577,6603,0,6470,6470,6470,6809,0,0,0,0,0,0,0,0,0,0,0,0,0,0,0,0,0,0,0,0,0,0,0,0,0,0,0,0,0,0,0,0,0,0,0,0,0,6580,2815,2718,0,0,0,0,0,0,0,0,0,0,0,0,0,0,0,6603,0,0,0,0,0,0,0,0,0,0,0,0,0,0,0,0,0,0,0,0,0,0,0,0,0,0,0,0,0,0,0,0,0,0,0,0,0,0,0,0,0,0,0,0,0,0,0,0,0,0,0,0,0,6884,6885,6886,
0,0,6603,0,6470,6470,6470,6834,7115,0,0,0,0,0,0,0,0,0,0,0,0,0,0,0,0,0,0,0,0,0,0,0,0,0,0,0,0,0,0,0,0,0,0,0,0,0,0,0,2832,0,0,0,0,0,0,0,0,0,0,0,0,0,0,6652,6553,0,0,0,0,0,0,0,0,0,0,0,0,0,0,0,0,0,0,0,0,0,0,0,0,0,0,0,0,0,0,0,0,0,0,0,0,0,0,0,0,0,0,0,0,0,0,0,0,0,0,0,0,6909,6910,6911,
0,0,6652,6553,6470,6470,6470,6859,6833,7115,0,0,0,0,0,0,0,0,0,0,0,0,0,0,0,0,0,0,0,0,0,0,8263,8264,8265,8266,8267,0,0,0,0,0,0,0,0,0,0,0,0,2832,0,0,0,0,0,0,0,0,0,0,0,0,0,0,2798,0,0,0,0,0,0,0,0,0,0,0,0,0,0,0,0,0,0,0,0,6600,0,0,0,0,0,0,0,0,0,0,0,0,0,0,0,0,0,0,0,0,0,0,0,0,0,0,0,0,0,0,0,0,0,6793,
0,0,0,6603,6470,6470,6470,2187,2156,6833,7115,6600,0,0,0,0,0,0,0,0,0,0,0,0,0,0,0,0,0,0,0,0,8288,8289,8290,8291,8292,0,0,0,0,0,0,0,0,0,0,0,0,0,2832,0,0,0,0,0,0,0,0,0,0,0,0,0,2703,0,0,0,0,0,0,0,0,0,0,0,0,0,0,0,0,0,0,0,0,0,0,0,0,0,0,0,0,0,0,0,0,0,0,0,0,0,0,0,0,0,0,0,0,0,0,0,0,0,0,0,0,0,6793,6818,
0,0,0,6603,6470,6470,6470,2187,6886,2156,2140,7115,0,0,0,0,0,0,0,0,0,0,0,0,0,0,0,0,0,0,8311,8312,8313,8314,8315,8316,8317,0,0,0,0,0,0,0,0,0,0,0,0,0,0,2832,0,0,0,0,0,0,0,0,0,0,0,0,2719,0,0,0,0,0,0,0,0,0,0,0,0,0,0,0,0,0,0,0,0,0,0,0,0,0,0,0,0,0,0,0,0,10733,10736,10734,10735,0,0,0,0,0,0,0,0,0,0,0,0,0,0,6600,0,6793,6735,6843,
0,0,0,6603,6470,6470,6470,2187,2139,6886,2139,6833,7115,0,0,0,0,0,0,0,0,0,0,0,0,0,0,0,0,0,8336,8337,8338,8339,8340,8341,8342,0,0,0,0,0,0,0,0,0,0,0,0,0,0,0,2735,0,0,0,0,0,0,0,0,2718,0,2733,0,0,0,0,0,0,0,0,0,0,0,0,0,0,0,0,0,0,0,0,0,0,0,0,0,0,0,0,6664,6835,6836,6814,6838,6812,0,0,6809,0,0,0,0,0,0,0,0,0,0,0,0,0,0,0,6793,6818,6760,6886,
0,0,0,6603,6470,6470,6470,6884,6886,6883,2139,2213,6833,6835,6835,6836,6835,7115,0,0,0,0,0,0,0,0,0,0,0,0,0,0,0,0,0,0,0,0,0,0,0,0,0,0,0,0,0,0,0,0,0,0,2701,0,0,0,0,0,0,0,2831,6643,2735,2703,0,0,0,0,0,0,0,0,0,0,0,0,0,0,0,0,0,0,0,0,0,0,0,0,0,0,0,6793,6689,6860,6861,6860,6833,6837,0,0,6813,6659,0,0,0,0,0,0,0,0,0,0,0,0,0,6793,6735,6843,6785,6857,
0,0,0,6603,6470,6470,6470,6909,2188,2172,2204,6886,2139,2213,6861,6860,6815,2140,7115,0,0,0,0,0,0,0,0,0,0,0,0,0,0,0,0,0,0,0,0,0,0,0,0,0,0,0,0,0,0,0,0,0,2717,0,0,0,0,0,0,2831,6662,6663,2581,2584,6814,6832,6808,0,0,0,0,0,0,0,0,0,0,0,0,0,0,0,0,0,0,0,0,0,0,0,6793,6818,6815,7709,7712,7711,6860,6862,0,0,6859,6860,0,0,0,0,0,0,0,0,0,0,0,0,6793,6818,6760,6886,6786,6886,
0,0,0,6603,6470,6470,6470,6470,7290,2188,2172,2204,6886,2139,6886,6861,6861,2156,6833,6836,6814,6835,6836,6814,7115,0,0,0,0,0,0,0,0,0,0,0,0,6497,6793,6835,6836,6814,6835,7115,6600,0,0,0,0,0,0,0,0,2735,6493,6493,6493,6493,2733,6643,6860,6688,2597,2600,6860,6857,6833,6658,6659,0,0,0,0,6497,0,0,0,0,0,0,0,0,0,0,0,0,0,6793,6836,6835,6735,6843,6886,7734,7737,7736,6861,6887,0,0,2187,6833,6836,6836,6814,6836,6835,7115,0,0,0,0,0,6793,6735,6843,6815,6857,6785,6886,
0,0,0,6652,6470,6470,6470,6470,6470,7290,2188,2172,2139,2204,2139,6886,6857,7190,2156,6860,6861,6860,2139,6861,2140,7115,0,0,0,0,0,0,0,0,0,0,0,6793,6818,6860,2139,6861,6860,2140,7115,0,0,0,0,6710,6736,6836,6814,2581,2582,2583,2582,2583,2584,6836,6837,2614,2613,2616,2615,6882,6858,6683,6809,0,0,0,0,0,0,0,0,0,0,0,0,0,0,0,0,0,6793,6818,6860,6761,6760,6886,6860,7759,7762,7761,6891,6912,0,0,3296,2213,6860,2139,6861,6860,6860,2140,7115,0,0,0,6793,6818,6760,6886,6786,6886,6786,6764,
0,0,0,0,6470,6470,6470,6470,6470,6470,7290,2188,2172,6886,6886,6857,6886,7215,2139,2204,2204,6861,6886,2204,2156,6833,6836,6835,6836,6814,6835,6836,6814,6836,6835,6836,6835,6735,6843,6861,6886,2204,6861,2156,6833,6836,6835,6836,6835,6735,6761,6861,6860,2597,2598,2599,2598,2599,2600,6761,6862,2669,2750,2750,2671,6907,6883,6708,6813,6835,6836,6814,6836,6835,6836,6814,6836,6835,6836,6814,6836,6835,6836,6814,6836,6835,6735,6843,6861,6886,6785,6857,6809,0,7713,0,0,0,0,0,6812,6886,2184,6886,2204,2139,6861,2156,6833,6835,6836,6835,6735,6843,6785,6857,6785,6886,6968,7063,
0,0,0,0,6553,6470,6470,6470,6470,6470,6470,7290,2188,6882,6857,6816,6886,6857,2139,6886,2139,2134,2203,2139,7190,2156,6860,6860,2139,6861,6860,2139,6861,6860,6860,6861,6761,6760,6886,2134,2181,2139,2134,7190,2156,6860,6860,6861,6860,6760,6786,6886,6885,2613,2614,2615,2614,2615,2616,6786,6887,2685,0,0,2687,6520,6908,6733,6859,6860,6861,6860,6860,6860,2139,6861,6860,6860,2139,6861,6860,6860,6861,6860,6860,2156,6760,6886,6886,2133,2135,6886,6886,6667,7713,0,6664,6835,6835,6836,6857,2133,6886,2181,2139,6857,2134,2202,2213,6860,6860,6861,6760,6886,6786,6886,6786,6968,6470,6470,
0,0,0,0,6652,6579,6553,6470,6470,6470,6470,6470,7290,2188,6882,6886,6886,7265,6886,6886,2204,2134,2139,6886,7215,6886,2139,6861,6886,2204,6861,6886,2204,2139,6861,6886,6843,6785,6857,6886,2166,6886,6886,7215,2134,6857,2156,6886,6885,6785,6811,6911,2669,2750,2750,2750,2750,2750,2750,2671,6624,2701,0,0,2749,2671,6543,6624,6884,6885,6886,6885,2139,6861,6886,2204,2139,6861,6886,2204,2139,6861,6886,2134,6886,2181,6785,6857,6815,6886,6785,6886,2200,2197,7713,2199,6689,6861,2203,2204,7265,6886,2183,2166,6886,2166,6886,2202,6886,6868,6843,6886,6785,6857,6785,6886,6968,6470,6470,6470,
0,0,0,0,0,0,6652,3093,6470,6470,6470,6470,6470,7290,6764,6910,6911,6767,2188,2201,2204,2134,6857,2134,6857,2139,6886,2134,2181,2139,2134,2181,2139,6857,2134,2139,6868,6786,6886,2134,6857,2134,2134,6857,2185,2184,2204,6910,6911,6810,6543,6519,2685,0,0,0,0,0,0,2749,2670,2751,0,0,0,3087,6518,6472,6909,6910,6911,6787,6857,2134,2139,2139,6857,2134,2181,2139,6857,2134,2139,2139,2134,2134,2135,6886,6886,2185,2182,6968,6767,2213,7738,2215,6886,6886,2134,6886,2201,2188,2133,6857,2134,6857,2134,2202,2165,6886,6868,6860,6786,6886,6816,6968,7063,6470,6470,6551,
0,0,0,0,0,0,0,3109,3110,6470,6470,6470,6470,6470,6470,6470,6470,7063,7290,2171,6886,6886,6885,6886,7265,6886,6886,6886,2166,6886,6886,2166,6886,2166,2139,2204,6943,6785,6886,6886,6885,6886,6886,7265,6886,6886,6886,6784,6482,6624,6543,2669,2751,0,0,0,0,0,0,2722,2718,2718,0,0,0,3119,6519,6497,6431,6432,6433,6812,2166,2139,2204,2139,2166,6886,2166,6886,2166,2139,2204,2139,6857,2181,2186,6886,2185,2182,6968,7867,7891,6908,7842,6891,6910,6911,6891,6907,6764,2150,2171,6885,6886,6885,6886,2202,2172,6868,6886,6886,6785,6886,6968,6470,6470,6470,3030,6554,
0,0,0,0,0,0,0,0,6652,6579,6553,6470,6470,7916,6470,6470,6470,6470,6470,6909,6911,6911,6910,6911,6767,2188,6857,2134,6857,2134,2134,6857,2134,6857,2134,6857,6882,6786,6764,6911,6910,6911,6911,6767,2188,2139,2134,6809,6520,6543,6543,2717,0,0,0,0,2722,2722,2831,6543,6520,6543,2735,0,0,2703,6543,6710,6736,6814,6836,6837,6857,2134,6857,2134,6857,2134,6857,2134,6857,2134,6857,2134,6886,2183,2202,6764,6891,6912,6470,6470,6470,7766,7713,6470,6470,6470,7866,6470,7891,7892,6909,6910,6911,6910,6911,2150,2188,6713,6857,6815,6786,6968,6470,6470,6470,3045,3046,0,
0,0,0,0,0,0,0,0,0,0,6652,6553,6470,6470,6470,6470,6470,7867,6470,6470,6470,6470,6470,6470,6470,7290,2171,6886,6885,6886,6886,6885,6886,6885,6886,6885,6885,6968,7063,6470,6470,6470,6470,7916,7290,2171,6886,6813,6832,6808,6622,6543,2735,0,0,2733,6543,6481,6482,6624,6662,6663,2581,2582,2583,2584,6814,6735,6761,6860,6861,6862,6885,6886,6885,6886,6885,6886,6885,6886,6885,6886,6885,6886,2181,2135,6968,7063,6470,6470,6470,6470,6470,7892,7713,6470,6470,6470,6470,6470,6470,6470,6470,7867,6470,6470,7867,6470,7290,2171,6886,2182,6968,6470,6470,6551,6579,6554,0,0,
0,0,0,0,0,0,0,0,0,0,0,6652,6553,6470,6470,6470,6470,6470,6470,6470,6470,6470,6470,6470,6470,6470,6909,6911,6910,6911,6911,6910,6911,6910,6911,6910,6968,6470,6470,6470,6470,6470,6470,6493,6493,6909,6911,6859,6857,6833,6814,6836,2581,2582,2583,2584,6832,6808,6624,6519,6812,6861,2597,6860,6861,6860,6861,6760,6786,6885,6886,6887,6910,6911,6910,6911,6910,6911,6910,6911,6910,6911,6910,6911,6767,6968,6470,6470,6470,6470,6470,6470,6470,6470,7713,6470,6470,6470,6470,6470,6470,6470,6470,6470,6610,6470,6470,6470,6470,6909,6891,6912,6470,6470,6551,6554,0,0,0,0,
0,0,0,0,0,0,0,0,0,0,0,0,6652,6552,6579,6552,6579,6552,6553,6470,6470,6470,6470,6470,6470,6470,6470,6470,6470,6470,6470,6470,6470,6470,6470,6470,6470,6470,6470,6470,6470,6470,6470,6493,6493,6493,6493,6884,6882,6858,6860,6861,2597,6860,6861,6860,6857,6833,6814,6836,6837,6886,2613,6885,6886,6885,6886,6785,6811,6910,6911,6912,6493,6493,6493,6493,6493,6493,6493,6470,6470,6470,6470,7916,6470,6470,6470,6470,6470,6470,6470,6470,3030,7077,7077,6579,6552,6579,6552,6579,6552,6553,6470,6470,0,6470,6470,6470,6470,6470,6470,6470,6470,6551,6554,0,0,0,0,0,
0,0,0,0,0,0,0,0,0,0,0,0,0,0,6577,6577,6577,0,6652,6552,6579,6552,6579,6552,6552,6579,6552,6579,6552,6579,6552,6579,6552,6579,6552,6552,6579,6552,6579,6552,6552,6579,6552,6579,6552,6579,6553,6909,6907,6883,6885,6886,2613,6885,6886,6885,6882,6858,6860,6861,6862,6551,6579,6579,6579,6579,6553,6810,6493,0,0,0,0,6551,6552,6579,6552,6552,6579,6552,6579,6552,6579,6552,6579,6579,6552,6579,6552,6552,6579,3189,3046,0,0,6577,6577,6577,6577,6577,0,6652,6552,6579,6552,6579,6552,6552,6579,6552,6579,6552,6552,6554,0,0,0,0,0,0,
0,0,0,0,0,0,0,0,0,0,0,0,0,0,0,0,0,0,0,0,0,0,0,0,0,0,0,0,0,0,0,0,0,0,0,0,0,0,0,0,0,0,0,0,0,0,6652,6552,3093,6908,2631,6551,6579,6579,6579,6579,6553,6883,6885,6886,6887,6576,6493,6493,6493,6493,6578,6856,6551,6552,6579,6552,6579,6651,0,0,0,0,0,0,0,0,0,0,0,0,0,0,0,0,0,0,0,0,0,0,0,0,0,0,0,0,0,0,0,0,0,0,0,0,0,0,0,0,0,0,0,0,0,0,
0,0,0,0,0,0,0,0,0,0,0,0,0,0,0,0,0,0,0,0,0,0,0,0,0,0,0,0,0,0,0,0,0,0,0,0,0,0,0,0,0,0,0,0,0,0,0,0,3109,3110,6831,6576,6493,6493,6493,6493,6578,0,6910,6911,6912,6601,6493,6493,6493,6493,6652,6552,6651,0,0,0,0,0,0,0,0,0,0,0,0,0,0,0,0,0,0,0,0,0,0,0,0,0,0,0,0,0,0,0,0,0,0,0,0,0,0,0,0,0,0,0,0,0,0,0,0,0,0,0,
0,0,0,0,0,0,0,0,0,0,0,0,0,0,0,0,0,0,0,0,0,0,0,0,0,0,0,0,0,0,0,0,0,0,0,0,0,0,0,0,0,0,0,0,0,0,0,0,0,6652,6552,6651,6493,6493,6493,6493,6652,6553,6957,6881,6551,6651,0,0,0,0,0,0,0,0,0,0,0,0,0,0,0,0,0,0,0,0,0,0,0,0,0,0,0,0,0,0,0,0,0,0,0,0,0,0,0,0,0,0,0,0,0,0,0,0,0,0,0,0,0,0,0,0,0,0,
0,0,0,0,0,0,0,0,0,0,0,0,0,0,0,0,0,0,0,0,0,0,0,0,0,0,0,0,0,0,0,0,0,0,0,0,0,0,0,0,0,0,0,0,0,0,0,0,0,0,0,0,0,0,0,0,0,6652,6552,6552,6651,0,0,0,0,0,0,0,0,0,0,0,0,0,0,0,0,0,0,0,0,0,0,0,0,0,0,0,0,0,0,0,0,0,0,0,0,0,0,0,0,0,0,0,0,0,0,0,0,0,0,0,0,0,0,0,0,0,0,0,
0,0,0,0,0,0,0,0,0,0,0,0,0,0,0,0,0,0,0,0,0,0,0,0,0,0,0,0,0,0,0,0,0,0,0,0,0,0,0,0,0,0,0,0,0,0,0,0,0,0,0,0,0,0,0,0,0,0,0,0,0,0,0,0,0,0,0,0,0,0,0,0,0,0,0,0,0,0,0,0,0,0,0,0,0,0,0,0,0,0,0,0,0,0,0,0,0,0,0,0,0,0,0,0,0,0,0,0,0,0,0,0,0,0,0,0,0,0,0,0,
0,0,0,0,0,0,0,0,0,0,0,0,0,0,0,0,0,0,0,0,0,0,0,0,0,0,0,0,0,0,0,0,0,0,0,0,0,0,0,0,0,0,0,0,0,0,0,0,0,0,0,0,0,0,0,0,0,0,0,0,0,0,0,0,0,0,0,0,0,0,0,0,0,0,0,0,0,0,0,0,0,0,0,0,0,0,0,0,0,0,0,0,0,0,0,0,0,0,0,0,0,0,0,0,0,0,0,0,0,0,0,0,0,0,0,0,0,0,0,0,
0,0,0,0,0,0,0,0,0,0,0,0,0,0,0,0,0,0,0,0,0,0,0,0,0,0,0,0,0,0,0,0,0,0,0,0,0,0,0,0,0,0,0,0,0,0,0,0,0,0,0,0,0,0,0,0,0,0,0,0,0,0,0,0,0,0,0,0,0,0,0,0,0,0,0,0,0,0,0,0,0,0,0,0,0,0,0,0,0,0,0,0,0,0,0,0,0,0,0,0,0,0,0,0,0,0,0,0,0,0,0,0,0,0,0,0,0,0,0,0,
0,0,0,0,0,0,0,0,0,0,0,0,0,0,0,0,0,0,0,0,0,0,0,0,0,0,0,0,0,0,0,0,0,0,0,0,0,0,0,0,0,0,0,0,0,0,0,0,0,0,0,0,0,0,0,0,0,0,0,0,0,0,0,0,0,0,0,0,0,0,0,0,0,0,0,0,0,0,0,0,0,0,0,0,0,0,0,0,0,0,0,0,0,0,0,0,0,0,0,0,0,0,0,0,0,0,0,0,0,0,0,0,0,0,0,0,0,0,0,0,
0,0,0,0,0,0,0,0,0,0,0,0,0,0,0,0,0,0,0,0,0,0,0,0,0,0,0,0,0,0,0,0,0,0,0,0,0,0,0,0,0,0,0,0,0,0,0,0,0,0,0,0,0,0,0,0,0,0,0,0,0,0,0,0,0,0,0,0,0,0,0,0,0,0,0,0,0,0,0,0,0,0,0,0,0,0,0,0,0,0,0,0,0,0,0,0,0,0,0,0,0,0,0,0,0,0,0,0,0,0,0,0,0,0,0,0,0,0,0,0,
0,0,0,0,0,0,0,0,0,0,0,0,0,0,0,0,0,0,0,0,0,0,0,0,0,0,0,0,0,0,0,0,0,0,0,0,0,0,0,0,0,0,0,0,0,0,0,0,0,0,0,0,0,0,0,0,0,0,0,0,0,0,0,0,0,0,0,0,0,0,0,0,0,0,0,0,0,0,0,0,0,0,0,0,0,0,0,0,0,0,0,0,0,0,0,0,0,0,0,0,0,0,0,0,0,0,0,0,0,0,0,0,0,0,0,0,0,0,0,0
</data>
 </layer>
 <layer id="5" name="Buildings2" width="120" height="120">
  <properties>
   <property name="Draw" value="Buildings"/>
  </properties>
  <data encoding="csv">
0,0,0,0,0,0,0,0,0,0,0,0,0,0,0,0,0,0,0,0,0,0,0,0,0,0,0,0,0,0,0,0,0,0,0,0,0,0,0,0,0,0,0,0,0,0,0,0,0,0,0,0,0,0,0,0,0,0,0,0,0,0,0,0,0,0,0,0,0,0,0,0,0,0,0,0,0,0,0,0,0,0,0,0,0,0,0,0,0,0,0,0,0,0,0,0,0,0,0,0,0,0,0,0,0,0,0,0,0,0,0,0,0,0,0,0,0,0,0,0,
0,0,0,0,0,0,0,0,0,0,0,0,0,0,0,0,0,0,0,0,0,0,0,0,0,0,0,0,0,0,0,0,0,0,0,0,0,0,0,0,0,0,0,0,0,0,0,0,0,0,0,0,0,0,0,0,0,0,0,0,0,0,0,0,0,0,0,0,0,0,0,0,0,0,0,0,0,0,0,0,0,0,0,0,0,0,0,0,0,0,0,0,0,0,0,0,0,0,0,0,0,0,0,0,0,0,0,0,0,0,0,0,0,0,0,0,0,0,0,0,
0,0,0,0,0,0,0,0,0,0,0,0,0,0,0,0,0,0,0,0,0,0,0,0,0,0,0,0,0,0,0,0,0,0,0,0,0,0,0,0,0,6381,6382,6383,0,0,0,0,0,0,0,0,0,0,0,0,0,0,0,0,0,0,0,0,0,0,0,0,0,0,0,0,0,0,0,0,0,0,0,0,0,0,0,0,0,0,0,0,0,0,0,0,0,0,0,0,0,0,0,0,0,0,0,0,0,0,0,0,0,0,0,0,0,0,0,0,0,0,0,0,
0,0,0,0,0,0,0,0,0,0,0,0,0,0,0,0,0,0,0,0,0,0,0,0,0,0,0,0,0,0,0,0,0,0,0,0,0,6456,6457,0,0,6406,6407,6408,0,0,0,0,0,0,0,0,0,0,0,0,0,0,0,0,0,0,0,0,0,0,0,0,0,0,0,0,0,0,0,0,0,0,0,0,0,0,0,0,0,0,0,0,0,0,0,0,0,0,0,0,0,0,0,0,0,0,0,0,0,0,0,0,0,0,0,0,0,0,0,0,0,0,0,0,
0,0,0,0,0,0,0,0,0,0,0,0,0,0,0,0,0,0,0,0,0,0,0,0,0,0,0,0,0,0,0,0,0,0,0,0,0,6481,6482,0,0,6431,6432,6433,0,0,0,0,0,0,0,0,0,0,0,0,0,0,0,0,0,0,0,0,0,0,0,0,0,0,0,0,0,0,0,0,0,0,0,0,0,0,0,0,0,0,0,0,0,0,0,0,0,0,0,0,0,0,0,0,0,0,0,0,0,0,0,0,0,0,0,0,0,0,0,0,0,0,0,0,
0,0,0,0,0,0,0,0,0,0,0,0,0,0,0,0,0,0,0,0,0,0,0,0,0,0,0,0,0,0,0,0,0,0,0,0,0,0,0,0,0,0,0,0,0,0,0,0,0,0,0,0,0,0,0,0,0,0,0,0,0,0,0,0,0,0,0,0,0,0,0,0,0,0,0,0,0,0,0,0,0,0,0,0,0,0,0,0,0,0,0,0,0,0,0,0,0,0,0,0,0,0,0,0,0,0,0,0,0,0,0,0,0,0,0,0,0,0,0,0,
0,0,0,0,0,0,0,0,0,0,0,0,0,0,0,0,0,0,0,0,0,0,0,0,0,0,0,0,0,0,0,0,0,0,0,0,0,0,0,0,0,0,0,0,0,0,0,0,0,0,0,0,0,0,0,0,0,0,0,0,0,0,0,0,0,0,0,0,0,0,0,0,0,0,0,0,0,0,0,0,0,0,0,0,0,0,0,0,0,0,0,0,0,0,0,0,0,0,0,0,0,0,0,0,0,0,0,0,0,0,0,0,0,0,0,0,0,0,0,0,
0,0,0,0,0,0,0,0,0,0,0,0,0,0,0,0,0,0,0,0,0,0,0,0,0,0,0,0,0,0,0,0,0,0,0,0,0,0,0,0,0,0,0,0,0,0,0,0,0,0,0,0,0,0,0,0,0,0,0,0,0,0,0,0,0,0,0,0,0,0,0,0,0,0,0,0,0,0,0,0,0,0,0,0,0,0,0,0,0,0,0,0,0,0,0,0,0,0,0,0,0,0,0,0,0,0,0,0,0,0,0,0,0,0,0,0,0,0,0,0,
0,0,0,0,0,0,0,0,0,0,0,0,0,0,0,0,0,0,0,0,0,0,0,0,0,0,0,0,0,0,0,0,0,0,0,0,0,0,0,0,0,0,0,0,0,0,0,0,0,0,0,0,0,0,0,0,0,0,0,0,0,0,0,0,0,0,0,0,0,0,0,0,0,0,0,0,0,0,0,0,0,0,0,0,0,0,0,0,0,0,0,0,0,0,0,0,0,0,0,0,0,0,0,0,0,0,0,0,0,0,0,0,0,0,0,0,0,0,0,0,
0,0,0,0,0,0,0,0,0,0,0,0,0,0,0,0,0,0,0,0,0,0,0,0,0,0,0,0,0,0,0,0,0,0,0,0,0,0,0,0,0,0,0,0,0,0,0,0,0,0,0,0,0,0,0,0,0,0,0,0,0,0,0,0,0,0,0,0,0,0,0,0,0,0,0,0,0,0,0,0,0,0,0,0,0,0,0,0,0,0,0,0,0,0,0,0,0,0,0,0,0,0,0,0,0,0,0,0,0,0,0,0,0,0,0,0,0,0,0,0,
0,0,0,0,0,0,0,0,0,0,0,0,0,0,0,0,0,0,0,0,0,0,0,0,0,0,0,0,0,0,0,0,0,0,0,0,0,0,0,0,0,0,0,0,0,0,0,0,0,0,0,0,0,0,0,0,0,0,0,0,0,0,0,0,0,0,0,0,0,0,0,0,0,0,0,0,0,0,0,0,0,0,0,0,0,0,0,0,0,0,0,0,0,0,0,0,0,0,0,0,0,0,0,0,0,0,0,0,0,0,0,0,0,0,0,0,0,0,0,0,
0,0,0,0,0,0,0,0,0,0,0,0,0,0,0,0,0,0,0,0,0,0,0,0,0,0,0,0,0,0,0,0,0,0,0,0,0,0,0,0,0,0,0,0,0,0,0,0,0,0,0,0,0,0,0,0,0,0,0,0,0,0,0,0,0,0,0,0,0,0,0,0,0,0,0,0,0,0,0,0,0,0,0,0,0,0,0,0,0,0,0,0,0,0,0,0,0,0,0,0,0,0,0,0,0,0,0,0,0,0,0,0,0,0,0,0,0,0,0,0,
0,0,0,0,0,0,0,0,0,0,0,0,0,0,0,0,0,0,0,0,0,0,0,0,0,0,0,0,0,0,0,0,0,0,0,0,0,0,0,0,0,0,0,0,0,0,0,0,0,0,0,0,0,0,0,0,0,0,0,0,0,0,0,0,0,0,0,0,0,0,0,0,0,0,0,0,0,0,0,0,0,0,0,0,0,0,0,0,0,0,0,0,0,0,0,0,0,0,0,0,0,0,0,0,0,0,0,0,0,0,0,0,0,0,0,0,0,0,0,0,
0,0,0,0,0,0,0,0,0,0,0,0,0,0,0,0,0,0,0,0,0,0,0,0,0,0,0,0,0,0,0,0,0,0,0,0,0,0,0,0,0,0,0,0,0,0,0,0,0,0,0,0,0,0,0,0,0,0,0,0,0,0,0,0,0,0,0,0,0,0,0,0,0,0,0,0,0,0,0,0,0,0,0,0,0,0,0,0,0,0,0,0,0,0,0,0,0,0,0,0,0,0,0,0,0,0,0,0,0,0,0,0,0,0,0,0,0,0,0,0,
0,0,0,0,0,0,0,0,0,0,0,0,0,0,0,0,0,0,0,0,0,0,0,0,0,0,0,0,0,0,0,0,0,0,0,0,0,0,0,0,0,0,0,0,0,0,0,0,0,0,0,0,0,0,0,0,0,0,0,0,0,0,0,0,0,0,0,0,0,0,0,0,0,0,0,0,0,0,0,0,0,4906,4907,4908,0,0,0,0,0,0,0,0,0,0,0,0,0,0,0,0,0,0,0,0,0,0,0,0,0,0,0,0,0,0,0,0,0,0,0,0,
0,0,0,0,0,0,0,0,0,0,0,0,0,0,0,0,0,0,0,0,0,0,0,0,0,0,0,0,0,0,0,0,0,0,0,0,0,0,0,0,0,0,0,0,0,0,0,0,0,0,0,0,0,0,0,0,0,0,0,0,0,0,0,0,0,0,0,0,0,0,0,0,0,0,0,0,0,0,0,0,0,0,0,0,0,0,0,0,0,0,0,0,0,0,0,0,4889,4890,4889,4890,0,0,0,0,0,0,0,0,0,0,0,0,0,0,0,0,0,0,0,0,
0,0,0,0,0,0,0,0,0,0,0,0,0,0,0,0,0,0,0,0,0,0,0,0,0,0,0,0,0,0,0,0,0,0,0,0,0,0,0,0,0,0,0,0,0,0,0,0,0,0,0,0,0,0,0,0,0,0,0,0,0,0,0,0,0,0,0,0,0,0,0,0,0,0,0,0,0,0,0,0,0,0,0,0,0,0,0,0,0,0,0,0,0,0,0,0,0,0,0,0,0,0,0,0,0,0,0,0,0,0,0,0,0,0,0,0,0,0,0,0,
0,0,0,0,0,0,0,0,0,0,0,0,0,0,0,0,0,0,0,0,0,0,0,0,0,0,0,0,0,0,0,0,0,0,0,0,0,0,0,0,0,0,0,0,0,0,0,0,0,0,0,0,0,0,0,0,0,0,0,0,0,0,0,0,0,0,0,0,0,0,0,0,0,0,0,0,0,0,0,0,0,0,0,0,0,0,0,0,0,0,0,0,0,0,0,0,0,0,0,0,0,0,0,0,0,0,0,0,0,0,0,0,0,0,0,0,0,0,0,0,
0,0,0,0,0,0,0,0,0,0,0,0,0,0,0,0,0,0,0,0,0,0,0,0,0,0,0,0,0,0,0,0,0,0,0,0,0,0,0,0,0,0,0,0,0,0,0,0,0,0,0,0,0,0,0,0,0,0,0,0,0,0,0,0,0,0,0,0,0,0,0,0,0,0,0,0,0,0,0,0,0,0,0,0,0,0,0,0,0,0,0,0,0,0,0,0,0,0,0,0,0,0,0,0,0,0,0,0,0,0,0,0,0,0,0,0,0,0,0,0,
0,0,0,0,0,0,0,0,0,0,0,0,0,0,0,0,0,0,0,0,0,0,0,0,0,0,0,0,0,0,6577,0,0,0,0,0,6577,6577,0,0,0,0,0,0,0,0,0,0,0,0,0,0,0,0,0,0,0,0,0,0,0,0,0,0,0,0,0,0,0,0,0,0,0,0,0,0,0,0,0,0,0,0,0,0,0,0,0,0,0,0,0,0,0,0,0,0,0,0,0,0,0,0,0,0,0,0,0,0,0,0,0,0,0,0,0,0,0,0,0,0,
0,0,0,0,0,0,0,0,0,0,0,0,0,0,0,0,0,0,0,0,0,0,0,0,0,0,0,0,0,0,0,0,0,0,0,0,0,0,0,0,0,0,0,0,0,0,0,0,0,0,0,0,0,0,0,0,0,0,0,0,0,0,0,0,0,0,0,0,0,0,0,0,0,0,0,0,0,0,0,0,0,0,0,0,0,0,0,0,0,0,0,0,0,0,0,0,0,0,0,0,0,0,0,0,0,0,0,0,0,0,0,0,0,0,0,0,0,0,0,0,
0,0,0,0,0,0,0,0,0,0,0,0,0,0,0,0,0,0,0,0,0,0,0,0,0,0,0,0,0,0,0,0,0,0,0,0,0,0,0,0,0,0,6577,0,0,0,0,0,0,0,0,0,0,0,0,0,0,0,0,0,0,0,0,0,0,0,0,0,0,0,0,0,0,0,0,0,0,0,0,0,0,0,0,0,0,0,0,0,0,0,0,0,0,0,0,0,0,0,0,0,0,0,0,0,0,0,0,0,0,0,0,0,0,0,0,0,0,0,0,0,
0,0,0,0,0,0,0,0,0,0,0,0,0,0,0,0,0,0,0,0,0,0,0,0,0,0,0,0,0,0,0,0,0,0,0,0,0,0,0,0,0,0,0,0,0,0,0,0,0,0,0,0,0,0,0,0,0,0,0,0,0,0,0,0,0,0,0,0,0,0,0,0,0,0,0,0,0,0,0,0,0,0,0,0,0,0,0,0,0,0,0,0,0,0,0,0,0,0,0,0,0,0,0,0,0,0,0,0,0,0,0,0,0,0,0,0,0,0,0,0,
0,0,0,0,0,0,0,0,0,0,0,0,0,0,0,0,0,0,0,0,0,0,0,0,0,0,0,0,0,0,0,0,0,0,0,0,0,0,0,0,0,0,0,0,0,0,0,0,0,0,0,0,0,0,0,0,0,0,0,0,0,0,0,0,0,0,0,0,0,0,0,0,0,0,0,0,0,0,0,0,0,0,0,0,0,0,0,0,0,0,0,0,0,0,0,0,0,0,0,0,0,0,0,0,0,0,0,0,0,0,0,0,0,0,0,0,0,0,0,0,
0,0,0,0,0,0,0,0,0,0,0,0,0,0,0,0,0,0,0,0,0,0,0,0,0,0,0,0,0,0,0,0,0,0,0,0,0,0,0,0,0,0,0,0,0,0,0,0,0,0,0,0,0,0,0,0,0,0,0,0,0,0,0,0,0,0,0,0,0,0,0,0,0,0,0,0,0,0,0,0,0,0,0,0,0,0,0,0,0,0,0,0,0,0,0,0,0,0,0,0,0,0,0,0,0,0,0,0,0,0,0,0,0,0,0,0,0,0,0,0,
0,0,0,0,0,0,0,0,0,0,0,0,0,0,0,0,0,0,0,0,0,0,0,0,0,0,0,0,0,0,0,0,0,0,0,0,0,0,0,0,0,0,0,0,0,0,0,0,0,0,0,0,0,0,0,0,0,0,0,0,0,0,0,0,0,0,0,0,0,0,0,0,0,0,0,0,0,0,0,0,0,0,0,0,0,0,0,0,0,0,0,0,0,0,0,0,0,0,0,0,0,0,0,0,0,0,0,0,0,0,0,0,0,0,0,0,0,0,0,0,
0,0,0,0,0,0,0,0,0,0,0,0,0,0,0,0,0,0,0,0,0,0,0,0,0,0,0,0,0,0,0,0,0,0,0,0,0,0,0,0,0,0,0,0,0,0,0,0,0,0,0,0,0,0,0,0,0,0,0,0,0,0,0,0,0,0,0,0,0,0,0,0,0,0,0,0,0,0,0,0,0,0,0,0,0,0,0,0,0,0,0,0,0,0,0,0,0,0,0,0,0,0,0,0,0,0,0,0,0,0,0,0,0,0,0,0,0,0,0,0,
0,0,0,0,0,0,0,0,0,0,0,0,0,0,0,0,0,0,0,0,0,0,0,0,0,0,0,0,0,0,0,0,0,0,0,0,0,0,0,0,0,0,0,0,0,0,0,0,0,0,0,0,0,0,0,0,0,0,0,0,0,0,0,0,0,0,0,0,0,0,0,0,0,0,0,0,0,0,0,0,0,0,0,0,0,0,0,0,0,0,0,0,0,0,0,0,0,0,0,0,0,0,0,0,0,0,0,0,0,0,0,0,0,0,0,0,0,0,0,0,
0,0,0,0,0,0,0,0,0,0,0,0,0,0,0,0,0,0,0,0,0,0,0,0,0,0,0,0,0,0,0,0,0,0,0,0,0,0,0,0,0,0,0,0,0,0,0,0,0,0,0,0,0,0,0,0,0,0,0,0,0,0,0,0,0,0,0,0,0,0,0,0,0,0,0,0,0,0,0,0,0,0,0,0,0,0,0,0,0,0,0,0,0,0,0,0,0,0,0,0,0,0,0,0,0,0,0,0,0,0,0,0,0,0,0,0,0,0,0,0,
0,0,0,0,0,0,0,0,0,0,0,0,0,0,0,0,0,0,0,0,0,0,0,0,0,0,0,0,0,0,0,0,0,0,0,0,0,0,0,0,0,0,0,0,0,0,0,0,0,0,0,0,0,0,0,0,0,0,0,0,0,0,0,0,0,0,0,0,0,0,0,0,0,0,0,0,0,0,0,0,0,0,0,0,0,0,0,0,0,0,0,0,0,0,0,0,0,0,0,0,0,0,0,0,0,0,0,0,0,0,0,0,0,0,0,0,0,0,0,0,
0,0,0,0,0,0,0,0,0,0,0,0,0,0,0,0,0,0,0,0,0,0,0,0,0,0,0,0,0,0,0,0,0,0,0,0,0,0,0,0,0,0,0,0,0,0,0,0,0,0,0,0,0,0,0,0,0,0,0,0,0,0,0,0,0,0,0,0,0,0,0,0,0,0,0,0,0,0,0,0,0,0,0,0,0,0,0,0,0,0,0,0,0,0,0,0,0,0,0,0,0,0,0,0,0,0,0,0,0,0,0,0,0,0,0,0,0,0,0,0,
0,0,0,0,0,0,0,0,0,0,0,0,0,0,0,0,0,0,0,0,0,0,0,0,0,0,0,0,0,0,0,0,0,0,0,0,0,0,0,0,0,0,0,0,0,0,0,0,0,0,0,0,0,0,0,0,0,0,0,0,0,0,0,0,0,0,0,0,0,0,0,0,0,0,0,0,0,0,0,0,0,0,0,0,0,0,0,0,0,0,0,0,0,0,0,0,0,0,0,0,0,0,0,0,0,0,0,0,0,0,0,0,0,0,0,0,0,0,0,0,
0,0,0,0,0,0,0,0,0,0,0,0,0,0,0,0,0,0,0,0,0,0,0,0,0,0,0,0,0,0,0,0,0,0,0,0,0,0,0,0,0,0,0,0,0,0,0,0,0,0,0,0,0,0,0,0,0,0,0,0,0,0,0,0,0,0,0,0,0,0,0,0,0,0,0,0,0,0,0,0,0,0,0,0,0,0,0,0,0,0,0,0,0,0,0,0,0,0,0,0,0,0,0,0,0,0,0,0,0,0,0,0,0,0,0,0,0,0,0,0,
0,0,0,0,0,0,0,0,0,0,0,0,0,0,0,0,0,0,0,0,0,0,0,0,0,0,0,0,0,0,0,0,0,0,0,0,0,0,0,0,0,0,0,0,0,0,0,0,0,0,0,0,0,0,0,0,0,0,0,0,0,0,0,0,0,0,0,0,0,0,0,0,0,0,0,0,0,0,0,0,0,0,0,0,0,0,0,0,0,0,0,0,0,0,0,0,0,0,0,0,0,0,0,0,0,0,0,0,0,0,0,0,0,0,0,0,0,0,0,0,
0,0,0,0,0,0,0,0,0,0,0,0,0,0,0,0,0,0,0,0,0,0,0,0,0,0,0,0,0,0,0,0,0,0,0,0,0,0,0,0,0,0,0,0,0,0,0,0,0,0,0,0,0,0,0,0,0,0,0,0,0,0,0,0,0,0,0,0,0,0,0,0,0,0,0,0,0,0,0,0,0,0,0,0,0,0,0,0,0,0,0,0,0,0,0,0,0,0,0,0,0,0,0,0,0,0,0,0,0,0,0,0,0,0,0,0,0,0,0,0,
0,0,0,0,0,0,0,0,0,0,0,0,0,0,0,0,0,0,0,0,0,0,0,0,0,0,0,0,0,0,0,0,0,0,0,0,0,0,0,0,0,0,0,0,0,0,0,0,0,0,0,0,0,0,0,0,0,0,0,0,0,0,0,0,0,0,0,0,0,0,0,0,0,0,0,0,0,0,0,0,0,0,0,0,0,0,0,0,0,0,0,0,0,0,0,0,0,0,0,0,0,0,0,0,0,0,0,0,0,0,0,0,0,0,0,0,0,0,0,0,
0,0,0,0,0,0,0,0,0,0,0,0,0,0,0,0,0,0,0,0,0,0,0,0,0,0,0,0,0,0,0,0,0,0,0,0,0,0,0,0,0,0,0,0,0,0,0,0,0,0,0,0,0,0,0,0,0,0,0,0,0,0,0,0,0,0,0,0,0,0,0,0,0,0,0,0,0,0,0,0,0,0,0,0,0,0,0,0,0,0,0,0,0,0,0,0,0,0,0,0,0,0,0,0,0,0,0,0,0,0,0,0,0,0,0,0,0,0,0,0,
0,0,0,0,0,0,0,0,0,0,0,0,0,0,0,0,0,0,0,0,0,0,0,0,0,0,0,0,0,0,0,0,0,0,0,0,0,0,0,0,0,0,0,0,0,0,0,0,0,0,0,0,0,0,0,0,0,0,0,0,0,0,0,0,0,0,0,0,0,0,0,0,0,0,0,0,0,0,0,0,0,0,0,0,0,0,0,0,0,0,0,0,0,0,0,0,0,0,0,0,0,0,0,0,0,0,0,0,0,0,0,0,0,0,0,0,0,0,0,0,
0,0,0,0,0,0,0,0,0,0,0,0,0,0,0,0,0,0,0,0,0,0,0,0,0,0,0,0,0,0,0,0,0,0,0,0,0,0,0,0,0,0,0,0,0,0,0,0,0,0,0,0,0,0,0,0,0,0,0,0,0,0,0,0,0,0,0,0,0,0,0,0,0,0,0,0,0,0,0,0,0,0,0,0,0,0,0,0,0,0,0,0,0,0,0,0,0,0,0,0,0,0,0,0,0,0,0,0,0,0,0,0,0,0,0,0,0,0,0,0,
0,0,0,0,0,0,0,0,0,0,0,0,0,0,0,0,0,0,0,0,0,0,0,0,0,0,0,0,0,0,0,0,0,0,0,0,0,0,0,0,0,0,0,0,0,0,0,0,0,0,0,0,0,0,0,0,0,0,0,0,0,0,0,0,0,0,0,0,0,0,0,0,0,0,0,0,0,0,0,0,0,0,0,0,0,0,0,0,0,0,0,0,0,0,0,0,0,0,0,0,0,0,0,0,0,0,0,0,0,0,0,0,0,0,0,0,0,0,0,0,
0,0,0,0,0,0,0,0,0,0,0,0,0,0,0,0,0,0,0,0,0,0,0,0,0,0,0,0,0,0,0,0,0,0,0,0,0,0,0,0,0,0,0,0,0,0,0,0,0,0,0,0,0,0,0,0,0,0,0,0,0,0,0,0,0,0,0,0,0,0,0,0,0,0,0,0,0,0,0,0,0,0,0,0,0,0,0,0,0,0,0,0,0,0,0,0,0,0,0,0,0,0,0,0,0,0,0,0,0,0,0,0,0,0,0,0,0,0,0,0,
0,0,0,0,0,0,0,0,0,0,0,0,0,0,0,0,0,0,0,0,0,0,0,0,0,0,0,0,0,0,0,0,0,0,0,0,0,0,0,0,0,0,0,0,0,0,0,0,0,0,0,0,0,0,0,0,0,0,0,0,0,0,0,0,0,0,0,0,0,0,0,0,0,0,0,0,0,0,0,0,0,0,0,0,0,0,0,0,0,0,0,0,0,0,0,0,0,0,0,0,0,0,0,0,0,0,0,0,0,0,0,0,0,0,0,0,0,0,0,0,
0,0,0,0,0,0,0,0,0,0,0,0,0,0,0,0,0,0,0,0,0,0,0,0,0,0,0,0,0,0,0,0,0,0,0,0,0,0,0,0,0,0,0,0,0,0,0,0,0,0,0,0,0,0,0,0,0,0,0,0,0,0,0,0,0,0,0,0,0,0,0,0,0,0,0,0,0,0,0,0,0,0,0,0,0,0,0,0,0,0,0,0,0,0,0,0,0,0,0,0,0,0,0,0,0,0,0,0,0,0,0,0,0,0,0,0,0,0,0,0,
0,0,0,0,0,0,0,0,0,0,0,0,0,0,0,0,0,0,0,0,0,0,0,0,0,0,0,0,0,0,0,0,0,0,0,0,0,0,0,0,0,0,0,0,0,0,0,0,0,0,0,0,0,0,0,0,0,0,0,0,0,0,0,0,0,0,0,0,0,0,0,0,0,0,0,0,0,0,0,0,0,0,0,0,0,0,0,0,0,0,0,0,0,0,0,0,0,0,0,0,0,0,0,0,0,0,0,0,0,0,0,0,0,0,0,0,0,0,0,0,
0,0,0,0,0,0,0,0,0,0,0,0,0,0,0,0,0,0,0,0,0,0,0,0,0,0,0,0,0,0,0,0,0,0,0,0,0,0,0,0,0,0,0,0,0,0,0,0,0,0,0,0,0,0,0,0,0,0,0,0,0,0,0,0,0,0,0,0,0,0,0,0,0,0,0,0,0,0,0,0,0,0,0,0,0,0,0,0,0,0,0,0,0,0,0,0,0,0,0,0,0,0,0,0,0,0,0,0,0,0,0,0,0,0,0,0,0,0,0,0,
0,0,0,0,0,0,0,0,0,0,0,0,0,0,0,0,0,0,0,0,0,0,0,0,0,0,0,0,0,0,0,0,0,0,0,0,0,0,0,0,0,0,0,0,0,0,0,0,0,0,0,0,0,0,0,0,0,0,0,0,0,0,0,0,0,0,0,0,0,0,0,0,0,0,0,0,0,0,0,0,0,0,0,0,0,0,0,0,0,0,0,0,0,0,0,0,0,0,0,0,0,0,0,0,0,0,0,0,0,0,0,0,0,0,0,0,0,0,0,0,
0,0,0,0,0,0,0,0,0,0,0,0,0,0,0,0,0,0,0,0,0,0,0,0,0,0,0,0,0,0,0,0,0,0,0,0,0,0,0,0,0,0,0,0,0,0,0,0,0,0,0,0,0,0,0,0,0,0,0,0,0,0,0,0,0,0,0,0,0,0,0,0,0,0,0,0,0,0,0,0,0,0,0,0,0,0,0,0,0,0,0,0,0,0,0,0,0,0,0,0,0,0,0,0,0,0,0,0,0,0,0,0,0,0,0,0,0,0,0,0,
0,0,0,0,0,0,0,0,0,0,0,0,0,0,0,0,0,0,0,0,0,0,0,0,0,0,0,0,0,0,0,0,0,0,0,0,0,0,0,0,0,0,0,0,0,0,0,0,0,0,0,0,0,0,0,0,0,0,0,0,0,0,0,0,0,0,0,0,0,0,0,0,0,0,0,0,0,0,0,0,0,0,0,0,0,0,0,0,0,0,0,0,0,0,0,0,0,0,0,0,0,0,0,0,0,0,0,0,0,0,0,0,0,0,0,0,0,0,0,0,
0,0,0,0,0,0,0,0,0,0,0,0,0,0,0,0,0,0,0,0,0,0,0,0,0,0,0,0,0,0,0,0,0,0,0,0,0,0,0,0,0,0,0,0,0,0,0,0,0,0,0,0,0,0,0,0,0,0,0,0,0,0,0,0,0,0,0,0,0,0,0,0,0,0,0,0,0,0,0,0,0,0,0,0,0,0,0,0,0,0,0,0,0,0,0,0,0,0,0,0,0,0,0,0,0,0,0,0,0,0,0,0,0,0,0,0,0,0,0,0,
0,0,0,0,0,0,0,0,0,0,0,0,0,0,0,0,0,0,0,0,0,0,0,0,0,0,0,0,0,0,0,0,0,0,0,0,0,0,0,0,0,0,0,0,0,0,0,0,0,0,0,0,0,0,0,0,0,0,0,0,0,0,0,0,0,0,0,0,0,0,0,0,0,0,0,0,0,0,0,0,0,0,0,0,0,0,0,0,0,0,0,0,0,0,0,0,0,0,0,0,0,0,0,0,0,0,0,0,0,0,0,0,0,0,0,0,0,0,0,0,
0,0,0,0,0,0,0,0,0,0,0,0,0,0,0,0,0,0,0,0,0,0,0,0,0,0,0,0,0,0,0,0,0,0,0,0,0,0,0,0,0,0,0,0,0,0,0,0,0,0,0,0,0,0,0,0,0,0,0,0,0,0,0,0,0,0,0,0,0,0,0,0,0,0,0,0,0,0,0,0,0,0,0,0,0,0,0,0,0,0,0,0,0,0,0,0,0,0,0,0,0,0,0,0,0,0,0,0,0,0,0,0,0,0,0,0,0,0,0,0,
0,0,0,0,0,0,0,0,0,0,0,0,0,0,0,0,0,0,0,0,0,0,0,0,0,0,0,0,0,0,0,0,0,0,0,0,0,0,0,0,0,0,0,0,0,0,0,0,0,0,0,0,0,0,0,0,0,0,0,0,0,0,0,0,0,0,0,0,0,0,0,0,0,0,0,0,0,0,0,0,0,0,0,0,0,0,0,0,0,0,0,0,0,0,0,0,0,0,0,0,0,0,0,0,0,0,0,0,0,0,0,0,0,0,0,0,0,0,0,0,
0,0,0,0,0,0,0,0,0,0,0,0,0,0,0,0,0,0,0,0,0,0,0,0,0,0,0,0,0,0,0,0,0,0,0,0,0,0,0,0,0,0,0,0,0,0,0,0,0,0,0,0,0,0,0,0,0,0,0,0,0,0,0,0,6577,0,6577,0,6577,6577,0,0,0,0,0,0,0,0,0,0,0,0,0,0,0,0,0,0,0,0,0,0,0,0,0,0,0,0,0,0,0,0,0,0,0,0,0,0,0,0,0,0,0,0,0,0,0,0,0,0,
0,0,0,0,0,0,0,0,0,0,0,0,0,0,0,0,0,0,0,0,0,0,0,0,0,0,0,0,0,0,0,0,0,0,0,0,0,0,0,0,0,0,0,0,0,0,0,0,0,0,0,0,0,0,0,0,0,0,0,0,0,0,0,0,0,0,0,0,0,0,0,0,0,0,0,0,0,0,0,0,0,0,0,0,0,0,0,0,0,0,0,0,0,0,0,0,0,0,0,0,0,0,0,0,0,0,0,0,0,0,0,0,0,0,0,0,0,0,0,0,
0,0,0,0,6403,0,0,0,0,0,0,0,0,0,0,0,0,0,0,0,0,0,0,0,0,0,0,0,0,0,0,0,0,0,0,0,0,0,0,0,0,0,0,0,0,0,0,0,0,0,0,0,0,0,0,0,0,0,0,0,0,0,0,0,0,0,0,0,0,0,0,0,0,0,0,0,0,0,0,0,0,0,0,0,0,0,0,0,0,0,0,0,0,0,0,0,0,0,0,0,0,0,0,0,0,0,0,0,0,0,0,0,0,0,0,0,0,0,0,0,
0,0,0,0,6428,0,0,0,0,0,0,0,0,0,0,0,0,0,0,0,0,0,0,0,0,0,0,0,0,0,0,0,0,0,0,0,0,0,0,0,0,0,0,0,0,0,0,0,0,0,0,0,0,0,0,0,0,6577,0,0,0,0,0,0,0,0,0,0,0,0,0,0,0,0,0,0,0,0,0,0,0,0,0,0,0,0,0,0,0,0,0,0,0,0,0,0,0,0,0,0,0,0,0,0,0,0,0,0,0,0,0,0,0,0,0,0,0,0,0,0,
0,0,0,0,6453,0,0,0,0,0,0,0,0,0,0,0,0,0,0,0,0,0,0,0,0,0,0,0,0,0,0,0,0,0,0,0,0,0,0,0,0,0,0,0,0,0,0,0,0,0,0,0,0,0,0,0,0,0,0,0,0,0,0,0,0,0,0,0,0,0,0,0,0,0,0,0,0,0,0,0,0,0,0,0,0,0,0,0,0,0,0,0,0,0,0,0,0,0,0,0,0,0,0,0,0,0,0,0,0,0,0,0,0,0,0,0,0,0,0,0,
0,0,0,0,0,6479,0,0,0,0,0,0,0,0,0,0,0,0,0,0,0,0,0,0,0,0,0,0,0,0,0,0,0,0,0,0,0,0,0,0,0,0,0,0,0,0,0,0,0,0,0,0,0,0,0,0,0,0,0,0,0,0,0,0,0,0,0,0,0,0,0,0,0,0,0,0,0,0,0,0,0,0,0,0,0,0,0,0,0,0,0,0,0,0,0,0,0,0,0,0,0,0,0,0,0,0,0,0,0,0,0,0,0,0,0,0,0,0,0,0,
0,0,0,0,0,0,0,0,0,0,0,0,0,0,0,0,0,0,0,0,0,0,0,0,0,0,0,0,0,0,0,0,0,0,0,0,0,0,0,0,0,0,0,0,0,0,0,0,0,0,6577,0,0,0,0,0,0,0,0,0,0,0,0,0,0,0,0,0,0,0,0,0,0,0,0,0,0,0,0,0,0,0,0,0,0,0,0,0,0,0,0,0,0,0,0,0,0,0,0,0,0,0,0,0,0,0,0,0,0,0,0,0,0,0,0,0,0,0,0,0,
0,0,0,0,0,0,0,0,0,0,0,0,0,0,0,0,0,0,0,0,0,0,0,0,0,0,0,0,0,0,0,0,0,0,0,0,0,0,0,0,0,0,0,0,0,0,0,0,0,0,0,0,0,0,0,0,0,0,0,0,0,0,0,0,0,0,0,0,0,0,0,0,0,0,0,0,0,0,0,0,0,0,0,0,0,0,0,0,0,0,0,0,0,0,0,0,0,0,0,0,0,0,0,0,0,0,0,0,0,0,0,0,0,0,0,0,0,0,0,0,
0,0,6536,6537,0,0,0,0,0,0,0,0,0,0,0,0,0,0,0,0,0,0,0,0,0,0,0,0,0,0,0,0,0,0,0,0,0,0,0,0,0,0,0,0,0,6577,0,0,0,0,0,0,0,0,0,0,0,0,0,0,0,0,0,0,0,0,0,0,0,0,0,0,0,0,0,0,0,0,0,0,0,0,0,0,0,0,0,0,0,0,0,0,0,0,0,0,0,0,0,0,0,0,0,0,0,0,0,0,0,0,0,0,0,0,0,0,0,0,0,0,
0,0,0,0,0,0,0,0,0,0,0,0,0,0,0,0,0,0,0,0,0,0,0,0,0,0,0,0,0,0,0,0,0,0,0,0,0,0,0,0,0,0,0,0,0,0,0,0,0,0,0,0,0,0,0,0,0,0,0,0,0,0,0,0,0,0,0,0,0,0,0,0,0,0,0,0,0,0,0,0,0,0,0,0,0,0,0,0,0,0,0,0,0,0,0,0,0,0,0,0,0,0,0,0,0,0,0,0,0,0,0,0,0,0,0,0,0,0,0,0,
0,0,0,0,0,0,0,0,0,0,0,0,0,0,0,0,0,0,0,0,0,0,0,0,0,0,0,0,0,0,0,0,0,0,0,0,0,0,0,0,6577,0,0,0,0,0,0,0,0,0,0,0,0,0,0,0,0,0,0,0,0,0,0,0,0,0,0,0,0,0,0,0,0,0,0,0,0,0,0,0,0,0,0,0,0,0,0,0,0,0,0,0,0,0,0,0,0,0,0,0,0,0,0,0,0,0,0,0,0,0,0,0,0,0,0,0,0,0,0,0,
0,0,0,0,0,0,0,0,0,0,0,0,0,0,0,0,0,0,0,0,0,0,0,0,0,0,0,0,0,0,0,0,0,0,0,0,0,0,0,0,0,0,0,0,0,0,0,0,0,0,0,0,0,0,0,0,0,0,0,0,0,0,0,0,0,0,0,0,0,0,0,0,0,0,0,0,0,0,0,0,0,0,0,0,0,0,0,0,0,0,0,0,0,0,0,0,0,0,0,0,0,0,0,0,0,0,0,0,0,0,0,0,0,0,0,0,0,0,0,0,
0,0,0,0,0,0,0,0,0,0,0,0,0,0,0,0,0,0,0,0,0,0,0,0,0,0,0,0,0,0,0,0,0,0,0,0,0,0,0,0,0,0,0,0,0,0,0,0,0,0,0,0,0,0,0,0,0,0,0,0,0,0,0,0,0,0,0,0,0,0,0,0,0,0,0,0,0,0,0,0,0,0,0,0,0,0,0,0,0,0,0,0,0,0,0,0,0,0,0,0,0,0,0,0,0,0,0,0,0,0,0,0,0,0,0,0,0,0,0,0,
0,0,0,0,0,0,0,0,0,0,0,0,0,0,0,0,0,0,0,0,0,0,0,0,0,0,0,0,0,0,0,0,0,0,0,0,0,0,0,0,0,0,0,0,0,0,0,0,0,0,0,0,0,0,0,0,0,0,0,0,0,0,0,0,0,0,0,0,0,0,0,0,0,0,0,0,0,0,0,0,0,0,0,0,0,0,0,0,0,0,0,0,0,0,0,0,0,0,0,0,0,0,0,0,0,0,0,0,0,0,0,0,0,0,0,0,0,0,0,0,
0,0,0,0,0,0,0,0,0,0,0,0,0,0,0,0,0,0,0,0,0,0,0,0,0,0,0,0,0,0,0,0,0,0,0,0,0,0,0,0,0,0,0,0,0,0,0,0,0,0,0,0,0,0,0,0,0,0,0,0,0,0,0,0,0,0,0,0,0,0,0,0,0,0,0,0,0,0,0,0,0,0,0,0,0,0,0,0,0,0,0,0,0,0,0,0,0,0,0,0,0,0,0,0,0,0,0,0,0,0,0,0,0,0,0,0,0,0,0,0,
0,0,0,0,0,0,0,0,0,0,0,0,0,0,0,0,0,0,0,0,0,0,0,0,0,0,0,0,0,0,0,0,0,0,0,0,0,0,0,0,0,0,0,0,0,0,0,0,0,0,0,0,0,0,0,0,0,0,0,0,0,0,0,0,0,0,0,0,0,0,0,0,0,0,0,0,0,0,0,0,0,0,0,0,0,0,0,0,0,0,0,0,0,0,0,0,0,0,0,0,0,0,0,0,0,0,0,0,0,0,0,0,0,0,0,0,0,0,0,0,
0,0,0,0,0,0,0,0,0,0,0,0,0,0,0,0,0,0,0,0,0,0,0,0,0,0,0,0,0,0,0,0,0,0,0,0,0,0,0,0,0,0,0,0,0,0,0,0,0,0,0,0,0,0,0,0,0,0,0,0,0,0,0,0,0,0,0,0,0,0,0,0,0,0,0,0,0,0,0,0,0,0,0,0,0,0,0,0,0,0,0,0,0,0,0,0,0,0,0,0,0,0,0,0,0,0,0,0,0,0,0,0,0,0,0,0,0,0,0,0,
0,0,0,0,0,0,0,0,0,0,0,0,0,0,0,0,0,0,0,0,0,0,0,0,0,0,0,0,0,0,0,0,0,0,0,0,6908,2629,2632,2629,2632,2629,2632,2629,2632,0,0,0,0,0,0,0,0,0,0,0,0,0,0,0,0,0,0,0,0,0,0,0,0,0,0,0,0,0,0,0,0,0,0,0,0,0,0,0,0,0,0,0,0,0,0,0,0,0,0,0,0,0,0,0,0,0,0,0,0,0,0,0,0,0,0,0,0,0,0,0,0,0,0,0,
0,0,0,0,0,0,0,0,0,0,0,0,0,0,0,0,0,0,0,0,0,0,0,0,0,0,0,0,0,0,0,0,0,0,0,0,0,0,0,0,0,0,0,0,0,0,0,0,0,0,0,0,0,0,0,0,0,0,0,0,0,2629,2630,2631,2632,6910,0,0,0,0,0,0,0,0,0,0,0,0,0,0,0,0,0,0,0,0,0,0,0,0,0,0,0,0,0,0,0,0,0,0,0,0,0,0,0,0,0,0,0,0,0,0,0,0,0,0,0,0,0,0,
0,0,0,0,0,0,0,0,0,0,0,0,0,0,0,0,0,0,0,0,0,0,0,0,0,0,0,0,0,0,0,0,0,0,0,0,0,0,0,0,0,0,0,0,0,0,0,0,0,0,0,0,0,0,0,0,0,0,0,0,0,0,0,0,0,0,0,0,0,0,0,0,0,0,0,0,0,0,0,0,0,0,0,0,0,0,0,0,0,0,0,0,0,0,0,0,0,0,0,0,0,0,0,0,0,0,0,0,0,0,0,0,0,0,0,0,0,0,0,0,
0,0,0,0,0,0,0,0,0,0,0,0,0,0,0,0,0,0,0,0,0,0,0,0,0,0,0,0,0,0,0,0,0,0,0,0,0,0,0,0,0,0,0,0,0,0,0,0,0,0,0,0,0,0,0,0,0,0,0,0,0,0,0,0,0,0,0,0,0,0,0,0,0,0,0,0,0,0,0,0,0,0,0,0,0,0,0,0,0,0,0,0,0,0,0,0,0,0,0,0,0,0,0,0,0,0,0,0,0,0,0,0,0,0,0,0,0,0,0,0,
0,0,0,0,0,0,0,0,0,0,0,0,0,0,0,0,0,0,0,0,0,0,0,0,0,0,0,0,0,0,0,0,0,0,0,0,0,0,0,0,0,0,0,0,0,0,0,0,0,0,0,0,0,0,0,0,0,0,0,0,0,0,0,0,0,0,0,0,0,0,0,0,0,0,0,0,0,0,0,0,0,0,0,0,0,0,0,0,0,0,0,0,0,0,0,0,0,0,0,0,0,0,0,0,0,0,0,0,0,0,0,0,0,0,0,0,0,0,0,0,
6758,6806,0,0,0,0,0,0,0,0,0,0,0,0,0,0,0,0,0,0,0,0,0,0,0,0,0,0,0,0,0,0,0,0,0,0,0,0,0,0,0,0,0,0,0,0,0,0,0,0,0,0,0,0,0,0,0,0,0,0,0,0,0,0,0,0,0,0,0,0,0,0,0,0,0,0,0,0,0,0,0,0,0,0,0,0,0,0,0,0,0,0,0,0,0,0,0,0,0,0,0,0,0,0,0,0,0,0,0,0,0,0,0,0,0,0,0,0,0,0,
0,0,0,0,0,0,0,0,0,0,0,0,0,0,0,0,0,0,0,0,0,0,0,0,0,0,0,0,0,0,0,0,0,0,0,0,0,0,0,0,0,0,0,0,0,0,0,0,0,0,0,0,0,0,0,0,0,0,0,0,0,0,0,0,0,0,0,0,0,0,0,0,0,0,0,0,0,0,0,0,0,0,0,0,0,0,0,0,0,0,0,0,0,0,0,0,0,0,0,0,0,0,0,0,0,0,0,0,0,0,0,0,0,0,0,0,0,0,0,0,
0,0,0,0,0,0,0,0,0,0,0,0,0,0,0,0,0,0,0,0,0,0,0,0,0,0,0,0,0,0,0,0,0,0,0,0,0,0,0,0,0,0,0,0,0,0,0,0,0,0,0,0,0,0,0,0,0,0,0,0,0,0,0,0,0,0,0,0,0,0,0,0,0,0,0,0,0,0,0,0,0,0,0,0,0,0,0,0,0,0,0,0,0,0,0,0,0,0,0,0,0,0,0,0,0,0,0,0,0,0,0,0,0,0,0,0,0,0,0,0,
0,0,0,0,0,0,0,0,0,0,0,0,0,0,0,0,0,0,0,0,0,0,0,0,0,0,0,0,0,0,0,0,0,0,0,0,0,0,0,0,0,0,0,0,0,0,0,0,0,0,0,0,0,0,0,0,0,0,0,0,0,0,0,0,0,0,0,0,0,0,0,0,0,0,0,0,0,0,0,0,0,0,0,0,0,0,0,0,0,0,0,0,0,0,0,0,0,0,0,0,0,0,0,0,0,0,0,0,0,0,0,0,0,0,0,0,0,0,0,0,
0,0,0,0,0,0,0,0,0,0,0,0,0,0,0,0,0,0,0,0,0,0,0,0,0,0,0,0,0,0,0,0,0,0,0,0,0,0,0,0,0,0,0,0,0,0,0,0,0,0,0,0,0,0,0,0,0,0,0,0,0,0,0,0,0,0,0,0,0,0,0,0,0,0,0,0,0,0,0,0,0,0,0,0,0,0,0,0,0,0,0,0,0,0,0,0,0,0,0,0,0,0,0,0,0,0,0,0,0,0,0,0,0,0,0,0,0,0,0,0,
0,0,0,0,0,0,0,0,0,0,0,0,0,0,0,0,0,0,0,0,0,0,0,0,0,0,0,0,0,0,0,0,0,0,0,0,0,0,0,0,0,0,0,0,0,0,0,0,0,0,0,0,0,0,0,0,0,0,0,0,0,0,0,0,0,0,0,0,0,0,0,0,0,0,0,0,0,0,0,0,0,0,0,0,0,0,0,0,0,0,0,0,0,0,0,0,0,0,0,0,0,0,0,0,0,0,0,0,0,0,0,0,0,0,0,0,0,0,0,0,
0,0,0,0,0,0,0,0,0,0,0,0,0,0,0,0,0,0,0,0,0,0,0,0,0,0,0,0,0,0,0,0,0,0,0,0,0,0,0,0,0,0,0,0,0,0,0,0,0,0,0,0,0,0,0,0,0,0,0,0,0,0,0,0,0,0,0,0,0,0,0,0,0,0,0,0,0,0,0,0,0,0,0,0,0,0,0,0,0,0,0,0,0,0,0,0,0,0,0,0,0,0,0,0,0,0,0,0,0,0,0,0,0,0,0,0,0,0,0,0,
0,0,0,0,0,0,0,0,0,0,0,0,0,0,0,0,0,0,0,0,0,0,0,0,0,0,0,0,0,0,0,0,0,0,0,0,0,0,0,0,0,0,0,6577,0,0,0,0,0,0,0,0,0,0,0,0,0,0,0,0,0,0,0,0,0,0,0,0,0,0,0,0,0,0,0,0,0,0,0,0,0,0,0,0,0,0,0,0,0,0,0,0,0,0,0,0,0,0,0,0,0,0,0,0,0,0,0,0,0,0,0,0,0,0,0,0,0,0,0,0,
0,0,0,0,0,0,0,0,0,0,0,0,0,0,0,0,0,0,0,0,0,0,0,0,0,0,0,0,0,0,0,0,0,0,0,0,0,0,0,0,0,0,0,0,0,0,0,0,0,0,0,0,0,0,0,0,0,0,0,0,0,0,0,0,0,0,0,0,0,0,0,0,0,0,0,0,0,0,0,0,0,0,0,0,0,0,0,0,0,0,0,0,0,0,0,0,0,0,0,0,0,0,0,0,0,0,0,0,0,0,0,0,0,0,0,0,0,0,0,0,
0,0,0,0,0,0,0,0,0,0,0,0,0,0,0,0,0,0,0,0,0,0,0,0,0,0,0,0,0,0,0,0,0,0,0,0,0,0,0,0,0,0,0,0,0,0,0,0,0,0,6577,0,0,0,0,0,0,0,0,0,0,0,0,0,0,0,0,0,0,0,0,0,0,0,0,0,0,0,0,0,0,0,0,0,0,0,0,0,0,0,0,0,0,0,0,0,0,0,0,0,0,0,0,0,0,0,0,0,0,0,0,0,0,0,0,0,0,0,0,0,
0,0,0,0,0,0,0,0,0,0,0,0,0,0,0,0,0,0,0,0,0,0,0,0,0,0,0,0,0,0,0,0,0,0,0,0,0,0,0,0,0,0,0,0,0,0,0,0,0,0,0,0,0,0,0,0,0,0,0,0,0,0,0,0,0,0,0,0,0,0,0,0,0,0,0,0,0,0,0,0,0,0,0,0,0,0,0,0,0,0,0,0,0,0,0,0,0,0,0,0,0,0,0,0,0,0,0,0,0,0,0,0,0,0,0,0,0,0,0,0,
0,0,0,0,0,0,0,0,0,0,0,0,0,0,0,0,0,0,0,0,0,0,0,0,0,0,0,0,0,0,0,0,0,0,0,0,0,0,0,0,0,0,0,0,0,0,0,0,0,0,0,0,0,0,0,0,0,0,0,0,0,0,0,0,0,0,0,0,0,0,0,0,0,0,0,0,0,0,0,0,0,0,0,0,0,0,0,0,0,0,0,0,0,0,0,0,0,0,0,0,0,0,0,0,0,0,0,0,0,0,0,0,0,0,0,0,0,0,0,0,
0,0,0,0,0,0,0,0,0,0,0,0,0,0,0,0,0,0,0,0,0,0,0,0,0,0,0,0,0,0,0,0,0,0,0,0,0,0,0,6577,0,0,0,0,0,0,0,0,0,0,0,0,0,0,0,0,0,0,0,0,0,0,0,0,0,0,0,0,0,0,0,0,0,0,0,0,0,0,0,0,0,0,0,0,0,0,0,0,0,0,0,0,0,0,0,0,0,0,0,0,0,0,0,0,0,0,0,0,0,0,0,0,0,0,0,0,0,0,0,0,
0,0,0,0,0,0,0,0,0,0,0,0,0,0,0,0,0,0,0,0,0,0,0,0,0,0,0,0,0,0,0,0,0,0,0,0,0,0,0,0,0,0,0,0,0,0,0,0,0,0,0,0,0,0,0,0,0,0,0,0,0,0,0,0,0,0,0,0,0,0,0,0,0,0,0,0,0,0,0,0,0,0,0,0,0,0,0,0,0,0,0,0,0,0,0,0,0,0,0,0,0,0,0,0,0,0,0,0,0,0,0,0,0,0,0,0,0,0,0,0,
0,0,0,0,0,0,0,0,0,0,0,0,0,0,0,0,0,0,0,0,0,0,0,0,0,0,0,0,0,0,0,0,0,0,0,0,0,0,0,0,0,0,0,0,0,0,0,0,0,0,0,0,0,0,0,0,0,0,0,0,0,0,0,0,0,0,0,0,0,0,0,0,0,0,0,0,0,0,0,0,0,0,0,0,0,0,0,0,0,0,0,0,0,0,0,0,0,0,0,0,0,0,0,0,0,0,0,0,0,0,0,0,0,0,0,0,0,0,0,0,
0,0,0,0,0,0,0,0,0,0,0,0,0,0,0,0,0,0,0,0,0,0,0,0,0,0,0,0,0,0,0,0,0,0,0,0,0,0,0,0,0,0,0,0,0,0,0,0,0,0,0,0,0,0,0,0,0,0,6577,0,0,0,0,0,0,0,0,0,0,0,0,0,0,0,0,0,0,0,0,0,0,0,0,0,0,0,0,0,0,0,0,0,0,0,0,0,0,0,0,0,0,0,0,0,0,0,0,0,0,0,0,0,0,0,0,0,0,0,0,0,
0,0,0,0,0,0,0,0,0,0,0,0,0,0,0,0,0,0,0,0,0,0,0,0,0,0,0,0,0,0,0,0,0,0,0,0,0,0,0,0,0,0,0,0,0,0,0,0,0,0,0,0,0,0,0,0,0,0,0,0,0,0,0,0,0,0,0,0,0,0,0,0,0,0,0,0,0,0,0,0,0,0,0,0,0,0,0,0,0,0,0,0,0,0,0,0,0,0,0,0,0,0,0,0,0,0,0,0,0,0,0,0,0,0,0,0,0,0,0,0,
0,0,0,0,0,0,0,0,0,0,0,0,0,0,0,0,0,0,0,0,0,0,0,0,0,0,0,0,0,0,0,0,0,0,0,0,0,0,0,0,0,0,0,0,0,0,0,0,0,0,0,0,0,0,0,0,0,0,0,0,0,0,0,0,0,0,0,0,0,0,0,0,0,0,0,0,0,0,0,0,0,0,0,0,0,0,0,0,0,0,0,0,0,0,0,0,0,0,0,0,0,0,0,0,0,0,0,0,0,0,0,0,0,0,0,0,0,0,0,0,
0,0,0,0,0,0,0,0,0,0,0,0,0,0,0,0,0,0,0,0,0,0,0,0,0,0,0,0,0,0,0,0,0,0,0,0,0,0,0,0,0,0,0,0,0,0,0,0,0,0,0,0,0,0,0,0,0,0,0,0,0,0,0,0,0,0,0,0,0,0,0,0,0,0,0,0,0,0,0,0,0,0,0,0,0,0,0,0,0,0,0,0,0,0,0,0,0,0,0,0,0,0,0,0,0,0,0,0,0,0,0,0,0,0,0,0,0,0,0,0,
0,0,0,0,0,0,0,0,0,0,0,0,0,0,0,0,0,0,0,0,0,0,0,0,0,0,0,0,0,0,0,0,0,0,0,0,0,0,0,0,0,0,0,0,0,0,0,0,0,0,0,0,0,0,0,0,0,0,0,0,0,0,0,0,0,0,0,0,0,0,0,0,0,0,0,0,0,0,0,0,0,0,0,0,0,0,0,0,0,0,0,0,0,0,0,0,0,0,0,0,0,0,0,0,0,0,0,0,0,0,0,0,0,0,0,0,0,0,0,0,
0,0,0,0,0,0,0,0,0,0,0,0,0,0,0,0,0,0,0,0,0,0,0,0,0,0,0,0,0,0,0,0,0,0,0,0,0,0,0,0,0,0,0,0,0,0,0,0,0,0,0,0,0,0,0,0,0,0,0,0,0,0,0,0,0,0,0,0,0,0,0,0,0,0,0,0,0,0,0,0,0,0,0,0,0,0,0,0,0,0,0,0,0,0,0,0,0,0,0,0,0,0,0,0,0,0,0,0,0,0,0,0,0,0,0,0,0,0,0,0,
0,0,0,0,0,0,0,0,0,0,0,0,0,0,0,0,0,0,0,0,0,0,0,0,0,0,0,0,0,0,0,0,0,0,0,0,0,0,0,0,0,0,0,0,0,0,0,0,0,0,0,0,0,0,0,0,0,0,0,0,0,0,0,0,0,0,0,0,0,0,0,0,0,0,0,0,0,0,0,0,0,0,0,0,0,0,0,0,0,0,0,0,0,0,0,0,0,0,0,0,0,0,0,0,0,0,0,0,0,0,0,0,0,0,0,0,0,0,0,0,
0,0,0,0,0,0,0,0,0,0,0,0,0,0,0,0,0,0,0,0,0,0,0,0,0,0,0,0,0,0,0,0,0,0,0,0,0,0,0,0,0,0,0,0,0,0,0,0,0,0,0,0,0,0,0,0,0,0,0,0,0,0,0,0,0,0,0,0,0,0,0,0,0,0,0,0,0,0,0,0,0,0,0,0,0,0,0,0,0,0,0,0,0,0,0,0,0,0,0,0,0,0,0,0,0,0,0,0,0,0,0,0,0,0,0,0,0,0,0,0,
0,0,0,0,0,0,0,0,0,0,0,0,0,0,0,0,0,0,0,0,0,0,0,0,0,0,0,0,0,0,0,0,0,0,0,0,0,0,0,0,0,0,0,0,0,0,0,0,0,0,0,0,0,0,0,0,0,0,0,0,0,0,0,0,0,0,0,0,0,0,0,0,0,0,0,0,0,0,0,0,0,0,0,0,0,0,0,0,0,0,0,0,0,0,0,0,0,0,0,0,0,0,0,0,0,0,0,0,0,0,0,0,0,0,0,0,0,0,0,0,
0,0,0,0,0,0,0,0,0,0,0,0,0,0,0,0,0,0,0,0,0,0,0,0,0,0,0,0,0,0,0,0,0,0,0,0,0,0,0,0,0,0,0,0,0,0,0,0,0,0,0,0,0,0,0,0,0,0,0,0,0,0,0,0,0,0,0,2137,0,0,0,0,0,0,0,0,0,0,0,0,0,0,0,0,0,0,0,0,0,0,0,0,0,0,0,0,0,0,0,0,0,0,0,0,0,0,0,0,0,0,0,0,0,0,0,0,0,0,0,0,
0,0,0,0,0,0,0,0,0,0,0,0,0,0,0,0,0,0,0,0,0,0,0,0,0,0,0,0,0,0,0,0,0,0,0,0,0,0,0,0,0,0,0,0,0,0,0,0,0,0,0,2137,0,0,0,0,0,0,0,0,0,0,0,0,0,2136,0,0,0,0,0,0,0,0,0,0,0,0,0,0,0,0,0,0,0,0,0,0,0,0,0,0,0,0,0,0,0,0,0,0,0,0,0,0,0,0,0,0,0,0,0,0,0,0,0,0,0,0,0,0,
0,0,0,0,0,0,0,0,0,0,0,0,0,0,0,0,0,0,0,0,0,0,0,0,0,0,0,0,0,0,0,0,0,0,0,0,0,0,0,0,0,0,0,0,0,0,0,0,0,0,0,0,0,0,0,0,0,0,0,2136,0,2630,2629,2632,2631,0,0,0,0,0,0,0,0,0,0,0,0,0,0,0,0,0,0,0,0,0,0,0,0,0,0,0,0,0,0,0,0,0,0,0,0,0,0,0,0,0,0,0,0,0,0,0,0,0,0,0,0,0,0,0,
0,0,0,0,0,0,0,0,0,0,0,0,0,0,0,0,0,0,0,0,0,0,0,0,0,0,0,0,0,0,0,0,0,0,0,0,0,0,0,0,0,0,0,0,0,0,0,0,0,0,0,2136,0,0,0,0,0,0,0,0,0,0,0,0,0,0,0,0,0,2136,0,0,0,0,0,0,0,0,0,0,0,0,0,0,0,0,0,0,0,0,0,0,0,0,0,0,0,0,0,0,0,0,0,0,0,0,0,0,0,0,0,0,0,0,0,0,0,0,0,0,
0,0,0,0,0,0,0,0,0,0,0,0,0,0,0,0,0,0,0,0,0,0,0,0,0,0,0,0,0,0,0,0,0,0,0,0,0,0,0,0,0,0,0,0,0,0,0,0,2136,0,0,0,2631,2629,2630,2631,2632,2631,2632,2631,6912,0,0,0,0,0,0,0,0,0,0,0,0,0,0,0,0,0,0,0,0,0,0,0,0,0,0,0,0,0,0,0,0,0,0,0,0,0,0,0,0,0,0,0,0,0,0,0,0,0,0,0,0,0,0,0,0,0,0,0,
0,0,0,0,0,0,0,0,0,0,0,0,0,0,0,0,0,0,0,0,0,0,0,0,0,0,0,0,0,0,0,0,0,0,0,0,0,0,0,0,0,0,0,0,0,0,0,0,0,0,0,0,0,0,0,0,0,0,0,0,0,0,0,0,0,0,0,0,0,0,0,2631,0,0,0,0,0,0,0,0,0,0,0,0,0,0,0,0,0,0,0,0,0,0,0,0,0,0,0,0,0,0,0,0,0,0,0,0,0,0,0,0,0,0,0,0,0,0,0,0,
0,0,0,0,0,0,0,0,0,0,0,0,0,0,0,0,0,0,0,0,0,0,0,0,0,0,0,0,0,0,0,0,0,0,0,0,0,0,0,0,0,0,0,0,0,0,0,6481,0,0,0,0,0,0,0,0,0,0,0,0,0,0,0,0,0,0,0,0,0,0,0,0,0,0,0,0,0,0,0,0,0,0,0,0,0,0,0,0,0,0,0,0,0,0,0,0,0,0,0,0,0,0,0,0,0,0,0,0,0,0,0,0,0,0,0,0,0,0,0,0,
0,0,0,0,0,0,0,0,0,0,0,0,0,0,0,0,0,0,0,0,0,0,0,0,0,0,0,0,0,0,0,0,0,0,0,0,0,0,0,0,0,0,0,0,0,0,0,0,0,0,0,0,0,0,0,0,0,0,0,0,0,0,0,0,0,0,0,0,0,0,0,0,0,0,0,0,0,0,0,0,0,0,0,0,0,0,0,0,0,0,0,0,0,0,0,0,0,0,0,0,0,0,0,0,0,0,0,0,0,0,0,0,0,0,0,0,0,0,0,0,
0,0,0,0,0,0,0,0,0,0,0,0,0,0,0,0,0,0,0,0,0,0,0,0,0,0,0,0,0,0,0,0,0,0,0,0,0,0,0,0,0,0,0,0,0,0,0,0,0,0,0,0,0,0,0,0,0,0,0,0,0,0,0,0,0,0,0,0,0,0,2137,0,0,0,0,0,0,0,0,0,0,0,0,0,0,0,0,0,0,0,0,0,0,0,0,0,0,0,0,0,0,0,0,0,0,0,0,0,0,0,0,0,0,0,0,0,0,0,0,0,
0,0,0,0,0,0,0,0,0,0,0,0,0,0,0,0,0,0,0,0,0,0,0,0,0,0,0,0,0,0,0,0,0,0,0,0,0,0,0,0,0,0,0,0,0,0,0,0,2137,0,0,0,0,0,0,0,0,0,0,0,0,0,0,0,0,0,2137,0,2136,0,0,0,0,0,0,0,0,0,0,0,0,0,0,0,0,0,0,0,0,0,0,0,0,0,0,0,0,0,0,0,0,0,0,0,0,0,0,0,0,0,0,0,0,0,0,0,0,0,0,0,
0,0,0,0,0,0,0,0,0,0,0,0,0,0,0,0,0,0,0,0,0,0,0,0,0,0,0,0,0,0,0,0,0,0,0,0,0,0,0,0,0,0,0,0,0,0,0,0,0,2136,0,0,0,0,0,0,2136,0,0,2137,0,2136,0,0,0,0,0,0,0,0,0,0,0,0,0,0,0,0,0,0,0,0,0,0,0,0,0,0,0,0,0,0,0,0,0,0,0,0,0,0,0,0,0,0,0,0,0,0,0,0,0,0,0,0,0,0,0,0,0,0,
0,0,0,0,0,0,0,0,0,0,0,0,0,6577,0,6577,0,6577,0,0,0,0,0,0,0,0,0,0,0,0,0,0,0,0,0,0,0,0,0,0,0,0,0,0,0,0,0,0,0,0,0,2136,0,0,0,0,0,0,0,0,0,2630,2629,2630,2631,2632,2631,0,0,0,0,0,0,0,0,0,0,0,0,0,0,0,0,0,0,0,0,0,0,0,0,0,0,6577,6577,0,0,0,0,0,0,0,0,0,0,0,0,0,0,0,0,0,0,0,0,0,0,0,0,0,
0,0,0,0,0,0,0,0,0,0,0,0,0,0,0,0,0,0,0,6577,0,6577,0,6577,6577,0,6577,0,6577,0,6577,0,6577,0,6577,6577,0,6577,0,6577,6577,0,6577,0,6577,0,0,0,0,0,0,2630,2629,2630,2631,2632,6907,0,0,2136,0,0,0,0,0,0,0,0,0,0,0,0,0,0,6577,0,6577,6577,0,6577,0,6577,0,6577,0,0,6577,0,6577,6577,0,0,0,0,0,0,0,0,0,0,0,0,6577,0,6577,0,6577,6577,0,6577,0,6577,6577,0,0,0,0,0,0,0,
0,0,0,0,0,0,0,0,0,0,0,0,0,0,0,0,0,0,0,0,0,0,0,0,0,0,0,0,0,0,0,0,0,0,0,0,0,0,0,0,0,0,0,0,0,0,0,0,0,0,0,0,0,0,0,0,0,6908,0,0,0,0,0,0,0,0,0,0,0,6577,0,6577,0,0,0,0,0,0,0,0,0,0,0,0,0,0,0,0,0,0,0,0,0,0,0,0,0,0,0,0,0,0,0,0,0,0,0,0,0,0,0,0,0,0,0,0,0,0,0,0,
0,0,0,0,0,0,0,0,0,0,0,0,0,0,0,0,0,0,0,0,0,0,0,0,0,0,0,0,0,0,0,0,0,0,0,0,0,0,0,0,0,0,0,0,0,0,0,0,0,0,0,0,0,0,0,0,0,0,0,0,0,0,0,0,0,0,0,6577,0,0,0,0,0,0,0,0,0,0,0,0,0,0,0,0,0,0,0,0,0,0,0,0,0,0,0,0,0,0,0,0,0,0,0,0,0,0,0,0,0,0,0,0,0,0,0,0,0,0,0,0,
0,0,0,0,0,0,0,0,0,0,0,0,0,0,0,0,0,0,0,0,0,0,0,0,0,0,0,0,0,0,0,0,0,0,0,0,0,0,0,0,0,0,0,0,0,0,0,0,0,0,6577,0,0,0,0,0,0,0,0,0,0,0,0,0,0,0,0,0,0,0,0,0,0,0,0,0,0,0,0,0,0,0,0,0,0,0,0,0,0,0,0,0,0,0,0,0,0,0,0,0,0,0,0,0,0,0,0,0,0,0,0,0,0,0,0,0,0,0,0,0,
0,0,0,0,0,0,0,0,0,0,0,0,0,0,0,0,0,0,0,0,0,0,0,0,0,0,0,0,0,0,0,0,0,0,0,0,0,0,0,0,0,0,0,0,0,0,0,0,0,0,0,0,0,0,0,0,0,0,6577,6577,0,0,0,0,0,0,0,0,0,0,0,0,0,0,0,0,0,0,0,0,0,0,0,0,0,0,0,0,0,0,0,0,0,0,0,0,0,0,0,0,0,0,0,0,0,0,0,0,0,0,0,0,0,0,0,0,0,0,0,0,
0,0,0,0,0,0,0,0,0,0,0,0,0,0,0,0,0,0,0,0,0,0,0,0,0,0,0,0,0,0,0,0,0,0,0,0,0,0,0,0,0,0,0,0,0,0,0,0,0,0,0,0,0,0,0,0,0,0,0,0,0,0,0,0,0,0,0,0,0,0,0,0,0,0,0,0,0,0,0,0,0,0,0,0,0,0,0,0,0,0,0,0,0,0,0,0,0,0,0,0,0,0,0,0,0,0,0,0,0,0,0,0,0,0,0,0,0,0,0,0,
0,0,0,0,0,0,0,0,0,0,0,0,0,0,0,0,0,0,0,0,0,0,0,0,0,0,0,0,0,0,0,0,0,0,0,0,0,0,0,0,0,0,0,0,0,0,0,0,0,0,0,0,0,0,0,0,0,0,0,0,0,0,0,0,0,0,0,0,0,0,0,0,0,0,0,0,0,0,0,0,0,0,0,0,0,0,0,0,0,0,0,0,0,0,0,0,0,0,0,0,0,0,0,0,0,0,0,0,0,0,0,0,0,0,0,0,0,0,0,0,
0,0,0,0,0,0,0,0,0,0,0,0,0,0,0,0,0,0,0,0,0,0,0,0,0,0,0,0,0,0,0,0,0,0,0,0,0,0,0,0,0,0,0,0,0,0,0,0,0,0,0,0,0,0,0,0,0,0,0,0,0,0,0,0,0,0,0,0,0,0,0,0,0,0,0,0,0,0,0,0,0,0,0,0,0,0,0,0,0,0,0,0,0,0,0,0,0,0,0,0,0,0,0,0,0,0,0,0,0,0,0,0,0,0,0,0,0,0,0,0,
0,0,0,0,0,0,0,0,0,0,0,0,0,0,0,0,0,0,0,0,0,0,0,0,0,0,0,0,0,0,0,0,0,0,0,0,0,0,0,0,0,0,0,0,0,0,0,0,0,0,0,0,0,0,0,0,0,0,0,0,0,0,0,0,0,0,0,0,0,0,0,0,0,0,0,0,0,0,0,0,0,0,0,0,0,0,0,0,0,0,0,0,0,0,0,0,0,0,0,0,0,0,0,0,0,0,0,0,0,0,0,0,0,0,0,0,0,0,0,0,
0,0,0,0,0,0,0,0,0,0,0,0,0,0,0,0,0,0,0,0,0,0,0,0,0,0,0,0,0,0,0,0,0,0,0,0,0,0,0,0,0,0,0,0,0,0,0,0,0,0,0,0,0,0,0,0,0,0,0,0,0,0,0,0,0,0,0,0,0,0,0,0,0,0,0,0,0,0,0,0,0,0,0,0,0,0,0,0,0,0,0,0,0,0,0,0,0,0,0,0,0,0,0,0,0,0,0,0,0,0,0,0,0,0,0,0,0,0,0,0
</data>
 </layer>
 <layer id="6" name="Paths" width="120" height="120">
  <data encoding="csv">
0,0,0,0,0,0,0,0,0,0,0,0,0,0,0,0,0,0,0,0,0,0,0,0,0,0,0,0,0,0,0,0,0,0,0,0,0,0,0,0,0,0,0,0,0,0,0,0,0,0,0,0,0,0,0,0,0,0,0,0,0,0,0,0,0,0,0,0,0,0,0,0,0,0,0,0,0,0,0,0,0,0,0,0,0,0,0,0,0,0,0,0,0,0,0,0,0,0,0,0,0,0,0,0,0,0,0,0,0,0,0,0,0,0,0,0,0,0,0,0,
0,0,0,0,0,0,0,0,0,0,0,0,0,0,0,0,0,0,0,0,0,0,0,0,0,0,0,0,0,0,0,0,0,0,0,0,0,0,0,0,0,0,0,0,0,0,0,0,0,0,0,0,0,0,0,0,0,0,0,0,0,0,0,0,0,0,0,0,0,0,0,0,0,0,0,0,0,0,0,0,0,0,0,0,0,0,0,0,0,0,0,0,0,0,0,0,0,0,0,0,0,0,0,0,0,0,0,0,0,0,0,0,0,0,0,0,0,0,0,0,
0,0,0,0,0,0,0,0,0,0,0,0,0,0,0,0,0,0,0,0,0,0,0,0,0,0,0,0,0,0,0,0,0,0,0,0,0,0,0,0,0,0,0,0,0,0,0,0,0,0,0,0,0,0,0,0,0,0,0,0,0,0,0,0,0,0,0,0,0,0,0,0,0,0,0,0,0,0,0,0,0,0,0,0,0,0,0,0,0,0,0,0,0,0,0,0,0,0,0,0,0,0,0,0,0,0,0,0,0,0,0,0,0,0,0,0,0,0,0,0,
0,0,0,0,0,0,0,0,0,0,0,0,0,0,0,0,0,0,0,0,0,0,0,0,0,0,0,0,0,0,0,0,0,0,0,0,0,0,0,0,0,0,0,0,0,0,0,0,0,0,0,0,0,0,0,0,0,0,0,0,0,0,0,0,0,0,0,0,0,0,0,0,0,0,0,0,0,0,0,0,0,0,0,0,0,0,0,0,0,0,0,0,0,0,0,0,0,0,0,0,0,0,0,0,0,0,0,0,0,0,0,0,0,0,0,0,0,0,0,0,
0,0,0,0,0,0,0,0,0,0,0,0,0,0,0,0,0,0,0,0,0,0,0,0,0,0,0,0,0,0,0,0,0,0,0,0,0,0,0,0,0,0,0,0,0,0,0,0,0,0,0,0,0,0,0,0,0,0,0,0,0,0,0,0,0,0,0,0,0,0,0,2080,0,0,0,0,0,0,0,0,0,0,0,0,0,0,0,0,0,0,0,0,0,0,0,0,0,0,0,0,0,0,0,0,0,0,0,0,0,0,0,0,0,0,0,0,0,0,0,0,
0,0,0,0,0,0,0,0,0,0,0,0,0,0,0,0,0,0,0,0,0,0,0,0,0,0,0,0,0,0,0,0,0,0,0,0,0,0,0,0,0,0,0,0,0,0,0,0,0,0,0,0,0,0,0,0,0,0,0,0,0,0,0,0,0,0,0,0,0,0,0,0,0,2095,0,0,0,0,0,0,0,0,0,0,0,0,0,0,0,0,0,0,0,0,0,0,0,0,0,0,0,0,0,0,0,0,0,0,0,0,0,0,0,0,0,0,0,0,0,0,
0,0,0,0,0,0,0,0,0,0,0,0,0,0,0,0,0,0,0,0,0,0,0,0,0,0,0,0,0,0,0,0,0,0,0,0,0,0,0,0,0,0,0,0,0,0,0,0,0,0,0,0,0,0,0,0,0,0,0,0,0,0,0,0,0,0,0,0,0,0,0,2094,0,0,0,0,0,0,0,0,0,0,0,0,0,0,0,0,0,0,0,0,0,0,0,0,0,0,0,0,0,0,0,0,0,0,0,0,0,0,0,0,0,0,0,0,0,0,0,0,
0,0,0,0,0,0,0,0,0,0,0,0,0,0,0,0,0,0,0,0,0,0,0,0,0,0,0,0,0,0,0,0,0,0,0,0,0,0,0,0,0,0,0,0,0,0,0,0,0,0,0,0,0,0,0,0,0,0,0,0,0,0,0,0,0,0,0,0,0,0,0,0,2095,0,0,0,0,0,0,0,0,0,0,0,0,0,0,0,0,0,0,0,0,0,0,0,0,0,0,0,0,0,0,0,0,0,0,0,0,0,0,0,0,0,0,0,0,0,0,0,
0,0,0,0,0,0,0,0,0,0,0,0,0,0,0,0,0,0,0,0,0,0,0,0,0,0,0,0,0,0,0,0,0,0,0,0,0,0,0,0,0,0,0,0,0,0,0,0,0,0,0,0,0,0,2095,0,0,0,2095,0,0,0,0,0,0,0,0,0,0,0,0,0,0,0,0,0,0,0,0,0,0,0,0,0,0,0,0,0,0,0,0,0,0,0,0,0,0,0,0,0,0,0,0,0,0,0,0,0,0,0,0,0,0,0,0,0,0,0,0,0,
0,0,0,0,0,0,0,0,0,0,0,0,0,0,0,0,0,0,0,0,0,0,0,0,0,0,0,0,0,0,0,0,0,0,0,0,0,0,0,0,0,0,0,0,0,0,0,0,0,0,0,0,0,0,0,0,0,0,0,0,0,0,0,0,0,0,0,0,0,0,0,0,0,0,0,0,2080,0,0,0,0,0,0,0,0,0,0,0,0,0,0,0,0,0,0,0,0,0,0,0,0,0,0,0,0,0,0,0,0,0,0,0,0,0,0,0,0,0,0,0,
0,0,0,0,0,0,0,0,0,0,0,0,0,0,0,0,0,0,0,0,0,0,0,0,0,0,0,0,0,0,0,0,0,0,0,0,0,0,0,0,0,0,0,0,0,0,0,0,0,0,0,0,0,0,0,2094,0,0,0,0,0,2095,0,0,0,0,0,0,0,0,0,0,2093,0,0,0,0,0,0,2095,0,0,0,0,0,0,0,0,0,0,0,0,0,0,0,0,0,0,0,0,0,0,0,0,0,0,0,0,0,0,0,0,0,0,0,0,0,0,0,0,
0,0,0,0,0,0,0,0,0,0,0,0,0,0,0,0,0,0,0,0,0,0,0,0,0,0,0,0,0,0,0,0,0,0,0,0,0,0,0,0,0,0,0,0,0,0,0,0,0,0,0,0,0,0,2095,0,0,0,0,0,0,0,0,0,0,0,0,0,0,0,0,0,0,0,0,0,0,2094,0,0,0,0,0,0,0,0,0,0,0,0,0,0,0,0,0,0,0,0,0,0,0,0,0,0,0,0,0,0,0,0,0,0,0,0,0,0,0,0,0,0,
0,0,0,0,0,0,0,0,0,0,0,0,0,0,0,0,0,0,0,0,0,0,0,0,0,0,0,0,0,0,0,0,0,0,0,0,0,0,0,0,0,0,0,0,0,0,0,0,0,0,0,0,2093,0,0,0,0,0,0,0,2094,0,0,0,0,0,0,0,0,0,0,0,0,0,0,0,0,0,2095,0,0,0,0,0,0,0,0,0,0,0,0,0,0,0,0,0,0,0,0,0,0,0,0,0,0,0,0,0,0,0,0,0,0,0,0,0,0,0,0,0,
0,0,0,0,0,0,0,0,0,0,0,0,0,0,0,0,0,0,0,0,0,0,0,0,0,0,0,0,0,0,0,0,0,0,0,0,0,0,0,0,0,0,0,0,0,0,0,0,0,0,0,0,0,0,0,0,2095,0,2080,0,0,0,0,0,0,0,0,0,0,0,0,0,0,0,0,0,0,0,0,0,2095,0,0,0,0,0,0,0,0,0,0,0,0,0,0,0,0,0,0,0,0,0,0,0,0,0,0,0,0,0,0,0,0,0,0,0,0,6675,0,0,
0,0,0,0,0,0,0,0,0,0,0,0,0,0,0,0,0,0,0,0,0,0,0,0,0,0,0,0,0,0,0,0,0,0,0,0,0,0,0,0,0,0,0,0,0,0,0,0,0,0,0,0,0,0,0,0,0,0,0,0,0,0,0,0,0,0,0,0,0,0,0,0,0,0,0,0,0,0,0,0,0,0,0,0,0,0,0,0,0,0,0,0,0,0,0,0,0,0,0,0,0,0,0,0,0,0,0,0,0,0,0,0,0,0,0,0,0,0,0,0,
0,0,0,0,0,0,0,0,0,0,0,0,0,0,0,0,0,0,0,0,0,0,0,0,0,0,0,0,0,0,0,0,0,0,0,0,0,0,0,0,0,0,0,0,0,0,0,0,0,0,0,0,0,0,0,0,0,0,0,0,0,0,0,0,0,0,0,0,0,0,0,0,0,0,0,0,0,0,0,0,0,0,0,0,0,0,0,0,0,0,0,0,0,0,0,0,0,0,0,0,0,0,0,0,0,0,0,0,0,0,0,0,0,0,0,0,0,0,0,6625,
0,0,0,0,0,0,0,0,0,0,0,0,0,0,0,0,0,0,0,0,0,0,0,0,0,0,0,0,0,0,0,0,0,0,0,0,0,0,0,0,0,0,0,0,0,0,0,0,0,0,0,0,0,0,0,0,0,0,0,0,0,0,0,0,0,0,0,0,0,0,0,0,0,0,0,0,0,0,0,0,0,0,0,0,0,0,0,0,0,0,0,0,0,0,0,0,0,0,0,0,2095,0,0,0,0,0,0,0,0,0,0,0,0,0,0,0,0,0,0,0,
0,0,0,0,0,0,0,0,0,0,0,0,0,0,0,0,0,0,0,0,0,0,0,0,0,0,0,0,0,0,0,0,0,0,0,0,0,0,0,0,0,0,0,0,0,0,0,0,0,0,0,0,0,0,0,0,0,0,0,0,0,0,0,0,0,0,0,0,0,0,0,0,0,0,0,0,0,0,0,0,0,0,0,0,0,0,0,0,0,0,0,0,0,0,0,0,0,0,0,0,0,0,0,0,0,0,0,0,0,0,0,0,0,0,0,0,0,0,0,0,
2095,0,0,0,0,0,0,0,0,0,0,0,0,0,0,0,0,0,0,0,0,0,0,0,0,0,0,0,0,0,0,0,0,0,0,0,0,0,0,0,0,0,0,0,0,0,0,0,0,0,0,0,0,0,0,0,0,0,0,0,0,0,0,0,0,0,0,0,0,0,0,0,0,0,0,0,0,0,0,0,0,0,0,0,0,0,0,0,0,0,0,0,0,0,0,0,0,2091,0,2091,0,0,2091,0,0,0,0,0,0,0,0,0,0,0,0,0,0,0,0,0,
0,0,0,0,0,0,0,0,0,0,0,0,0,0,0,0,0,0,0,0,0,0,0,0,0,0,0,0,0,0,0,0,0,0,0,0,0,0,0,0,0,0,0,0,0,0,0,0,0,0,0,0,0,0,0,0,0,0,0,0,0,0,0,0,0,0,0,0,0,0,0,0,0,0,0,0,0,0,0,0,0,0,0,0,0,0,0,0,0,0,0,0,2095,0,0,2091,2091,0,2091,0,0,2091,2091,2091,0,0,0,0,0,0,0,0,0,0,0,0,0,0,0,0,
0,0,0,0,0,0,0,0,0,0,0,0,0,0,0,0,0,0,0,0,0,0,0,0,0,0,0,0,0,0,0,0,0,0,0,0,0,0,0,0,0,0,0,0,0,0,0,0,0,0,0,0,0,0,0,0,0,0,0,0,0,0,0,0,0,0,0,0,0,0,0,0,0,0,0,0,0,0,0,0,0,0,0,0,0,0,0,0,0,0,0,0,0,0,0,0,0,2091,0,2091,2091,0,2091,0,0,0,0,0,0,0,0,0,0,0,0,0,0,0,0,0,
0,0,0,0,0,0,0,0,0,0,0,0,0,0,0,0,0,0,0,0,0,0,0,0,0,0,0,0,0,0,0,0,0,0,0,0,0,0,0,0,0,0,0,0,0,0,0,0,0,0,0,0,0,0,0,0,0,0,0,0,0,0,0,0,0,0,0,0,0,0,0,0,0,0,0,0,0,0,0,0,0,0,0,0,0,0,0,0,0,0,0,0,0,0,0,0,0,0,0,0,0,0,0,0,0,0,0,0,0,0,0,0,0,0,0,0,0,0,0,0,
0,0,0,0,0,0,0,0,0,0,0,0,0,0,0,0,0,0,0,0,0,0,0,0,0,0,0,0,0,0,0,0,0,0,0,0,0,0,0,0,0,0,0,0,0,0,0,0,0,0,0,0,0,0,0,0,0,0,0,0,0,0,0,0,0,0,0,0,0,0,0,0,0,0,0,0,0,0,0,0,0,0,0,0,0,0,0,0,0,0,0,0,0,0,0,0,0,0,0,0,0,0,0,0,0,0,0,0,0,0,0,0,0,0,0,0,0,0,0,0,
0,0,0,0,0,0,0,0,0,0,0,0,0,0,0,0,0,0,0,0,0,0,0,0,0,0,0,0,0,0,0,0,0,0,0,0,0,0,0,0,0,0,0,0,0,0,0,0,0,0,0,0,0,0,0,0,0,0,0,0,0,0,0,0,0,0,0,0,0,0,0,0,0,0,0,0,0,0,0,0,0,0,0,0,0,0,0,0,0,0,0,0,0,0,0,0,0,0,0,0,0,0,0,0,0,0,0,0,0,0,0,0,0,0,0,0,0,2094,0,0,
0,0,0,0,0,0,0,0,0,0,0,0,0,0,0,0,0,0,0,0,0,0,0,0,0,0,0,0,0,0,0,0,0,0,0,0,0,0,0,0,0,0,0,0,0,0,0,0,0,0,0,0,0,0,0,0,0,0,0,0,0,0,0,0,0,0,0,0,0,0,0,0,0,0,0,0,0,0,0,0,0,0,0,0,0,0,0,0,0,0,0,0,0,0,0,0,0,0,0,0,0,0,0,0,0,0,0,0,0,0,0,0,0,0,0,0,0,0,0,0,
0,0,0,0,0,0,0,0,0,0,0,0,0,0,0,0,0,0,0,0,0,0,0,0,0,0,0,0,0,0,0,0,0,0,0,0,0,0,0,0,0,0,0,0,0,0,0,0,0,0,0,0,0,0,0,0,0,0,0,0,0,0,0,0,0,0,0,0,0,0,0,0,0,0,0,0,0,0,0,0,0,0,0,0,0,0,0,0,0,0,0,0,0,0,0,0,0,0,0,0,0,0,0,0,0,0,0,0,0,0,0,0,0,0,0,0,0,0,0,0,
2095,0,0,0,0,0,0,0,0,0,0,0,0,0,0,0,0,0,0,0,0,0,0,0,0,0,0,0,0,0,0,0,0,0,0,0,0,0,0,0,0,0,0,0,0,0,0,0,0,0,0,0,0,0,0,0,0,0,0,0,0,0,0,0,0,0,0,0,0,0,0,0,0,0,0,0,0,0,0,0,0,0,0,0,0,0,0,0,0,0,0,0,0,0,0,0,0,0,0,0,0,0,0,0,0,0,0,0,0,0,0,0,0,0,0,0,0,0,0,0,
0,2093,0,0,0,0,0,0,0,0,0,0,0,0,0,0,0,0,0,0,0,0,0,0,0,0,0,0,0,0,0,0,0,0,0,0,0,0,0,0,0,0,0,0,0,0,0,0,0,0,0,0,0,0,0,0,0,0,0,0,0,0,0,0,0,0,0,0,0,0,0,0,0,0,0,0,0,0,0,0,0,0,0,0,0,0,0,0,0,0,0,0,0,0,0,0,0,0,0,0,0,0,0,0,0,0,0,0,0,0,0,0,0,0,0,0,0,0,0,0,
0,0,0,0,0,0,0,0,0,0,0,0,0,0,0,0,0,0,0,0,0,0,0,0,0,0,0,0,0,0,0,0,0,0,0,0,0,0,0,0,0,0,0,0,0,0,0,0,0,0,0,0,0,0,0,0,0,0,0,0,0,0,0,0,0,0,0,0,0,0,0,0,0,0,0,0,0,0,0,0,0,0,0,0,0,0,0,0,0,0,0,0,0,0,0,0,0,0,0,0,2093,0,0,0,0,0,0,0,0,0,0,0,0,0,0,0,0,0,0,0,
0,0,0,0,0,0,0,0,0,0,0,0,0,0,0,0,0,0,0,0,0,0,0,0,0,0,0,0,0,0,0,0,0,0,0,0,0,0,0,0,0,0,0,0,0,0,0,0,0,0,0,0,0,0,0,0,0,0,0,0,0,0,0,0,0,0,0,0,0,0,0,0,0,0,0,0,0,0,0,0,0,0,0,0,0,0,0,0,0,0,0,0,0,0,0,0,0,0,0,2094,0,0,0,0,0,0,0,0,0,0,0,0,0,0,0,0,0,0,0,0,
0,0,0,0,0,0,0,0,0,0,0,0,0,0,0,0,0,0,0,0,0,0,0,0,0,0,0,0,0,0,0,0,0,0,0,0,0,0,0,0,0,0,0,0,0,0,0,0,0,0,0,0,0,0,0,0,0,0,0,0,0,0,0,0,0,0,0,0,0,0,0,0,0,0,0,0,0,0,0,0,0,0,0,0,0,0,0,0,0,0,0,0,0,0,0,0,0,0,0,0,0,0,0,0,0,0,0,0,0,0,0,0,0,0,0,0,0,0,0,0,
0,0,0,0,0,0,0,0,0,0,0,0,0,0,0,0,0,0,0,0,0,0,0,0,0,0,0,0,0,0,0,0,0,0,0,0,0,0,0,0,0,0,0,0,0,0,0,0,0,0,0,0,0,0,0,0,0,0,0,0,0,0,0,0,0,0,0,0,0,0,0,0,0,0,0,0,0,0,0,0,0,0,0,0,0,0,0,0,0,0,0,0,0,0,0,0,0,0,0,0,0,0,0,0,0,0,0,0,0,0,0,0,0,0,0,0,0,0,0,0,
0,0,0,0,0,0,0,0,0,0,0,0,0,0,0,0,0,0,0,0,0,0,0,0,0,0,0,0,0,0,0,0,0,0,0,0,0,0,0,0,0,0,0,0,0,0,0,0,0,0,0,0,0,0,0,0,0,0,0,0,0,0,0,0,0,0,0,0,0,0,0,0,0,0,0,0,0,0,0,0,0,0,0,0,0,0,0,0,0,0,0,0,0,0,0,0,0,0,0,0,2095,0,0,0,0,0,0,0,0,0,0,0,0,0,0,0,0,0,0,0,
0,0,0,0,0,0,0,0,0,0,0,0,0,0,0,0,0,0,0,0,0,0,0,0,0,0,0,0,0,0,0,0,0,0,0,0,0,0,0,0,0,0,0,0,0,0,0,0,0,0,0,0,0,0,0,0,0,0,0,0,0,0,0,0,0,0,0,0,0,0,0,0,0,0,0,0,0,0,0,0,0,0,0,0,0,0,0,0,0,0,0,0,0,0,0,0,0,0,0,0,0,0,0,0,0,0,0,0,0,2093,0,0,0,0,0,0,2094,0,0,0,
0,0,0,0,0,0,0,0,0,0,0,0,0,0,0,0,0,0,0,0,0,0,0,0,0,0,0,0,0,0,0,0,0,0,0,0,0,0,0,0,0,0,0,0,0,0,0,0,0,0,0,0,0,0,0,0,0,0,0,0,0,0,0,0,0,0,0,0,0,0,0,0,0,0,0,0,0,0,0,0,0,0,0,0,0,0,0,0,0,0,0,0,0,0,0,0,0,0,0,0,0,0,0,0,0,0,0,0,0,0,0,0,0,0,0,0,0,6675,2094,0,
0,0,0,0,0,0,0,0,0,0,0,0,0,0,0,0,0,0,0,0,0,0,0,0,0,0,0,0,0,0,0,0,0,0,0,0,0,0,0,0,0,0,0,0,0,0,0,0,0,0,0,0,0,0,0,0,0,0,0,0,0,0,0,0,0,0,0,0,0,0,0,0,0,0,0,0,0,0,0,0,0,0,0,0,0,0,0,0,0,0,0,0,0,0,0,0,0,0,0,0,0,0,0,0,0,0,0,0,0,0,0,0,0,0,0,0,0,0,0,2095,
0,0,0,0,0,0,0,0,0,0,0,0,0,0,0,0,0,0,0,0,0,0,0,0,0,0,0,0,0,0,0,0,0,0,0,0,0,0,0,0,0,0,0,0,0,0,0,0,0,0,0,0,0,0,0,0,0,0,0,0,0,0,0,0,0,0,0,0,0,0,0,0,0,0,0,0,0,0,0,0,0,0,0,0,0,0,0,0,0,0,0,0,0,0,0,0,0,0,0,0,0,0,0,0,0,0,0,0,0,0,0,0,0,0,0,0,0,0,0,0,
0,0,0,0,0,0,0,0,0,0,0,0,0,0,0,0,0,0,0,0,0,0,0,0,0,0,0,0,0,0,0,0,0,0,0,0,0,0,0,0,0,0,0,0,0,0,0,0,0,0,0,0,0,0,0,0,0,0,0,0,0,0,0,0,0,0,0,0,0,0,0,0,0,0,0,0,0,0,0,0,0,0,0,0,0,0,0,0,0,0,0,0,0,0,0,0,0,0,0,0,0,0,0,0,0,0,0,0,0,0,0,0,0,0,0,0,0,0,0,0,
0,0,0,0,0,0,0,0,0,0,0,0,0,0,0,0,0,0,0,0,0,0,0,0,0,0,0,0,0,0,0,0,0,0,0,0,0,0,0,0,0,0,0,0,0,0,0,0,0,0,0,0,0,0,0,0,0,0,0,0,0,0,0,0,0,0,0,0,0,0,0,0,0,0,0,0,0,0,0,0,0,0,0,0,0,0,0,0,0,0,0,0,0,0,0,0,0,0,0,0,0,0,0,0,0,0,0,0,0,0,0,0,0,0,0,0,0,0,0,0,
0,0,0,0,0,0,0,0,0,0,0,0,0,0,0,0,0,0,0,0,0,0,0,0,0,0,0,0,0,0,0,0,0,0,0,0,0,0,0,0,0,0,0,0,0,0,0,0,0,0,0,0,0,0,0,0,0,0,0,0,0,0,0,0,0,0,0,0,0,0,0,0,0,0,0,0,0,0,0,0,0,0,0,0,0,0,0,0,0,0,0,0,0,0,0,0,0,0,0,0,0,0,0,0,0,0,0,0,0,0,0,0,0,0,0,0,0,0,0,0,
0,0,0,0,0,0,0,0,0,0,0,0,0,0,0,0,0,0,0,0,0,0,0,0,0,0,0,0,0,0,0,0,0,0,0,0,0,0,0,0,0,0,0,0,0,0,0,0,0,0,0,0,0,0,0,0,0,0,0,0,0,0,0,0,0,0,0,0,0,0,0,0,0,0,0,0,0,0,0,0,0,0,0,0,0,0,0,0,0,0,0,0,0,0,0,0,0,0,0,0,0,0,0,0,0,0,0,0,0,0,0,0,0,0,0,0,0,0,0,0,
0,0,0,0,0,0,0,0,0,0,0,0,0,0,0,0,0,0,0,0,0,0,0,0,0,0,0,0,0,0,0,0,0,0,0,0,0,0,0,0,0,0,0,0,0,0,0,0,0,0,0,0,0,0,0,0,0,0,0,0,0,0,0,0,0,0,0,0,0,0,0,0,0,0,0,0,0,0,0,0,0,0,0,0,0,0,0,0,0,0,0,0,0,0,0,0,0,0,0,0,0,0,0,0,0,0,0,0,0,0,0,0,0,0,0,0,0,0,0,0,
0,0,0,0,0,0,0,0,0,0,0,0,0,0,0,0,0,0,0,0,0,0,0,0,0,0,0,0,0,0,0,0,0,0,0,0,0,0,0,0,0,0,0,0,0,0,0,0,0,0,0,0,0,0,0,0,0,0,0,0,0,0,0,0,0,0,0,0,0,0,0,0,0,0,0,0,0,0,0,0,0,0,0,0,0,0,0,0,0,0,0,0,0,0,0,0,0,0,0,0,0,0,0,0,0,0,0,0,0,0,0,0,0,0,0,0,0,0,0,0,
0,0,0,0,0,0,0,0,0,0,0,0,0,0,0,0,0,0,0,0,0,0,0,0,0,0,0,0,0,0,0,0,0,0,0,0,0,0,0,0,0,0,0,0,0,0,0,0,0,0,0,0,0,0,0,0,0,0,0,0,0,0,0,0,0,0,0,0,0,0,0,0,0,0,0,0,0,0,0,0,0,0,0,0,0,0,0,0,0,0,0,0,0,0,0,0,0,0,0,0,0,0,0,0,0,0,0,2096,0,0,0,0,0,0,0,0,2096,0,0,0,
0,0,0,0,0,0,0,0,0,0,0,0,0,0,0,0,0,0,0,0,0,0,0,0,0,0,0,0,0,0,0,0,0,0,0,0,0,0,0,0,0,0,0,0,0,0,0,0,0,0,0,0,0,0,0,0,0,0,0,0,0,0,0,0,0,0,0,0,0,0,0,0,0,0,0,0,0,0,0,0,0,0,0,0,0,0,0,0,0,0,0,0,0,0,0,0,0,0,0,0,0,0,0,0,0,0,0,0,0,0,0,0,0,0,0,0,0,0,0,0,
0,0,0,0,0,0,0,0,0,0,0,0,0,0,0,0,0,0,0,0,0,0,0,0,0,0,0,0,0,0,0,0,0,0,0,0,0,0,0,0,0,0,0,0,0,0,0,0,0,0,0,0,0,0,0,0,0,0,0,0,0,0,0,0,0,0,0,0,0,0,0,0,0,0,0,0,0,0,0,0,0,0,0,0,0,0,0,0,0,0,0,0,0,0,0,0,0,0,0,0,0,0,0,0,0,0,0,0,0,0,0,0,0,0,0,0,0,0,0,0,
0,0,0,0,0,0,0,0,0,0,0,0,0,0,0,0,0,0,0,0,0,0,0,0,0,0,0,0,0,0,0,0,0,0,0,0,0,0,0,0,0,0,0,0,0,0,0,0,0,0,0,0,0,0,0,0,0,0,0,0,0,0,0,0,0,0,0,0,0,0,0,0,0,0,0,0,0,0,0,0,0,0,0,0,0,0,0,0,0,0,0,0,0,0,0,0,0,0,0,2096,0,0,0,0,0,0,0,0,0,0,0,0,0,0,0,0,0,0,0,0,
0,0,0,0,0,0,0,0,0,0,0,0,0,0,0,0,0,0,0,0,0,0,0,0,0,0,0,0,0,0,0,0,0,0,0,0,0,0,0,0,0,0,0,0,0,0,0,0,0,0,0,0,0,0,0,0,0,0,0,0,0,0,0,0,0,0,0,0,0,0,0,0,0,0,0,0,0,0,0,0,0,0,0,0,0,0,0,0,0,0,0,0,0,0,0,0,0,0,0,0,0,0,0,0,0,0,0,0,0,0,0,0,0,0,0,0,0,0,0,0,
0,0,0,0,0,0,0,0,0,0,0,0,0,0,0,0,0,0,0,0,0,0,0,0,0,0,0,0,0,0,0,0,0,0,0,0,0,0,0,0,0,0,0,0,0,0,0,0,0,0,0,0,0,0,0,0,0,0,0,0,0,0,0,0,0,0,0,0,0,0,0,0,0,0,0,0,0,0,0,0,0,0,0,0,0,0,0,0,0,0,0,0,0,2096,0,0,0,0,0,0,0,0,0,0,0,0,0,0,0,0,0,0,0,0,0,0,0,0,0,0,
0,0,0,0,0,0,0,0,0,0,0,0,0,0,0,0,0,0,0,0,0,0,0,0,0,0,0,0,0,0,0,0,0,0,0,0,0,0,0,0,0,0,0,0,0,0,0,0,0,0,0,0,0,0,0,0,0,0,0,0,0,0,0,0,0,0,0,0,0,0,0,0,0,0,0,0,0,0,0,0,0,0,0,0,0,0,0,0,0,0,0,0,0,0,0,0,0,0,0,0,0,0,0,0,0,0,0,0,0,0,0,0,0,0,0,0,0,0,0,0,
0,0,0,0,0,0,0,0,0,0,0,0,0,0,0,0,0,0,0,0,0,0,0,0,0,0,0,0,0,0,0,0,0,0,0,0,0,0,0,0,0,0,0,0,0,0,0,0,0,0,0,0,0,0,0,0,0,0,0,0,0,0,0,0,0,0,0,0,0,0,0,0,0,0,0,0,0,0,0,0,0,0,0,0,0,0,0,0,0,0,0,0,0,0,0,0,0,0,0,0,0,0,0,0,0,0,0,0,0,0,0,0,0,0,0,0,0,0,0,0,
0,0,0,0,0,0,0,0,0,0,0,0,0,0,0,0,0,0,0,0,0,0,0,0,0,0,0,0,0,0,0,0,0,0,0,0,0,0,0,0,0,0,0,0,0,0,0,0,0,0,0,0,0,0,0,0,0,0,0,0,0,0,0,0,0,0,0,0,0,0,0,0,0,0,0,0,0,0,0,0,0,0,0,0,0,0,0,0,0,0,0,0,0,0,0,0,0,0,0,0,0,0,0,0,0,0,0,0,0,0,0,0,0,0,0,0,0,0,0,0,
0,0,0,0,0,0,0,0,0,0,0,0,0,0,0,0,0,0,0,0,0,0,0,0,0,0,0,0,0,0,0,0,0,0,0,0,0,0,0,0,0,0,0,0,0,0,0,0,0,0,0,0,0,0,0,0,0,0,0,0,0,0,0,0,0,0,0,0,0,0,0,0,0,0,0,0,0,0,0,0,0,0,0,0,0,0,0,0,0,0,0,0,0,0,0,0,0,0,0,0,0,0,0,0,0,0,0,0,0,0,0,0,0,0,0,0,0,0,0,0,
0,0,0,0,0,0,0,0,0,0,0,0,0,0,0,0,0,0,0,0,0,0,0,0,0,0,0,0,0,0,0,0,0,0,0,0,0,0,0,0,0,0,0,0,0,0,0,0,0,0,0,0,0,0,0,0,0,0,0,0,0,0,0,0,0,0,0,0,0,0,0,0,0,0,0,0,0,0,0,0,0,0,0,0,0,0,0,0,0,0,0,0,0,0,0,0,0,0,0,0,0,0,0,0,0,0,0,0,0,0,0,0,0,0,0,0,0,0,0,0,
0,0,0,0,0,0,0,0,0,0,0,0,0,0,0,0,0,0,0,0,0,0,0,0,0,0,0,0,0,0,0,0,0,0,0,0,0,0,0,0,0,0,0,0,0,0,0,0,0,0,0,0,0,0,0,0,0,0,0,0,0,0,0,0,0,0,0,0,0,0,0,0,0,0,0,0,0,0,0,0,0,0,0,0,0,0,0,0,0,0,0,0,0,0,0,0,0,0,0,0,0,0,0,0,0,0,0,0,0,0,0,0,0,0,0,0,0,0,0,0,
0,0,0,0,0,0,0,0,0,0,0,0,0,0,0,0,0,0,0,0,0,0,0,0,0,0,0,0,0,0,0,0,0,0,0,0,0,0,0,0,0,0,0,0,0,0,0,0,0,0,0,0,0,0,0,0,0,0,0,0,0,0,0,0,0,0,0,0,0,0,0,0,0,0,0,0,0,0,0,0,2096,0,0,0,0,0,0,0,0,0,0,0,0,0,0,0,0,0,0,0,0,0,0,0,0,0,0,0,0,0,0,0,0,0,0,0,0,0,0,0,
0,0,0,0,0,0,0,0,0,0,0,0,0,0,0,0,0,0,0,0,0,0,0,0,0,0,0,0,0,0,0,0,0,0,0,0,0,0,0,0,0,0,0,0,0,0,0,0,0,0,0,0,0,0,0,0,0,0,0,0,0,0,0,0,0,0,0,0,0,0,0,0,2096,0,0,0,0,0,0,0,0,0,0,0,0,0,0,0,0,0,0,0,0,0,0,0,0,0,0,0,0,0,0,0,0,0,0,0,0,0,0,0,0,0,0,0,0,0,0,0,
0,0,0,0,0,0,2094,0,0,0,0,0,0,0,0,0,0,0,0,0,0,0,0,0,0,2094,0,0,0,0,0,0,0,0,2094,0,0,0,0,0,0,0,0,0,0,0,0,0,0,0,0,0,0,0,0,0,0,0,0,0,0,0,0,0,0,0,0,0,0,0,0,0,0,0,0,0,0,0,0,0,0,0,0,0,0,0,0,0,0,0,0,0,0,0,0,0,0,0,0,0,0,0,0,0,0,0,0,0,0,0,0,0,0,0,0,0,0,0,0,0,
0,0,0,0,0,0,0,0,2093,0,0,0,0,0,0,0,0,0,0,0,0,0,0,0,0,0,0,0,0,0,0,0,0,0,0,0,0,0,0,0,0,0,0,0,0,0,0,0,0,0,0,0,0,0,0,0,0,0,0,0,0,0,0,2096,0,0,0,0,0,0,0,0,0,0,0,0,0,0,0,0,0,0,0,0,0,0,0,0,0,0,0,0,0,0,0,0,0,0,0,0,0,0,0,0,0,0,0,0,0,0,0,0,0,0,0,0,0,0,0,0,
0,0,0,0,0,0,0,0,0,0,0,0,0,0,0,0,0,0,0,0,0,0,0,0,0,0,0,0,0,0,0,0,0,0,0,0,0,0,0,0,0,0,0,0,0,0,0,0,0,0,0,0,0,0,0,0,0,0,0,0,0,0,0,0,0,0,0,0,0,0,0,0,0,0,0,0,0,0,0,0,0,0,0,0,0,0,0,0,0,0,0,0,0,0,0,0,0,0,0,0,0,0,0,0,0,0,0,0,0,0,0,0,0,0,0,0,0,0,0,0,
0,0,0,0,0,0,0,0,0,0,0,0,0,0,0,0,0,0,0,0,0,0,0,0,0,0,0,0,0,0,0,0,0,0,0,0,0,0,0,0,0,0,0,0,0,0,0,0,0,0,0,0,2096,0,0,0,0,0,0,0,0,0,0,0,0,0,0,0,0,0,0,0,0,0,0,0,0,0,0,0,0,0,0,0,0,0,0,0,0,0,0,0,0,0,0,0,0,0,0,0,0,0,0,0,0,0,0,0,0,0,0,0,0,0,0,0,0,0,0,0,
0,0,0,0,0,0,0,0,0,0,0,0,0,0,0,0,0,0,0,0,0,0,0,0,0,0,0,0,0,0,0,0,0,0,0,0,0,0,0,0,0,0,0,0,0,0,0,0,0,0,0,0,0,0,0,0,0,0,0,0,0,0,0,0,0,0,0,0,0,0,0,0,0,0,0,0,0,0,0,0,0,0,0,0,0,0,0,0,0,0,0,0,0,0,0,0,0,0,0,0,0,0,0,0,0,0,0,0,0,0,0,0,0,0,0,0,0,0,0,0,
0,0,0,0,0,0,0,0,0,0,0,0,0,0,0,0,0,0,0,0,0,0,0,0,0,0,0,0,0,0,0,0,0,0,0,0,0,0,0,0,0,0,0,0,0,0,0,0,0,0,0,0,0,0,0,0,0,0,0,0,0,0,0,0,0,0,0,0,0,0,0,0,0,0,0,0,0,0,0,0,0,0,0,0,0,0,0,0,0,0,0,0,0,0,0,0,0,0,0,0,0,0,0,0,0,0,0,0,0,0,0,0,0,0,0,0,0,0,0,0,
0,0,0,0,0,0,0,0,0,0,0,0,0,0,0,0,0,0,0,0,0,0,0,0,0,0,0,0,0,0,0,0,0,0,0,0,0,0,0,0,0,0,0,0,0,0,0,0,0,0,0,0,0,0,0,0,0,0,0,0,0,0,0,0,0,0,0,0,0,0,0,0,0,0,0,0,0,0,0,0,0,0,0,0,0,0,0,0,0,0,0,0,0,0,0,0,0,0,0,0,0,0,0,0,0,0,0,0,0,0,0,0,0,0,0,0,0,0,0,0,
0,0,0,0,0,0,0,0,0,0,0,0,0,0,0,0,0,0,0,0,0,0,0,0,0,0,0,0,0,0,0,0,0,0,0,0,0,0,0,0,0,0,0,0,0,0,0,0,0,0,0,0,0,0,0,0,0,0,0,0,0,0,0,0,0,0,0,0,0,0,0,0,0,0,0,0,0,0,0,0,0,0,0,0,0,0,0,0,0,0,0,0,0,0,0,0,0,0,0,0,0,0,0,0,0,0,0,0,0,0,0,0,0,0,0,0,0,0,0,0,
0,0,0,0,0,0,0,0,0,0,0,0,0,0,0,0,0,0,0,0,0,0,0,0,0,0,0,0,0,0,0,0,0,0,0,0,0,0,0,0,0,0,0,0,0,0,0,0,0,0,0,0,0,0,0,0,0,0,0,0,0,0,0,0,0,0,0,0,0,0,0,0,0,0,0,0,0,0,0,0,0,0,0,0,0,0,0,0,0,0,0,0,0,0,0,0,0,0,0,0,0,0,0,0,0,0,0,0,0,0,0,0,0,0,0,0,0,0,0,0,
0,0,0,0,0,0,0,0,0,0,0,0,0,0,0,0,0,0,0,0,0,0,0,0,0,0,0,0,0,0,0,0,0,0,0,0,0,0,0,0,0,0,0,0,0,0,0,0,0,0,0,0,0,0,0,0,0,0,0,0,0,0,0,0,0,0,0,0,0,0,0,0,0,0,0,0,0,0,0,0,0,0,0,0,0,0,0,0,0,0,0,0,0,0,0,0,0,0,0,0,0,0,0,0,0,0,0,0,0,0,0,0,0,0,0,0,0,0,0,0,
0,0,0,0,0,0,0,0,0,0,0,0,0,0,0,0,0,0,0,0,0,0,0,0,0,0,0,0,0,0,0,0,0,0,0,0,0,0,0,0,0,0,0,0,0,0,0,0,0,0,0,0,0,0,0,0,0,0,0,0,0,0,0,0,0,0,0,0,0,0,0,0,0,0,0,0,0,0,0,0,0,0,0,0,0,0,0,0,0,0,0,0,0,0,0,0,0,0,0,0,0,0,0,0,0,0,0,0,0,0,0,0,0,0,0,0,0,0,0,0,
0,0,0,0,0,0,0,0,0,0,0,0,0,0,0,0,0,0,0,0,0,0,0,0,0,0,0,0,0,0,0,0,0,0,0,0,0,0,0,0,0,0,0,0,0,0,0,0,0,0,0,0,0,0,0,0,0,0,0,0,0,0,0,0,0,0,0,0,0,0,0,0,0,0,0,0,0,0,0,0,0,0,0,0,0,0,0,0,0,0,0,0,0,0,0,0,0,0,0,0,0,0,0,0,0,0,0,0,0,0,0,0,0,0,0,0,0,0,0,0,
0,0,0,0,0,0,0,0,0,0,0,0,0,0,0,0,0,0,0,0,0,0,0,0,0,0,0,0,0,0,0,0,0,0,0,0,0,0,0,0,0,0,0,0,0,0,0,0,0,0,0,0,0,0,0,0,0,0,0,0,0,0,0,0,0,0,0,0,0,0,0,0,0,0,0,0,0,0,0,0,0,0,0,0,0,0,0,0,0,0,0,0,0,0,0,0,0,0,0,0,0,0,0,0,0,0,0,0,0,0,0,0,0,0,0,0,0,0,0,0,
0,0,0,0,0,0,0,0,0,0,0,0,0,0,0,0,0,0,0,0,0,0,0,0,0,0,0,0,0,0,0,0,0,0,0,0,0,0,0,0,0,0,0,0,0,0,0,0,0,0,0,0,0,0,0,0,0,0,0,0,0,0,0,0,0,0,0,0,0,0,0,0,0,0,0,0,0,0,0,0,0,0,0,0,0,0,0,0,0,0,0,0,0,0,0,0,0,0,0,0,0,0,0,0,0,0,0,0,0,0,0,0,0,0,0,0,0,0,0,0,
0,0,0,0,0,0,0,0,0,0,0,0,0,0,0,0,0,0,0,0,0,0,0,0,0,0,0,0,0,0,0,0,0,0,0,0,0,0,0,0,0,0,0,0,0,0,0,0,0,0,0,0,0,0,0,0,0,0,0,0,0,0,0,0,0,0,0,0,0,0,0,0,0,0,0,0,0,0,0,0,0,0,0,0,0,0,0,0,0,0,0,0,0,0,0,0,0,0,0,0,0,0,0,0,0,0,0,0,0,0,0,0,0,0,0,0,0,0,0,0,
0,0,0,0,0,0,0,0,0,0,0,0,0,0,0,0,0,0,0,0,0,0,0,0,0,0,0,0,0,0,0,0,0,0,0,0,0,0,2096,0,0,0,0,0,0,0,0,0,0,0,0,0,0,0,0,0,0,0,0,0,0,0,0,0,0,0,0,0,0,0,0,0,0,0,0,0,0,0,0,0,0,0,0,0,0,0,0,0,0,0,0,0,0,0,0,0,0,0,0,0,0,0,0,0,0,0,0,0,0,0,0,0,0,0,0,0,0,0,0,0,
0,0,0,0,0,0,0,0,0,0,0,0,0,0,0,0,0,0,0,0,0,0,0,0,0,0,0,0,0,0,0,0,0,0,0,0,0,0,0,0,0,0,0,0,0,0,0,0,0,0,0,0,0,0,0,0,0,0,0,0,0,0,0,0,0,0,0,0,0,0,0,0,0,0,0,0,0,0,0,0,0,0,0,0,0,0,0,0,0,0,0,0,0,0,0,0,0,0,0,0,0,0,0,0,0,0,0,0,0,0,0,0,0,0,0,0,0,0,0,0,
0,0,0,0,0,0,0,0,0,0,0,0,0,0,0,0,0,0,0,0,0,0,0,0,0,0,0,0,0,0,0,0,0,0,0,0,0,0,0,0,0,0,0,0,0,0,0,0,0,0,0,0,0,0,0,0,0,0,0,0,0,0,0,0,0,0,0,0,0,0,0,0,0,0,0,0,0,0,0,0,0,0,0,0,0,0,0,0,0,0,0,0,0,0,0,0,0,0,0,0,0,0,0,0,0,0,0,0,0,0,0,0,0,0,0,0,0,0,0,0,
0,0,0,0,0,0,0,0,0,0,0,0,0,0,0,0,0,0,0,0,0,0,0,0,0,0,0,0,0,0,0,0,0,0,0,0,0,0,0,0,0,0,0,0,0,0,0,0,0,0,0,0,0,0,0,0,0,0,0,0,0,0,0,0,2096,0,0,0,0,0,0,0,0,0,0,0,0,0,0,0,0,0,0,0,0,0,0,0,0,0,0,0,0,0,0,0,0,0,0,0,0,0,0,0,0,0,0,0,0,0,0,0,0,0,0,0,0,0,0,0,
0,0,0,0,0,0,0,0,0,0,0,0,0,0,0,0,0,0,0,0,0,0,0,0,0,0,0,0,0,0,0,0,0,0,0,0,0,0,0,0,0,0,0,0,0,0,0,0,0,0,0,0,0,0,0,0,0,0,0,0,0,0,0,0,0,0,0,0,0,0,0,0,0,0,0,0,0,0,0,0,0,0,0,0,0,0,0,0,0,0,0,0,0,0,0,0,0,0,0,0,0,0,0,0,0,0,0,0,0,0,0,0,0,0,0,0,0,0,0,0,
0,0,0,0,0,0,0,0,0,0,0,0,0,0,0,0,0,0,0,0,0,0,0,0,0,0,0,0,0,0,0,0,0,0,0,0,0,0,0,0,0,0,0,0,0,0,0,0,0,0,0,0,0,0,0,0,0,0,0,0,0,0,0,0,0,0,0,0,0,0,0,0,0,0,0,0,0,0,0,0,0,0,0,0,0,0,0,0,0,0,0,0,0,0,0,0,0,0,0,0,0,0,0,0,0,0,0,0,0,0,0,0,0,0,0,0,0,0,0,0,
0,0,0,0,0,0,0,0,0,0,0,0,0,0,0,0,0,0,0,0,0,0,0,0,0,0,0,0,0,0,0,0,0,0,0,0,0,0,0,0,0,0,0,0,0,0,0,0,0,0,0,0,0,0,0,0,0,0,0,0,0,0,0,0,0,0,0,0,0,0,0,0,0,0,0,0,0,0,0,0,0,0,0,0,0,0,0,0,0,0,0,0,0,0,0,0,0,0,0,0,0,0,0,0,0,0,0,0,0,0,0,0,0,0,0,0,0,0,0,0,
0,0,0,0,0,0,0,0,0,0,0,0,0,0,0,0,0,0,0,0,0,0,0,0,0,0,0,0,0,0,0,0,0,0,0,0,0,0,0,0,0,0,0,0,0,0,0,0,0,0,0,0,0,0,0,0,0,0,0,0,0,0,0,0,0,0,0,0,0,0,0,0,0,0,0,0,0,0,0,0,0,0,0,0,0,0,0,0,0,0,0,0,0,0,0,0,0,0,0,0,0,0,0,0,0,0,0,0,0,0,0,0,0,0,0,0,0,0,0,0,
0,0,0,0,0,0,0,0,0,0,0,0,0,0,0,0,0,0,0,0,0,0,0,0,0,0,0,0,0,0,0,0,0,0,0,0,0,0,0,0,0,0,0,0,0,0,0,0,0,0,0,0,0,0,0,0,0,0,0,0,0,0,0,0,0,0,0,0,0,0,0,0,0,0,0,0,0,0,0,0,0,0,0,0,0,0,0,0,0,0,0,0,0,0,0,0,0,0,0,0,0,0,0,0,0,0,0,0,0,0,0,0,0,0,0,0,0,0,0,0,
0,0,0,0,0,0,0,0,0,0,0,0,0,0,0,0,0,0,0,0,0,0,0,0,0,0,0,0,0,0,0,0,0,2096,0,0,0,0,0,0,0,0,0,0,0,0,0,0,0,0,0,0,0,0,0,0,0,0,0,0,0,0,0,0,0,0,0,0,0,0,0,0,0,0,0,0,0,0,0,0,0,0,0,0,0,0,0,0,0,0,0,0,0,0,0,0,0,0,0,0,0,0,0,0,0,0,0,0,0,0,0,0,0,0,0,0,0,0,0,0,
0,0,0,0,0,0,0,0,0,0,0,0,0,0,0,0,0,0,0,0,0,0,0,0,0,0,0,0,0,0,0,0,0,0,0,0,0,0,0,0,0,0,0,0,0,0,0,0,0,0,0,0,0,0,0,0,0,0,0,0,0,0,0,0,0,0,0,0,0,0,0,0,0,0,0,0,0,0,0,0,0,0,0,0,0,0,0,0,0,0,0,0,0,0,0,0,0,0,0,0,0,0,0,0,0,0,0,0,0,0,0,0,0,0,0,0,0,0,0,0,
0,0,0,0,0,0,0,0,0,0,0,0,0,0,0,0,0,0,0,0,0,0,0,0,0,0,0,0,0,0,0,0,0,0,0,0,0,0,0,0,0,0,0,0,0,0,0,0,0,0,0,0,0,0,0,0,0,0,0,0,0,0,0,0,0,0,0,0,0,0,0,0,0,0,0,0,0,0,0,0,0,0,0,0,0,0,0,0,0,0,0,0,0,0,0,0,0,0,0,0,0,0,0,0,0,0,0,0,0,0,0,0,0,0,0,0,0,0,0,0,
0,0,0,0,0,0,0,0,0,0,0,0,0,0,0,0,0,0,0,0,0,0,0,0,0,0,0,0,0,0,0,0,0,0,0,0,0,0,0,0,0,0,0,0,0,0,0,0,0,0,0,0,0,0,0,0,0,0,0,0,0,0,0,2096,0,0,0,0,0,0,0,0,0,0,0,0,0,0,0,0,0,0,0,0,0,0,0,0,0,0,0,0,0,0,0,0,0,0,0,0,0,0,0,0,0,0,0,0,0,0,0,0,0,0,0,0,0,0,0,0,
0,0,0,0,0,0,0,0,0,0,0,0,0,0,0,0,0,0,0,0,0,0,0,0,0,0,0,0,0,0,0,0,0,0,0,0,0,0,0,0,0,0,0,0,0,0,0,0,0,0,0,0,0,0,0,0,0,0,0,0,0,0,0,0,0,0,0,0,0,0,0,0,0,0,0,0,0,0,0,0,0,0,0,0,0,0,0,0,0,0,0,0,0,0,0,0,0,0,0,0,0,0,0,0,0,0,0,0,0,0,0,0,0,0,0,0,0,0,0,0,
0,0,0,0,0,0,0,0,0,0,0,0,0,0,0,0,0,0,0,0,0,0,0,0,0,0,0,0,0,0,0,0,0,0,0,0,0,0,0,0,0,0,0,0,0,0,0,0,0,0,0,0,0,0,0,0,0,0,0,0,0,0,0,0,0,0,0,0,0,0,0,0,0,0,0,0,0,0,0,0,0,0,0,0,0,0,0,0,0,0,0,0,0,0,0,0,0,0,0,0,0,0,0,0,0,0,0,0,0,0,0,0,0,0,0,0,0,0,0,0,
0,0,0,0,0,0,0,0,0,0,0,0,0,0,0,0,0,0,0,0,0,0,0,0,0,0,0,0,0,0,0,0,0,0,0,0,0,0,0,0,0,0,0,0,0,0,0,0,0,0,0,0,0,0,0,0,0,0,0,0,0,0,0,0,0,0,0,0,0,0,0,0,0,0,0,0,0,0,0,0,0,0,0,0,0,0,0,0,0,0,0,0,0,0,0,0,0,0,0,0,0,0,0,0,0,0,0,0,0,0,0,0,0,0,0,0,0,0,0,0,
0,0,0,0,0,0,0,0,0,0,0,0,0,0,0,0,0,0,0,0,0,0,0,0,0,0,0,0,0,0,0,0,0,0,0,0,0,0,0,0,0,0,0,0,0,0,0,0,0,0,0,0,2096,0,0,0,0,0,0,0,0,0,0,0,0,0,0,0,0,0,0,0,0,0,0,0,0,0,0,0,0,0,0,0,0,0,0,0,0,0,0,0,0,0,0,0,0,0,0,0,0,0,0,0,0,0,0,0,0,0,0,0,0,0,0,0,0,0,0,0,
0,0,0,0,0,0,0,0,0,0,0,0,0,0,0,0,0,0,0,0,0,0,0,0,0,0,0,0,0,0,0,0,0,0,0,0,0,0,0,0,0,0,0,0,0,0,0,0,0,0,0,0,0,0,0,0,0,0,0,0,0,0,0,0,0,0,0,0,0,0,0,0,0,0,0,0,0,0,0,0,0,0,0,0,0,0,0,0,0,0,0,0,0,0,0,0,0,0,0,0,0,0,0,0,0,0,0,0,0,0,0,0,0,0,0,0,0,0,0,0,
0,0,0,0,0,0,0,0,0,0,0,0,0,0,0,0,0,0,0,0,0,0,0,0,0,0,0,0,0,0,0,0,0,0,0,0,0,0,0,0,0,0,0,0,0,0,0,0,0,0,0,0,0,0,0,0,0,0,0,0,0,0,0,0,0,0,0,0,0,0,0,0,0,0,0,0,0,0,0,0,0,0,0,0,0,0,0,0,0,0,0,0,0,0,0,0,0,0,0,0,0,0,0,0,0,0,0,0,0,0,0,0,0,0,0,0,0,0,0,0,
0,0,0,0,0,0,0,0,0,0,0,0,0,0,0,0,0,0,0,0,0,0,0,0,0,0,0,0,0,0,0,0,0,0,0,0,0,0,0,0,0,0,0,0,0,0,0,0,0,0,0,0,0,0,0,0,0,0,0,0,0,0,0,0,0,0,0,0,0,0,0,0,0,0,0,0,0,0,0,0,0,0,0,0,0,0,0,0,0,0,0,0,0,0,0,0,0,0,0,0,0,0,0,0,0,0,0,0,0,0,0,0,0,0,0,0,0,0,0,0,
0,0,0,0,0,0,0,0,0,0,0,0,0,0,0,0,0,0,0,0,0,0,0,0,0,0,0,0,0,0,0,0,0,0,0,0,0,0,0,0,0,0,0,0,0,0,0,0,0,0,0,0,0,0,0,0,0,0,0,0,0,0,0,0,0,0,0,0,0,0,0,0,0,0,0,0,0,0,0,0,0,0,0,0,0,0,0,0,0,0,0,0,0,0,0,0,0,0,0,0,0,0,0,0,0,0,0,0,0,0,0,0,0,0,0,0,0,0,0,0,
0,0,0,0,0,0,0,0,0,0,0,0,0,0,0,0,0,0,0,0,0,0,0,0,0,0,0,0,0,0,0,0,0,0,0,0,0,0,0,0,0,0,0,0,0,0,0,0,0,0,0,0,0,0,0,0,0,2096,0,0,0,0,0,0,0,0,0,0,0,0,0,0,0,0,0,0,0,0,0,0,0,0,0,0,0,0,0,0,0,0,0,0,0,0,0,0,0,0,0,0,0,0,0,0,0,0,0,0,0,0,0,0,0,0,0,0,0,0,0,0,
0,0,0,0,0,0,0,0,0,0,0,0,0,0,0,0,0,0,0,0,0,0,0,0,0,0,0,0,0,0,0,0,0,0,0,0,0,0,0,0,0,0,0,0,0,0,0,0,0,0,0,0,0,0,0,0,0,0,0,0,0,0,0,0,0,0,0,0,0,0,0,0,0,0,0,0,0,0,0,0,0,0,0,0,0,0,0,0,0,0,0,0,0,0,0,0,0,0,0,0,0,0,0,0,0,0,0,0,0,0,0,0,0,0,0,0,0,0,0,0,
0,0,0,0,0,0,0,0,0,0,0,0,0,0,0,0,0,0,0,0,0,0,0,0,0,0,0,0,0,0,0,0,0,0,0,0,0,0,0,0,0,0,0,0,0,0,0,0,0,0,0,0,0,0,0,0,0,0,0,0,0,0,0,0,0,0,0,0,0,0,0,0,0,0,0,0,0,0,0,0,0,0,0,0,0,0,0,0,0,0,0,0,0,0,0,0,0,0,0,0,0,0,0,0,0,0,0,0,0,0,0,0,0,0,0,0,0,0,0,0,
0,0,0,0,0,0,0,0,0,0,0,0,0,0,0,0,0,0,0,0,0,0,0,0,0,0,0,0,0,0,0,0,0,0,0,0,0,0,0,0,0,0,0,0,0,0,0,0,0,0,0,0,0,0,0,0,0,0,0,0,0,0,0,0,0,0,0,0,0,0,0,0,0,0,0,0,0,0,0,0,0,0,0,0,0,0,0,0,0,0,0,0,0,0,0,0,0,0,0,0,0,0,0,0,0,0,0,0,0,0,0,0,0,0,0,0,0,0,0,0,
0,0,0,0,0,0,0,0,0,0,0,0,0,0,0,0,0,0,0,0,0,0,0,0,0,0,0,0,0,0,0,0,0,0,0,0,0,0,0,0,0,0,0,0,0,0,0,0,0,0,0,0,0,0,0,0,0,0,0,0,0,0,0,0,0,0,0,0,0,0,0,0,0,0,0,0,0,0,0,0,0,0,0,0,0,0,0,0,0,0,0,0,0,0,0,0,0,0,0,0,0,0,0,0,0,0,0,0,0,0,0,0,0,0,0,0,0,0,0,0,
0,0,0,0,0,0,0,0,0,0,0,0,0,0,0,0,0,0,0,0,0,0,0,0,0,0,0,0,0,0,0,0,0,0,0,0,0,0,0,0,0,0,0,0,0,0,0,0,0,0,0,0,0,0,0,0,0,0,0,0,0,0,0,0,0,0,0,0,0,0,0,0,0,0,0,0,0,0,0,0,0,0,0,0,0,0,0,0,0,0,0,0,0,0,0,0,0,0,0,0,0,0,0,0,0,0,0,0,0,0,0,0,0,0,0,0,0,0,0,0,
0,0,0,0,0,0,0,0,0,0,0,0,0,0,0,0,0,0,0,0,0,0,0,0,0,0,0,0,0,0,0,0,0,0,0,0,0,0,0,0,0,0,0,0,0,0,0,0,0,0,0,0,0,0,0,0,0,0,0,0,0,0,0,0,0,0,0,0,0,0,0,0,0,0,0,0,0,0,0,0,0,0,0,0,0,0,0,0,0,0,0,0,0,0,0,0,0,0,0,0,0,0,0,0,0,0,0,0,0,0,0,0,0,0,0,0,0,0,0,0,
0,0,0,0,0,0,0,0,0,0,0,0,0,0,0,0,0,0,0,0,0,0,0,0,0,0,0,0,0,0,0,0,0,0,0,0,0,0,0,0,0,0,0,0,0,0,0,0,0,0,0,0,0,0,0,0,0,0,0,0,0,0,0,0,0,0,0,0,0,0,0,0,0,0,0,0,0,0,0,0,0,0,0,0,0,0,0,0,0,0,0,0,0,0,0,0,0,0,0,0,0,0,0,0,0,0,0,0,0,0,0,0,0,0,0,0,0,0,0,0,
0,0,0,0,0,0,0,0,0,0,0,0,0,0,0,0,0,0,0,0,0,0,0,0,0,0,0,0,0,0,0,0,0,0,0,0,0,0,0,0,0,0,0,0,0,0,0,0,0,0,0,0,0,0,0,0,0,0,0,0,0,0,0,0,0,0,0,0,0,0,0,0,0,0,0,0,0,0,0,0,0,0,0,0,0,0,0,0,0,0,0,0,0,0,0,0,0,0,0,0,0,0,0,0,0,0,0,0,0,0,0,0,0,0,0,0,0,0,0,0,
0,0,0,0,0,0,0,0,0,0,0,0,0,0,0,0,0,0,0,0,0,0,0,0,0,0,0,0,0,0,0,0,0,0,0,0,0,0,0,0,0,0,0,0,0,0,0,0,0,0,0,0,0,0,0,0,0,0,0,0,0,0,0,0,0,0,0,0,0,0,0,0,0,0,0,0,0,0,0,0,0,0,0,0,0,0,0,0,0,0,0,0,0,0,0,0,0,0,0,0,0,0,0,0,0,0,0,0,0,0,0,0,0,0,0,0,0,0,0,0,
0,0,0,0,0,0,0,0,0,0,0,0,0,0,0,0,0,0,0,0,0,0,0,0,0,0,0,0,0,0,0,0,0,0,0,0,0,0,0,0,0,0,0,0,0,0,0,0,0,0,0,0,0,0,0,0,0,0,0,0,0,0,0,0,0,0,0,0,0,0,0,0,0,0,0,0,0,0,0,0,0,0,0,0,0,0,0,0,0,0,0,0,0,0,0,0,0,0,0,0,0,0,0,0,0,0,0,0,0,0,0,0,0,0,0,0,0,0,0,0,
0,0,0,0,0,0,0,0,0,0,0,0,0,0,0,0,0,0,0,0,0,0,0,0,0,0,0,0,0,0,0,0,0,0,0,0,0,0,0,0,0,0,0,0,0,0,0,0,0,0,0,0,0,0,0,0,0,0,0,0,0,0,0,0,0,0,0,0,0,0,0,0,0,0,0,0,0,0,0,0,0,0,0,0,0,0,0,0,0,0,0,0,0,0,0,0,0,0,0,0,0,0,0,0,0,0,0,0,0,0,0,0,0,0,0,0,0,0,0,0,
0,0,0,0,0,0,0,0,0,0,0,0,0,0,0,0,0,0,0,0,0,0,0,0,0,0,0,0,0,0,0,0,0,0,0,0,0,0,0,0,0,0,0,0,0,0,0,0,0,0,0,0,0,0,0,0,0,0,0,0,0,0,0,0,0,0,0,0,0,0,0,0,0,0,0,0,0,0,0,0,0,0,0,0,0,0,0,0,0,0,0,0,0,0,0,0,0,0,0,0,0,0,0,0,0,0,0,0,0,0,0,0,0,0,0,0,0,0,0,0,
0,0,0,0,0,0,0,0,0,0,0,0,0,0,0,0,0,0,0,0,0,0,0,0,0,0,0,0,0,0,0,0,0,0,0,0,0,0,0,0,0,0,0,0,0,0,0,0,0,0,0,0,0,0,0,0,0,0,0,0,0,0,0,0,0,0,0,0,0,0,0,0,0,0,0,0,0,0,0,0,0,0,0,0,0,0,0,0,0,0,0,0,0,0,0,0,0,0,0,0,0,0,0,0,0,0,0,0,0,0,0,0,0,0,0,0,0,0,0,0,
0,0,0,0,0,0,0,0,0,0,0,0,0,0,0,0,0,0,0,0,0,0,0,0,0,0,0,0,0,0,0,0,0,0,0,0,0,0,0,0,0,0,0,0,0,0,0,0,0,0,0,0,0,0,0,0,0,0,0,0,0,0,0,0,0,0,0,0,0,0,0,0,0,0,0,0,0,0,0,0,0,0,0,0,0,0,0,0,0,0,0,0,0,0,0,0,0,0,0,0,0,0,0,0,0,0,0,0,0,0,0,0,0,0,0,0,0,0,0,0,
0,0,0,0,0,0,0,0,0,0,0,0,0,0,0,0,0,0,0,0,0,0,0,0,0,0,0,0,0,0,0,0,0,0,0,0,0,0,0,0,0,0,0,0,0,0,0,0,0,0,0,0,0,0,0,0,0,0,0,0,0,0,0,0,0,0,0,0,0,0,0,0,0,0,0,0,0,0,0,0,0,0,0,0,0,0,0,0,0,0,0,0,0,0,0,0,0,0,0,0,0,0,0,0,0,0,0,0,0,0,0,0,0,0,0,0,0,0,0,0,
0,0,0,0,0,0,0,0,0,0,0,0,0,0,0,0,0,0,0,0,0,0,0,0,0,0,0,0,0,0,0,0,0,0,0,0,0,0,0,0,0,0,0,0,0,0,0,0,0,0,0,0,0,0,0,0,0,0,0,0,0,0,0,0,0,0,0,0,0,0,0,0,0,0,0,0,0,0,0,0,0,0,0,0,0,0,0,0,0,0,0,0,0,0,0,0,0,0,0,0,0,0,0,0,0,0,0,0,0,0,0,0,0,0,0,0,0,0,0,0,
0,0,0,0,0,0,0,0,0,0,0,0,0,0,0,0,0,0,0,0,0,0,0,0,0,0,0,0,0,0,0,0,0,0,0,0,0,0,0,0,0,0,0,0,0,0,0,0,0,0,0,0,0,0,0,0,0,0,0,0,0,0,0,0,0,0,0,0,0,0,0,0,0,0,0,0,0,0,0,0,0,0,0,0,0,0,0,0,0,0,0,0,0,0,0,0,0,0,0,0,0,0,0,0,0,0,0,0,0,0,0,0,0,0,0,0,0,0,0,0,
0,0,0,0,0,0,0,0,0,0,0,0,0,0,0,0,0,0,0,0,0,0,0,0,0,0,0,0,0,0,0,0,0,0,0,0,0,0,0,0,0,0,0,0,0,0,0,0,0,0,0,0,0,0,0,0,0,0,0,0,0,0,0,0,0,0,0,0,0,0,0,0,0,0,0,0,0,0,0,0,0,0,0,0,0,0,0,0,0,0,0,0,0,0,0,0,0,0,0,0,0,0,0,0,0,0,0,0,0,0,0,0,0,0,0,0,0,0,0,0,
0,0,0,0,0,0,0,0,0,0,0,0,0,0,0,0,0,0,0,0,0,0,0,0,0,0,0,0,0,0,0,0,0,0,0,0,0,0,0,0,0,0,0,0,0,0,0,0,0,0,0,0,0,0,0,0,0,0,0,0,0,0,0,0,0,0,0,0,0,0,0,0,0,0,0,0,0,0,0,0,0,0,0,0,0,0,0,0,0,0,0,0,0,0,0,0,0,0,0,0,0,0,0,0,0,0,0,0,0,0,0,0,0,0,0,0,0,0,0,0,
0,0,0,0,0,0,0,0,0,0,0,0,0,0,0,0,0,0,0,0,0,0,0,0,0,0,0,0,0,0,0,0,0,0,0,0,0,0,0,0,0,0,0,0,0,0,0,0,0,0,0,0,0,0,0,0,0,0,0,0,0,0,0,0,0,0,0,0,0,0,0,0,0,0,0,0,0,0,0,0,0,0,0,0,0,0,0,0,0,0,0,0,0,0,0,0,0,0,0,0,0,0,0,0,0,0,0,0,0,0,0,0,0,0,0,0,0,0,0,0,
0,0,0,0,0,0,0,0,0,0,0,0,0,0,0,0,0,0,0,0,0,0,0,0,0,0,0,0,0,0,0,0,0,0,0,0,0,0,0,0,0,0,0,0,0,0,0,0,0,0,0,0,0,0,0,0,0,0,0,0,0,0,0,0,0,0,0,0,0,0,0,0,0,0,0,0,0,0,0,0,0,0,0,0,0,0,0,0,0,0,0,0,0,0,0,0,0,0,0,0,0,0,0,0,0,0,0,0,0,0,0,0,0,0,0,0,0,0,0,0,
0,0,0,0,0,0,0,0,0,0,0,0,0,0,0,0,0,0,0,0,0,0,0,0,0,0,0,0,0,0,0,0,0,0,0,0,0,0,0,0,0,0,0,0,0,0,0,0,0,0,0,0,0,0,0,0,0,0,0,0,0,0,0,0,0,0,0,0,0,0,0,0,0,0,0,0,0,0,0,0,0,0,0,0,0,0,0,0,0,0,0,0,0,0,0,0,0,0,0,0,0,0,0,0,0,0,0,0,0,0,0,0,0,0,0,0,0,0,0,0,
0,0,0,0,0,0,0,0,0,0,0,0,0,0,0,0,0,0,0,0,0,0,0,0,0,0,0,0,0,0,0,0,0,0,0,0,0,0,0,0,0,0,0,0,0,0,0,0,0,0,0,0,0,0,0,0,0,0,0,0,0,0,0,0,0,0,0,0,0,0,0,0,0,0,0,0,0,0,0,0,0,0,0,0,0,0,0,0,0,0,0,0,0,0,0,0,0,0,0,0,0,0,0,0,0,0,0,0,0,0,0,0,0,0,0,0,0,0,0,0,
0,0,0,0,0,0,0,0,0,0,0,0,0,0,0,0,0,0,0,0,0,0,0,0,0,0,0,0,0,0,0,0,0,0,0,0,0,0,0,0,0,0,0,0,0,0,0,0,0,0,0,0,0,0,0,0,0,0,0,0,0,0,0,0,0,0,0,0,0,0,0,0,0,0,0,0,0,0,0,0,0,0,0,0,0,0,0,0,0,0,0,0,0,0,0,0,0,0,0,0,0,0,0,0,0,0,0,0,0,0,0,0,0,0,0,0,0,0,0,0,
0,0,0,0,0,0,0,0,0,0,0,0,0,0,0,0,0,0,0,0,0,0,0,0,0,0,0,0,0,0,0,0,0,0,0,0,0,0,0,0,0,0,0,0,0,0,0,0,0,0,0,0,0,0,0,0,0,0,0,0,0,0,0,0,0,0,0,0,0,0,0,0,0,0,0,0,0,0,0,0,0,0,0,0,0,0,0,0,0,0,0,0,0,0,0,0,0,0,0,0,0,0,0,0,0,0,0,0,0,0,0,0,0,0,0,0,0,0,0,0,
0,0,0,0,0,0,0,0,0,0,0,0,0,0,0,0,0,0,0,0,0,0,0,0,0,0,0,0,0,0,0,0,0,0,0,0,0,0,0,0,0,0,0,0,0,0,0,0,0,0,0,0,0,0,0,0,0,0,0,0,0,0,0,0,0,0,0,0,0,0,0,0,0,0,0,0,0,0,0,0,0,0,0,0,0,0,0,0,0,0,0,0,0,0,0,0,0,0,0,0,0,0,0,0,0,0,0,0,0,0,0,0,0,0,0,0,0,0,0,0
</data>
 </layer>
 <layer id="7" name="Front" width="120" height="120">
  <data encoding="csv">
0,0,0,0,0,0,0,0,0,0,0,0,0,0,0,7360,0,0,0,0,0,0,0,0,0,0,0,6446,6447,6448,0,0,6418,6419,6420,0,6381,6382,6383,0,0,0,0,0,0,0,8322,0,0,8321,6456,6457,0,0,0,8322,0,0,0,0,0,0,0,0,0,8320,0,0,0,0,0,0,0,0,0,0,0,0,0,0,6381,6382,6383,0,0,0,0,0,0,0,0,0,0,6456,6457,8321,0,0,0,0,0,0,0,0,0,0,0,0,0,6381,6382,6383,0,0,0,0,0,6456,6457,0,
0,0,0,0,0,0,0,0,0,0,0,0,0,0,7386,0,0,0,0,0,0,0,0,0,0,0,0,0,6472,8320,6456,6457,6443,6444,6445,0,0,0,0,8321,0,0,0,0,0,0,0,0,0,0,0,0,8320,0,0,0,0,0,0,0,0,0,8320,0,0,0,0,0,0,0,0,0,0,0,0,0,8320,0,0,8322,0,0,0,8320,0,0,0,8320,8293,8294,0,0,0,0,0,0,0,0,0,0,0,0,0,0,0,0,0,0,0,0,0,0,0,0,0,0,0,0,0,0,
0,0,0,0,0,0,0,0,0,0,0,0,0,0,0,0,0,0,0,0,0,0,0,0,0,6456,6457,8320,0,0,0,0,0,0,8293,8294,0,0,0,0,0,0,0,0,0,0,0,0,0,0,0,0,0,0,0,0,0,0,0,8320,8293,8294,0,6384,0,0,0,0,0,0,0,0,0,0,0,0,0,0,0,0,0,0,0,0,0,0,0,0,8318,8319,0,0,0,0,0,0,0,0,0,0,0,0,0,0,0,0,0,0,0,0,0,0,0,0,0,8293,8294,0,0,0,
0,0,0,0,0,0,0,0,0,0,0,0,0,0,0,0,0,0,0,0,0,0,0,0,0,0,0,0,0,0,0,0,0,0,8318,8319,0,0,0,0,0,0,0,8321,0,0,0,8321,0,0,0,0,0,0,0,0,8293,8294,0,0,8318,8319,0,8322,6456,6457,0,0,0,0,0,0,0,0,0,0,0,0,0,0,0,0,0,0,6443,0,0,0,0,0,8321,0,0,0,0,0,0,0,0,0,0,0,0,0,0,0,0,0,0,0,0,0,0,0,0,8318,8319,0,0,0,
6726,6727,6728,0,0,0,0,0,0,0,0,0,0,0,0,0,0,0,0,0,0,0,0,8320,0,0,8320,2406,2407,2408,2409,0,0,6729,6726,6726,6727,6727,6726,6727,6726,6727,6727,6728,6727,6728,6729,0,0,0,0,0,0,0,2406,2407,2408,2409,2410,0,0,6381,6382,6383,0,0,6754,0,0,0,0,0,0,0,0,0,0,0,0,0,0,0,0,0,0,0,0,0,0,0,0,0,0,0,0,0,0,0,0,0,0,0,0,0,0,0,0,0,0,0,0,0,0,0,0,0,0,0,0,0,
0,0,0,0,0,0,0,0,0,0,0,0,0,0,0,0,0,0,0,0,0,0,0,0,6468,0,0,0,0,0,0,0,0,0,0,0,0,0,0,0,0,0,0,0,0,0,0,0,0,0,6472,0,0,0,0,0,0,0,0,8320,6384,0,0,0,0,0,0,0,0,0,0,0,0,0,0,0,0,0,0,0,0,0,0,0,0,0,0,6446,6447,6448,0,0,0,0,0,0,6446,6447,6448,6381,6382,6383,0,0,0,0,0,0,0,0,0,0,0,0,0,0,0,6443,6444,6445,
0,0,0,0,0,0,0,0,7391,0,0,0,0,0,0,0,8293,8294,0,8320,0,6456,6457,0,0,0,0,0,0,0,0,0,0,0,0,0,0,0,0,0,0,0,0,0,0,0,0,0,0,8321,0,8293,8294,0,0,0,0,0,0,0,8322,0,0,0,6468,6384,0,0,0,0,0,0,0,0,0,0,0,0,0,0,0,0,0,0,8320,8293,8294,8321,6472,0,0,0,0,0,0,0,6471,6472,6473,0,0,0,0,0,0,0,0,0,0,0,0,0,0,6486,6487,0,0,0,6469,0,
6806,0,0,0,0,0,0,0,0,0,0,0,0,0,0,8320,8318,8319,0,0,8320,0,0,0,0,0,0,0,0,0,0,0,0,0,0,0,0,0,0,0,0,0,0,0,0,0,0,0,0,0,0,8318,8319,8321,0,0,0,0,0,0,0,0,0,0,0,8322,0,0,0,0,0,0,0,0,0,0,0,0,0,0,0,0,0,0,0,8318,8319,0,0,0,8321,0,0,0,0,0,0,0,0,0,0,0,0,0,0,0,0,0,0,0,0,0,0,0,0,0,6456,6457,0,0,
6685,6757,0,0,0,0,0,0,0,0,0,0,0,0,6726,6726,6727,6727,6727,6726,6727,6726,6726,6727,6727,6727,6726,6727,6727,6728,6727,6727,6726,6728,0,0,0,0,0,6486,6487,0,0,0,0,0,6726,6727,6727,6727,6726,6727,6727,6728,0,0,0,0,0,6726,6727,6727,6726,6727,6727,6728,0,0,0,0,0,0,0,0,0,0,0,0,0,0,0,0,0,0,0,0,0,8322,0,0,0,0,0,0,0,0,0,0,0,0,0,6566,0,0,0,0,0,0,0,0,0,0,0,0,0,0,0,0,0,0,
6694,6685,6758,6806,0,0,0,0,0,0,0,0,0,0,0,0,0,0,0,0,0,0,0,0,0,0,0,0,0,10617,0,0,0,0,0,0,0,0,0,0,0,0,0,0,0,0,0,0,0,0,0,0,0,0,0,0,0,0,0,0,0,0,0,0,0,0,0,0,0,0,0,0,0,0,0,0,0,0,0,0,0,0,0,0,0,0,0,8278,0,0,2137,0,0,0,6541,6541,6541,6541,6541,6541,6541,6566,0,0,0,0,0,0,0,0,0,0,0,0,0,0,0,0,0,0,
6719,8321,6543,6762,0,0,0,0,0,0,0,0,0,0,0,0,0,0,0,0,0,0,0,0,0,0,0,0,0,0,0,0,0,0,0,0,0,0,0,0,0,0,0,0,0,0,0,0,0,0,0,0,0,0,0,0,0,0,0,0,0,0,0,0,0,6778,0,0,0,0,0,0,0,0,0,0,0,0,0,0,0,6440,6441,6442,0,0,6541,0,0,0,0,0,7669,6565,0,0,0,0,0,0,0,0,0,6421,6422,6423,6443,0,6445,0,0,0,0,0,0,0,0,0,0,0,
6694,6695,6518,6787,0,0,0,0,0,0,0,0,0,0,0,0,0,0,0,0,0,0,0,0,0,0,0,0,0,0,0,0,0,0,0,0,0,0,0,0,0,0,0,0,849,850,851,852,0,0,0,0,0,0,0,0,0,0,0,0,0,0,0,0,0,0,0,0,0,0,0,0,0,0,0,0,0,0,0,0,0,6440,6441,6442,2136,6540,6566,6541,6541,6541,6541,6566,7668,0,0,6592,0,0,0,0,0,0,6592,6446,6447,0,0,0,0,0,0,0,0,0,0,0,0,0,0,0,
0,0,6624,0,0,0,0,0,0,0,0,0,0,0,0,0,0,0,0,0,0,0,0,0,0,0,0,0,0,0,0,0,0,0,0,0,0,0,0,0,0,0,0,0,0,0,0,0,0,0,0,0,0,0,0,0,0,0,0,0,0,0,0,0,0,0,0,0,0,0,0,0,0,0,0,0,0,0,0,0,0,6440,6441,6442,0,6565,6566,6566,6566,6566,6566,6567,6660,0,6564,6617,0,0,0,0,0,6564,6617,0,6472,0,0,0,0,0,0,0,0,0,0,0,0,0,0,0,
0,0,0,0,0,0,0,0,0,0,0,0,0,0,0,0,0,0,0,0,0,0,0,0,0,0,0,0,0,0,0,0,0,0,0,0,0,0,0,0,0,0,0,0,0,0,0,0,0,0,0,0,0,0,0,0,0,0,0,0,0,0,0,0,0,0,0,0,0,0,857,858,0,0,0,0,0,0,0,0,0,0,0,0,0,0,6564,0,6592,0,0,0,6564,0,0,6617,0,0,0,0,0,6639,6617,0,0,0,0,0,0,0,0,0,0,0,0,0,0,0,0,0,
0,0,0,6780,6782,6781,6806,0,0,0,0,0,0,0,0,0,0,0,0,0,0,0,0,0,0,0,0,0,0,0,0,0,0,0,0,0,0,0,0,0,0,0,0,0,0,0,0,0,0,0,0,0,0,0,0,0,0,0,0,0,0,0,0,0,0,0,0,0,0,0,0,0,0,0,0,0,0,0,0,0,0,0,0,6588,6589,0,0,0,6617,6563,0,0,0,0,0,6617,0,0,0,0,0,0,6617,0,0,0,0,0,6381,6382,6383,0,0,0,0,0,0,0,0,0,
0,0,0,6675,0,0,0,6757,0,0,0,0,0,0,0,0,0,0,0,0,0,0,0,0,0,0,0,0,0,0,0,0,0,0,0,0,0,0,0,0,0,0,0,0,0,0,0,0,0,0,0,0,0,0,0,0,0,0,0,0,0,0,0,0,0,0,0,0,0,0,0,0,0,0,0,0,0,0,0,0,0,0,0,0,0,6491,6491,7865,6612,0,0,6588,6589,6729,6561,6562,0,0,0,0,0,6491,6491,0,0,0,0,0,0,0,0,0,0,0,0,0,0,8293,8294,0,
8320,0,0,0,0,0,0,0,0,0,0,0,0,0,0,0,0,0,0,0,0,0,0,0,0,0,0,0,0,0,0,0,0,0,0,0,0,0,0,0,0,0,0,0,0,0,0,0,0,0,0,0,0,0,0,0,0,0,0,0,0,0,0,0,0,0,0,0,0,0,0,0,0,0,853,854,0,0,0,0,0,0,0,0,0,0,0,0,0,0,0,0,7865,0,0,0,0,0,0,0,0,0,0,0,6368,6369,6370,0,0,0,0,0,0,0,0,0,0,8318,8319,0,
0,0,0,0,0,0,0,0,6757,0,0,0,0,0,0,0,0,0,0,0,0,0,0,0,0,0,0,0,0,0,0,0,0,0,0,0,0,0,0,0,0,0,0,0,0,0,0,0,0,0,0,0,0,0,0,0,0,0,0,0,0,0,0,0,0,0,855,856,0,0,0,0,0,0,0,0,0,0,0,0,0,0,0,0,0,0,0,0,0,0,0,0,7865,0,0,0,0,0,0,0,0,0,0,0,6393,6394,6395,0,0,0,0,0,0,0,6456,6457,0,0,0,0,
0,0,0,0,0,0,0,0,6685,6757,0,0,0,0,0,0,0,0,0,0,0,0,0,0,0,0,0,0,0,0,0,0,0,0,0,0,0,0,0,0,0,0,0,0,0,0,0,0,0,0,0,0,0,0,0,0,0,0,0,0,0,0,0,0,0,0,0,0,0,0,0,0,0,0,0,0,0,0,0,0,0,0,0,0,0,0,0,0,0,0,0,0,0,0,0,0,0,0,0,0,0,0,0,0,6418,6419,6420,0,0,0,0,6486,6487,0,0,0,0,0,0,0,
0,0,0,0,0,0,0,0,6518,6787,0,0,0,0,0,0,0,0,0,0,0,0,0,0,0,0,0,0,0,0,0,0,0,0,0,0,0,0,0,0,0,0,0,0,0,0,0,0,0,0,0,0,0,0,0,0,0,0,0,0,0,0,0,0,0,0,0,0,0,0,0,0,0,0,0,0,0,0,0,0,0,0,0,0,0,0,0,0,0,0,0,0,0,0,0,0,0,0,0,0,0,0,0,0,6443,6444,6445,0,0,0,0,0,0,6381,6382,6383,0,0,0,0,
0,0,0,0,0,0,0,0,0,6762,0,0,0,0,0,0,0,0,0,0,0,0,0,0,0,0,0,0,0,0,0,0,0,0,0,0,0,0,0,0,0,0,0,0,0,0,0,0,0,0,0,0,0,0,0,0,0,0,0,0,0,0,0,0,0,0,0,0,0,0,0,0,0,0,0,0,0,0,0,0,0,0,0,0,0,0,0,0,0,0,0,0,0,0,6588,6589,0,0,0,0,0,0,0,0,0,6469,0,0,0,6456,6457,0,0,0,0,0,0,0,0,0,
0,0,0,0,0,0,0,0,0,0,0,0,0,0,0,0,0,0,0,0,0,0,0,0,0,0,0,0,0,0,0,0,0,0,0,0,0,0,0,0,0,0,0,0,0,0,0,0,0,0,0,0,0,0,0,0,0,0,0,0,0,0,0,0,0,0,0,0,0,0,0,849,850,851,852,0,0,0,0,0,0,0,0,0,0,0,0,0,0,0,0,0,0,0,6726,6727,6727,6728,6727,6727,6727,6728,6727,6727,6728,6727,6727,6728,6727,6727,6727,6727,6726,6728,6777,6727,6727,6726,6727,6727,
0,0,0,0,0,0,0,0,0,0,0,0,0,0,0,0,0,0,0,0,0,0,0,0,0,0,0,0,0,0,0,0,0,0,0,0,0,0,0,0,0,0,0,0,0,0,0,0,0,0,0,0,0,0,0,0,0,0,0,0,0,0,0,0,0,0,0,0,0,0,0,0,0,0,0,0,0,0,0,0,0,0,0,0,0,0,0,0,0,0,0,0,0,0,0,0,0,0,0,0,0,0,0,0,0,0,0,0,0,0,0,0,0,0,0,0,0,0,0,0,
0,0,0,0,0,0,0,0,0,0,0,0,0,0,0,0,0,0,0,0,0,0,0,0,0,0,0,0,0,0,0,0,0,0,0,0,0,0,0,0,0,0,0,0,0,0,0,0,0,0,0,0,0,0,0,0,0,0,0,0,0,1054,1055,1056,1057,0,0,0,0,0,0,0,0,0,0,0,0,0,0,0,0,0,0,0,0,0,0,0,0,0,0,0,0,0,0,0,0,0,0,0,0,0,0,0,0,0,6778,0,0,6468,0,0,0,0,0,0,0,0,0,0,
0,0,0,0,0,0,0,0,0,6685,6757,0,0,0,0,0,0,0,0,0,0,0,0,0,0,0,0,0,0,0,0,0,0,0,0,0,0,0,0,0,0,0,0,0,0,0,0,0,0,0,0,0,0,0,0,0,0,0,0,0,0,0,0,0,0,0,0,0,0,0,0,0,0,0,0,0,0,0,0,0,0,0,0,0,0,0,0,0,0,0,0,0,0,0,0,0,0,0,0,0,0,0,0,0,0,0,0,0,0,0,0,0,0,0,0,0,0,0,0,0,
0,0,0,0,0,0,0,0,0,0,6685,6757,0,0,0,0,0,0,0,0,0,0,0,0,0,0,0,0,0,0,0,0,0,0,0,0,0,0,0,0,0,0,0,0,0,0,0,0,0,0,0,0,0,0,0,0,0,0,0,0,0,0,0,0,0,1122,1123,0,0,0,0,0,0,0,0,0,0,0,0,0,0,0,0,0,0,0,0,0,0,0,0,0,0,0,0,0,0,0,0,0,0,0,0,0,0,0,0,0,0,0,0,0,0,0,0,0,0,0,0,0,
0,0,0,0,0,0,0,0,0,0,8321,6695,6758,6806,0,0,0,0,0,0,0,0,0,0,0,0,0,0,0,0,0,0,0,0,0,0,0,0,0,0,0,0,0,0,0,0,0,0,0,0,0,0,0,0,0,0,0,0,0,0,0,0,0,0,0,0,0,0,0,0,0,0,0,0,0,0,0,0,0,0,0,0,0,0,0,0,0,0,0,0,0,0,0,0,0,0,0,0,0,0,0,0,0,0,0,0,0,0,0,0,0,0,0,0,0,0,0,0,0,0,
0,0,0,0,0,0,0,0,0,6456,6457,0,0,6732,0,0,0,0,0,0,0,0,0,0,0,0,0,0,0,0,0,0,0,0,0,0,0,0,0,0,0,0,0,0,0,0,0,0,0,0,0,0,0,0,0,0,0,0,0,0,0,0,0,0,0,0,0,0,0,0,0,0,0,0,0,0,0,0,6611,0,0,0,0,0,0,0,0,0,0,0,0,0,0,0,0,0,0,0,0,0,0,0,0,6726,6727,6726,6727,6726,6777,6728,6726,6727,6728,6727,6727,6728,6727,6726,6727,6728,
0,6456,6457,0,0,0,0,0,0,0,0,0,0,6695,6757,0,0,0,0,0,0,0,0,0,0,0,0,0,0,0,0,0,0,0,0,0,0,0,0,0,0,0,0,0,0,0,0,0,0,0,0,0,0,0,0,10616,0,0,0,10616,0,0,0,0,0,0,0,0,0,0,0,0,0,0,0,0,0,0,0,0,0,0,0,0,0,0,0,0,0,0,0,0,0,0,0,0,0,0,0,0,0,7172,7173,7174,7175,0,7563,7564,7565,0,0,0,0,0,0,6456,6457,0,0,0,
0,0,0,0,0,0,0,0,6518,0,8321,8293,8294,0,6685,6757,0,0,0,0,0,0,0,0,0,0,0,0,0,0,0,0,0,0,0,0,0,0,0,0,0,0,0,0,0,0,0,0,0,0,0,0,0,0,0,0,0,0,0,0,10616,0,0,0,0,0,0,0,0,0,0,0,0,0,0,0,0,0,0,0,849,850,851,852,0,0,0,0,0,0,0,0,0,0,0,0,0,0,0,0,0,7197,7198,7199,7200,7201,7588,7589,7590,7669,0,0,0,6381,6382,6383,0,0,0,0,
0,6625,0,0,0,0,0,0,0,0,0,8318,8319,0,0,6685,6757,10693,10694,10696,10694,10695,0,0,0,0,0,0,0,0,0,0,0,0,0,0,0,0,0,0,0,0,0,0,0,0,0,0,0,0,0,0,0,0,0,0,0,0,0,0,0,0,0,0,0,0,0,0,0,0,0,0,0,0,0,0,0,0,0,0,0,0,0,0,0,0,0,0,0,0,0,0,0,0,0,0,0,0,0,0,0,7222,7223,7224,7225,7226,0,0,0,7668,0,6472,0,0,0,0,0,0,0,0,
0,0,0,0,0,0,0,0,0,0,0,0,0,0,0,0,0,0,0,0,0,0,0,0,0,0,0,0,0,0,0,0,0,0,0,0,0,0,0,0,0,0,0,0,0,0,0,0,0,0,0,0,0,0,0,0,0,0,0,0,0,0,0,0,0,0,0,0,0,0,0,0,0,0,0,0,0,0,0,0,0,0,0,0,0,0,0,0,0,0,0,0,0,0,0,0,0,0,0,0,0,0,0,0,0,0,0,0,0,6726,6728,6727,6777,6728,6727,6726,6727,6728,6727,6728,
0,0,0,0,0,0,0,0,0,0,0,0,0,0,0,0,0,0,0,0,0,0,0,0,0,0,0,0,0,0,0,0,0,0,0,0,0,0,0,0,0,0,0,0,0,0,0,0,0,0,0,0,0,0,0,0,0,0,0,0,0,0,0,0,0,0,0,0,0,0,0,0,0,0,0,0,0,0,0,0,0,0,0,0,0,0,0,0,0,0,0,0,0,0,0,0,0,0,0,0,0,0,0,0,0,0,0,0,0,0,0,0,0,0,0,0,0,0,0,0,
0,0,0,0,0,0,0,0,0,0,0,0,0,8321,0,0,0,0,0,0,0,0,0,0,0,0,0,0,0,0,0,0,0,0,0,0,0,0,0,0,0,0,0,0,0,0,0,0,0,0,0,0,0,0,0,0,0,0,10616,0,0,0,0,0,0,0,0,0,0,0,0,0,0,0,0,0,0,0,0,0,0,0,0,0,0,0,0,849,850,851,852,0,0,0,0,0,0,0,0,0,0,0,0,0,0,0,0,6491,0,0,0,0,0,0,0,0,0,0,0,0,
0,0,0,0,0,0,0,0,0,0,0,0,0,0,0,8322,0,0,0,0,0,0,0,0,0,0,0,0,0,0,0,0,0,0,0,0,0,0,0,0,0,0,0,0,0,0,0,0,0,0,0,0,0,0,0,0,0,0,0,0,0,0,0,0,0,0,0,0,0,0,0,0,0,0,0,0,0,0,0,0,0,0,0,0,0,0,0,0,0,0,0,0,0,0,0,0,0,0,0,0,0,0,0,0,0,0,0,0,0,0,0,0,0,0,0,0,0,0,0,0,
0,0,0,0,0,0,0,0,0,0,0,0,0,0,0,0,0,0,0,0,0,0,0,0,0,0,0,0,0,0,0,0,0,0,0,0,0,0,0,0,0,0,0,0,0,0,0,0,0,0,0,0,0,0,0,0,0,0,0,0,0,0,0,0,0,0,0,0,0,0,0,0,0,0,0,0,0,0,0,0,0,0,0,0,0,0,0,0,0,0,0,0,0,0,0,0,0,0,0,0,0,0,0,0,0,0,0,0,0,0,0,0,0,0,0,0,0,0,0,0,
0,0,0,0,0,0,0,0,0,0,0,0,0,0,0,0,0,0,0,0,0,0,0,0,0,0,0,0,0,0,0,0,0,0,0,0,0,0,0,0,0,0,0,0,0,0,0,0,0,0,0,0,0,0,0,0,0,0,0,0,0,0,0,0,0,0,0,0,0,0,0,0,0,0,0,0,0,0,0,0,0,0,0,0,0,0,0,0,0,0,0,0,0,0,0,0,0,0,0,0,0,0,0,0,0,0,0,0,0,0,0,0,0,0,0,0,0,0,0,0,
8322,0,0,0,0,0,0,0,0,0,0,0,0,0,0,0,0,0,0,0,0,0,0,0,0,0,0,0,0,0,0,0,0,0,0,0,0,0,0,0,0,0,0,0,0,0,0,0,0,0,0,0,0,0,0,0,0,0,0,849,850,851,852,0,0,0,0,0,0,0,0,0,0,0,0,0,0,0,0,0,0,0,0,0,0,0,0,0,0,0,0,0,0,0,0,0,0,0,0,0,0,0,0,0,0,0,0,0,0,0,0,0,0,0,0,0,0,0,0,0,
0,6543,0,0,0,0,0,0,849,850,851,852,0,0,0,0,0,0,0,0,0,0,0,0,0,0,0,0,0,0,0,0,0,0,0,0,0,0,0,0,0,0,0,0,0,0,0,0,0,0,0,0,0,0,0,0,0,0,0,0,0,0,0,0,0,0,0,0,0,0,0,0,0,0,0,0,0,0,0,0,0,0,0,0,0,0,0,0,0,0,0,0,0,0,0,0,0,0,0,0,0,0,0,0,0,0,0,0,0,0,0,0,0,0,0,0,0,0,0,0,
0,6695,6757,0,0,0,0,0,0,0,0,0,0,0,0,0,0,0,0,0,0,0,0,0,0,0,0,0,0,0,0,0,0,0,0,0,0,0,0,0,0,0,0,0,0,0,0,0,0,0,0,0,0,0,0,0,0,0,0,0,0,0,0,0,0,0,0,0,0,0,0,0,0,0,0,0,0,0,0,0,0,0,0,0,0,0,0,0,0,0,0,0,0,0,0,0,0,0,0,0,0,0,0,0,0,0,0,0,0,0,0,0,0,0,0,0,0,0,0,0,
0,0,6383,6758,6806,10693,10694,10695,0,0,0,0,0,0,0,0,0,0,0,0,0,0,0,0,0,0,0,0,0,0,0,0,0,0,0,0,0,0,0,0,0,0,0,0,0,0,0,0,0,0,0,0,0,0,0,0,0,0,0,0,0,0,0,0,0,0,0,0,0,0,0,0,0,0,0,0,0,0,0,0,0,0,0,0,0,0,0,0,0,0,0,0,0,0,0,0,0,0,0,0,0,0,0,0,0,0,0,0,0,0,0,0,0,0,0,0,0,0,0,0,
0,6479,8322,6695,0,0,0,0,0,0,0,0,0,0,0,0,0,0,0,0,0,0,0,0,0,0,0,0,0,0,0,0,0,0,0,0,0,0,0,0,0,0,0,0,0,0,0,0,0,0,0,0,0,0,0,0,0,0,0,0,0,0,0,0,0,0,0,0,0,0,0,0,0,0,0,0,0,0,0,0,0,0,0,0,0,0,0,0,0,0,0,0,0,0,0,0,0,0,0,0,0,0,0,0,0,0,0,0,0,0,0,0,0,0,0,0,0,0,0,0,
0,0,0,0,0,0,0,0,0,0,0,0,0,0,0,0,0,0,0,0,0,0,0,0,0,0,0,0,0,0,0,0,0,0,0,0,0,0,0,0,0,0,0,0,0,0,0,0,0,0,0,0,0,0,0,0,0,0,0,0,0,0,0,0,0,0,0,6611,0,0,0,0,0,0,0,0,0,0,0,0,0,0,0,0,0,0,0,0,0,0,0,0,0,0,0,0,0,0,0,0,0,0,0,0,0,0,0,0,0,0,0,0,0,0,0,0,0,0,0,0,
0,0,0,0,0,0,0,0,0,0,0,0,0,0,0,0,0,0,0,0,0,0,0,0,0,0,0,0,0,0,0,0,0,0,0,0,0,0,0,0,0,0,0,0,0,849,850,851,852,0,0,0,0,0,0,0,0,0,0,0,0,0,0,0,0,0,0,0,0,0,0,0,0,0,0,0,0,0,0,0,0,0,0,0,0,0,0,0,0,0,0,0,0,0,0,0,0,0,0,0,0,0,0,0,0,0,0,0,0,0,0,0,0,0,0,0,0,0,0,0,
0,0,0,0,0,0,0,0,0,0,0,0,0,0,0,0,0,0,0,0,0,0,0,0,0,0,0,0,0,0,0,0,0,0,0,0,0,0,0,0,0,0,0,0,0,0,0,0,0,0,0,0,0,0,0,0,0,0,0,0,0,0,0,0,0,0,0,0,849,850,851,852,0,0,0,0,0,0,0,0,0,0,0,0,0,0,0,0,0,0,0,0,0,0,0,0,0,0,0,0,0,0,0,0,0,0,0,0,0,0,0,0,0,0,0,0,0,0,0,0,
0,0,0,0,0,0,0,0,0,0,0,0,0,0,0,0,0,0,0,0,0,0,0,0,0,0,0,0,0,0,0,0,0,0,0,0,0,0,0,0,0,0,0,0,0,0,0,0,0,0,0,0,0,0,0,0,0,0,0,0,0,0,0,0,0,0,0,0,0,0,0,0,0,0,0,0,0,0,0,0,0,0,0,0,0,0,0,0,0,0,0,0,0,0,0,0,0,0,0,0,0,0,0,0,0,0,0,0,0,0,0,0,0,0,0,0,0,0,0,0,
0,0,0,0,0,0,0,0,0,0,0,0,0,0,0,0,0,0,0,0,0,0,0,0,0,0,0,0,0,0,0,0,0,0,0,0,0,0,0,0,0,0,0,0,0,0,0,0,0,0,0,0,0,0,0,0,0,0,0,0,0,0,0,0,0,0,0,0,0,0,0,0,0,0,0,0,0,0,0,0,0,0,0,0,0,0,0,0,0,0,0,0,0,0,0,0,0,0,0,0,0,0,0,0,0,0,0,0,0,0,0,0,0,0,0,0,0,0,0,0,
6781,6782,6781,6806,0,0,0,0,0,0,0,0,0,0,0,0,0,0,0,0,0,0,0,0,0,0,0,0,0,0,0,0,0,0,0,0,0,0,0,0,0,0,0,0,0,0,0,0,0,0,0,0,0,0,0,0,0,0,0,0,0,0,0,0,0,0,0,0,0,0,0,0,0,0,0,0,0,0,0,0,0,0,0,0,0,0,0,0,0,0,0,0,0,0,0,0,0,0,0,0,0,0,0,0,0,0,0,0,0,0,0,0,0,0,0,0,0,0,0,0,
0,0,0,0,6806,0,0,0,0,0,0,0,0,0,0,0,0,0,0,0,0,0,0,0,0,0,0,0,0,0,0,0,0,0,0,0,0,0,0,0,0,0,0,0,0,0,0,0,0,0,0,0,0,0,0,0,0,0,0,0,0,0,0,0,0,0,0,0,0,0,0,0,0,0,0,0,0,0,0,0,0,0,0,0,0,0,0,0,0,0,0,0,0,0,0,0,0,0,0,0,0,0,0,0,0,0,0,0,0,0,0,0,0,0,0,0,0,0,0,0,
6454,6455,0,8322,0,0,0,0,0,0,0,0,0,0,0,0,0,0,0,0,0,0,0,0,0,0,0,0,0,0,0,0,0,0,0,0,0,0,0,0,0,0,0,0,0,0,0,0,0,0,0,0,0,0,0,0,0,0,0,0,0,0,0,0,0,0,0,0,0,0,0,0,0,0,0,0,0,0,0,0,0,0,0,0,0,0,0,0,0,0,0,0,0,0,0,0,0,0,0,0,0,0,0,0,0,0,0,0,0,0,6807,6781,6486,6487,6782,6781,6782,6781,6781,6782,
6479,0,0,0,0,6757,0,0,0,0,0,0,0,0,0,0,0,0,0,0,0,0,0,0,0,0,0,0,0,0,0,0,0,0,0,0,0,0,0,0,0,0,0,0,0,0,0,0,849,850,851,852,0,0,0,0,0,0,0,0,0,0,0,0,0,0,0,0,0,0,0,0,0,0,0,0,0,0,0,0,0,0,0,0,0,0,0,0,0,0,0,0,0,0,0,0,0,0,0,0,0,0,0,849,850,851,852,0,0,0,0,0,0,0,0,8321,0,0,6643,0,
6504,0,0,0,0,0,0,0,0,0,0,0,0,0,0,0,0,0,0,0,0,0,0,0,0,0,0,0,0,0,0,0,0,0,0,0,0,0,0,0,0,0,0,0,0,0,0,0,0,0,0,0,0,0,0,0,0,0,0,0,0,0,0,0,0,0,0,0,0,0,0,0,0,0,0,0,0,0,0,0,0,0,0,0,0,0,0,0,0,0,0,0,0,0,0,0,0,0,0,0,0,0,0,0,6473,0,0,0,0,6543,0,0,0,0,0,0,6381,6382,6383,0,
0,0,0,0,0,0,0,0,0,0,0,0,0,0,0,0,0,0,0,0,0,0,0,0,0,0,0,0,0,0,0,0,0,0,0,0,0,0,0,0,0,0,0,0,0,0,0,0,0,0,0,0,0,0,0,0,0,0,0,0,0,0,0,0,0,0,0,0,0,0,0,0,0,0,0,0,0,0,0,0,0,0,0,0,0,0,0,0,0,0,0,0,0,0,0,0,0,0,0,0,0,0,0,0,0,8322,0,0,6543,6543,8320,0,0,8293,8294,0,6406,6407,6408,0,
0,0,0,0,6378,0,0,0,0,0,0,0,0,0,0,0,0,0,0,0,0,0,0,0,0,0,8718,8719,8720,8721,8722,8723,8724,8725,8726,0,0,0,0,0,0,0,0,0,0,0,0,0,0,0,0,0,0,0,0,0,0,0,0,0,0,0,0,0,0,0,0,0,0,0,0,0,0,0,0,0,0,0,0,0,0,0,0,0,0,0,0,0,0,0,0,0,0,0,0,0,0,0,0,0,0,0,0,0,0,0,0,0,6543,6543,0,6456,6457,8318,8319,0,0,0,0,8320,
6384,6385,6386,6387,6388,6389,0,0,0,0,0,0,0,0,0,0,0,0,0,0,0,0,0,0,0,0,0,0,0,0,0,0,0,0,0,0,0,0,0,0,0,0,0,0,0,0,0,0,0,0,0,0,0,0,0,0,0,0,0,0,0,0,0,0,0,0,0,0,0,0,0,0,0,0,0,0,0,0,0,0,0,0,0,0,0,0,0,0,0,0,0,0,0,0,0,952,0,0,0,0,0,0,0,0,0,0,0,6381,6382,6383,0,0,0,0,0,0,0,0,0,0,
6409,6410,6411,6412,6413,6429,0,0,0,0,0,0,0,0,0,0,0,0,0,0,0,0,0,0,0,0,0,0,0,0,0,0,0,0,0,0,0,0,0,0,0,0,0,0,0,0,0,0,0,0,0,0,0,0,0,0,0,0,0,0,0,0,0,0,0,0,0,0,0,0,0,0,0,0,0,0,0,0,0,0,0,0,0,0,0,0,0,0,0,0,0,0,0,0,0,0,0,0,0,0,0,0,951,0,0,0,0,6406,6407,6408,0,0,0,0,0,0,0,0,0,0,
6434,6435,6436,6437,6438,6454,0,0,0,0,0,0,0,0,6806,0,0,6807,0,0,0,0,0,0,0,0,0,0,0,0,0,0,0,0,0,0,0,0,0,0,0,0,0,0,0,0,0,0,0,0,0,0,0,0,0,0,0,0,0,0,0,0,0,0,0,0,0,0,0,0,0,0,0,0,0,0,0,0,0,0,0,0,0,0,0,0,0,0,0,0,0,0,0,0,0,0,0,0,0,0,0,0,0,0,0,0,0,6431,6432,6433,0,0,0,6543,0,0,0,0,0,0,
6459,6460,6461,6462,6463,0,0,0,0,0,0,0,0,0,0,0,0,0,0,0,0,0,0,0,0,0,0,0,0,0,0,0,0,0,0,0,0,0,0,0,0,0,0,0,0,0,0,0,0,0,0,0,0,0,0,0,0,0,0,0,0,0,0,0,0,0,0,0,0,0,0,0,0,0,0,0,0,0,0,0,0,0,0,0,0,0,0,0,0,0,0,0,0,0,0,0,0,0,0,0,0,0,0,0,0,0,6807,0,0,0,0,0,6456,6457,0,0,0,0,0,0,
0,0,6486,6487,0,0,0,0,0,0,0,0,0,0,0,0,0,0,0,0,0,0,0,0,0,0,0,0,0,0,0,0,0,0,0,0,0,0,0,0,0,0,0,0,0,0,0,0,0,0,0,0,0,0,0,0,0,0,0,0,0,0,0,0,0,0,0,0,0,0,0,0,0,0,0,0,0,0,0,0,0,0,0,0,0,0,0,0,0,0,0,0,0,0,0,0,0,0,0,0,0,0,0,0,0,6807,0,0,0,6381,6382,6383,0,0,0,0,0,8322,6479,0,
0,6413,6511,6512,0,8320,0,0,0,0,0,0,0,0,0,0,0,0,0,0,0,0,0,0,0,0,0,0,0,0,0,0,0,0,0,0,0,0,0,0,0,0,0,0,0,0,0,0,0,0,0,0,0,0,0,0,0,0,0,0,0,0,0,0,0,0,0,0,0,0,0,0,0,0,0,0,0,0,0,0,0,0,0,0,10617,0,0,0,0,0,0,0,0,0,0,0,0,949,0,0,0,0,0,0,0,0,6643,6469,6643,6406,6407,6408,0,0,0,0,0,0,0,0,
0,6438,6536,6537,0,0,0,0,0,0,0,0,0,0,0,0,0,0,0,0,0,0,0,0,0,0,0,0,0,0,0,0,0,0,0,0,0,0,0,0,0,0,0,0,0,0,0,0,0,0,0,0,0,0,0,0,0,0,0,0,0,0,0,0,0,0,0,0,0,0,0,0,0,0,0,0,0,0,0,0,0,0,0,0,0,0,0,0,0,0,0,0,0,0,0,0,0,0,0,0,0,950,0,0,0,0,0,0,0,0,0,0,0,0,0,6479,0,0,0,8321,
6462,6463,6464,0,0,0,0,0,0,0,0,0,0,0,0,0,0,0,0,0,0,0,0,0,0,0,0,0,0,0,0,0,0,0,0,0,0,0,0,0,0,0,0,0,0,0,0,0,0,0,0,0,0,0,0,0,0,0,0,3618,3619,0,0,0,0,0,0,0,0,0,0,0,0,0,0,0,0,0,0,0,0,0,0,0,0,0,0,0,0,0,0,0,0,10611,10612,0,0,0,0,0,0,0,0,0,0,0,6643,0,0,8320,0,6468,0,0,0,0,0,0,0,0,
6487,0,0,0,0,0,0,0,0,0,0,0,0,0,0,0,0,0,0,0,0,0,0,0,0,0,0,0,0,0,0,0,0,0,0,0,0,0,0,0,0,0,0,0,0,0,0,0,0,0,0,0,0,0,0,0,0,0,0,0,0,0,0,0,0,0,0,0,0,0,0,0,0,0,0,0,0,0,0,0,0,0,0,0,0,0,0,0,0,0,0,0,0,10651,10652,0,0,0,0,0,0,0,0,0,0,0,0,0,0,0,6643,0,0,8293,8294,0,0,0,0,0,
6512,6381,6382,6383,0,0,6762,0,0,0,0,0,0,0,0,0,0,0,0,0,0,0,0,0,0,0,0,0,0,0,0,0,0,0,0,0,0,0,0,0,0,0,0,0,0,0,0,0,0,0,0,0,0,0,0,0,0,0,0,0,0,0,0,0,0,0,0,0,0,0,0,0,0,0,0,0,0,0,0,0,0,0,0,0,0,0,0,0,0,0,0,0,0,0,0,0,0,0,0,0,0,0,0,0,0,0,0,0,0,0,0,0,0,8318,8319,0,0,0,0,0,
6537,6406,6407,6408,8320,6543,6737,0,0,0,0,0,0,0,0,0,0,0,0,0,0,0,0,0,0,0,0,0,0,0,0,0,0,0,0,0,0,0,0,0,0,0,0,0,0,0,0,0,0,0,0,0,0,0,0,0,0,0,0,0,0,0,0,0,0,0,0,0,0,0,0,0,0,0,0,0,0,0,0,0,0,0,0,0,0,0,0,0,0,0,0,0,0,0,0,0,0,0,0,0,0,0,0,0,0,0,0,0,0,0,0,0,0,0,0,0,0,0,0,0,
0,6431,6432,6433,0,6622,6762,0,0,0,0,0,0,0,0,0,0,0,0,0,0,0,0,0,0,0,0,0,0,0,0,0,0,0,0,0,0,1314,1315,1316,1315,1315,1316,1317,0,0,0,0,0,0,0,0,0,0,0,0,0,0,0,0,0,0,0,0,0,0,0,0,0,0,0,0,0,0,0,0,0,0,0,0,0,0,0,0,0,0,0,0,0,0,0,0,0,0,0,0,0,0,0,0,0,0,0,0,0,0,0,0,0,0,0,0,0,0,0,0,0,0,6479,0,
0,0,0,0,0,0,0,0,0,0,0,0,0,0,0,0,0,0,0,0,0,0,0,0,0,0,0,0,0,0,0,0,0,0,0,0,0,1350,1351,1352,1351,1351,1352,1353,0,0,0,0,0,0,0,0,0,0,0,0,0,0,0,0,0,1314,1315,1316,1317,0,0,0,0,0,0,0,0,0,0,0,0,0,0,0,0,0,0,0,0,0,0,0,0,0,0,0,0,0,0,0,0,0,0,0,0,0,0,0,0,0,0,0,0,0,0,0,0,0,0,0,8321,0,0,0,
6382,6383,0,0,0,0,6762,0,0,0,0,0,0,0,0,0,0,0,0,0,0,0,0,0,0,0,0,0,0,0,0,0,0,0,0,0,0,1386,1387,1388,1387,1387,1388,1389,0,0,0,0,0,0,0,0,0,0,0,0,0,0,0,0,0,1350,1351,1352,1353,0,0,0,0,0,0,0,0,0,0,0,0,0,0,0,0,0,0,0,0,0,0,0,0,0,0,0,0,0,0,0,0,0,0,0,0,0,0,0,0,0,0,0,0,0,0,0,0,0,0,0,0,0,0,0,
6407,6408,0,0,0,0,0,0,0,0,0,0,0,0,0,0,0,0,0,0,0,0,0,0,0,0,0,0,0,0,0,0,0,0,0,0,0,1422,1423,1424,1423,1423,1424,1425,0,0,0,0,0,0,0,0,0,0,0,0,0,0,0,0,0,1386,1387,1388,1389,0,0,0,0,0,0,0,0,0,0,0,0,0,0,0,0,0,0,0,0,0,0,0,0,0,0,0,0,0,0,0,0,0,0,0,0,0,0,0,0,0,0,0,0,0,0,0,0,0,8320,0,0,0,0,0,
6432,6433,0,0,0,0,0,0,0,0,0,0,0,0,0,0,0,0,0,0,0,0,0,0,0,0,0,0,0,0,0,0,0,0,0,0,0,1458,1459,1460,1459,1459,1460,1461,0,0,0,0,0,0,0,0,0,0,0,0,0,0,0,0,0,1422,1423,1424,1425,0,0,0,0,0,0,0,0,0,0,0,0,0,0,0,0,0,0,0,0,0,0,0,0,0,0,0,0,0,0,0,0,0,0,0,0,0,0,0,0,0,0,0,0,0,6486,6487,0,0,0,0,0,8293,8294,0,
0,0,0,0,0,0,0,0,0,0,0,0,0,0,0,0,0,0,0,0,0,0,0,0,0,0,0,0,0,0,0,0,0,0,0,0,0,1494,1495,1496,1495,1495,1496,1497,0,0,0,0,0,0,0,0,0,0,0,0,0,0,0,0,0,1458,1459,1460,1461,0,0,0,0,0,0,0,0,0,0,0,0,0,0,0,0,0,0,0,0,0,0,0,0,0,0,0,0,0,0,0,0,0,0,0,0,0,0,0,0,0,0,0,0,8320,0,0,8293,8294,0,0,0,8318,8319,0,
0,0,0,0,0,0,0,0,0,0,0,0,0,0,0,0,0,0,0,0,0,0,0,0,0,0,0,0,0,0,0,0,0,0,0,0,0,1530,1531,1532,1531,1531,1532,1533,0,0,0,0,0,0,0,0,0,0,0,0,0,0,0,0,0,1494,1495,1496,1497,0,0,0,0,0,0,0,0,0,0,0,0,0,0,0,0,0,0,0,0,0,0,0,0,0,0,0,0,0,0,0,0,0,0,0,0,0,0,0,0,0,6472,8293,8294,0,0,0,8318,8319,0,0,0,0,0,0,
0,0,0,0,0,0,0,0,0,0,0,0,0,0,0,0,0,0,0,0,0,0,0,0,0,0,0,0,0,0,0,0,0,0,0,0,0,0,0,0,0,0,0,0,0,0,0,0,0,0,0,0,0,0,0,0,0,0,0,0,0,1530,1531,1532,1533,0,0,0,0,0,0,0,0,0,0,0,0,0,0,0,0,0,0,0,0,0,0,0,0,0,0,0,0,0,0,0,0,0,0,0,0,0,0,0,0,0,0,8318,8319,0,0,6456,6457,0,0,0,0,0,0,0,
0,0,0,0,0,849,850,851,852,0,0,0,0,0,0,0,0,0,0,0,0,0,0,0,0,0,0,0,0,0,0,0,0,0,0,0,0,0,0,0,0,0,0,0,0,0,0,0,0,0,0,0,0,0,0,0,0,0,0,0,0,0,0,0,0,0,0,0,0,0,0,0,0,0,0,0,0,0,0,0,0,0,0,0,0,0,0,0,0,0,0,0,0,0,0,0,0,0,0,0,0,0,0,0,0,0,0,0,0,0,0,0,0,0,0,0,8320,0,6381,6382,
0,0,0,0,0,0,0,0,0,0,0,0,0,0,0,0,0,0,0,0,0,0,0,0,0,0,0,0,0,0,0,0,0,0,0,0,0,0,0,0,0,0,0,0,0,0,0,0,0,0,0,0,0,0,0,0,0,0,0,0,0,0,0,0,0,0,0,0,0,0,0,0,0,0,0,0,0,0,0,0,0,0,0,0,0,0,0,0,0,0,0,0,0,0,0,0,0,0,0,0,0,0,0,0,0,0,0,0,0,0,0,8322,0,0,0,0,0,0,6406,6407,
0,0,0,0,0,0,0,0,0,0,0,0,0,0,0,0,0,0,0,0,0,0,0,0,0,0,0,0,0,0,0,0,0,0,0,0,0,0,0,0,0,0,0,0,0,0,0,0,0,0,0,0,0,0,0,0,0,0,0,0,0,0,0,0,0,0,0,0,0,0,0,0,0,0,0,0,0,0,0,0,0,0,0,0,0,0,0,0,0,0,0,0,0,0,0,0,0,0,0,0,0,0,0,0,0,0,0,0,0,0,0,0,0,0,6479,0,0,0,0,0,
0,0,0,0,0,0,0,0,0,0,0,0,0,0,0,0,0,0,0,0,0,0,0,0,0,0,0,0,0,0,0,0,0,0,0,0,0,0,0,0,0,0,0,0,0,0,0,0,0,0,0,0,0,0,0,0,0,0,0,0,0,0,0,0,0,0,0,0,0,0,0,0,0,0,0,0,0,0,0,0,0,0,0,0,0,0,0,0,0,0,0,0,0,0,0,0,0,0,0,0,0,0,0,0,0,0,0,0,0,0,0,0,0,0,0,0,0,0,0,8322,
0,0,0,0,0,0,0,0,0,0,0,0,0,0,0,0,0,0,0,0,0,0,0,0,0,0,0,0,0,0,0,0,0,0,0,0,0,0,0,0,0,0,0,0,0,0,0,0,0,0,0,0,0,0,0,0,0,0,0,0,0,0,0,0,0,0,0,0,0,0,0,0,0,0,0,0,0,0,0,0,0,0,0,0,0,0,0,0,0,0,0,0,0,0,0,0,0,0,0,0,0,0,0,0,0,0,0,0,0,0,0,0,0,0,0,0,0,0,0,0,
0,0,0,0,0,0,0,0,0,0,0,0,0,0,0,0,0,0,0,0,0,0,0,0,0,0,0,0,0,0,0,0,0,0,0,0,0,0,0,0,0,0,0,0,0,0,0,0,0,0,0,0,0,0,0,0,0,0,0,0,0,0,0,0,0,0,0,0,0,0,0,0,0,0,0,0,0,0,0,0,0,0,0,0,0,0,0,0,0,0,0,0,0,0,0,0,0,0,0,0,0,0,0,0,0,0,0,0,0,0,0,0,0,0,0,0,0,0,0,0,
0,6862,0,0,0,0,0,0,0,0,0,0,0,0,0,0,0,0,0,0,0,0,0,0,0,0,0,0,0,0,0,0,0,0,0,0,0,0,0,0,0,0,0,0,0,0,0,0,0,0,0,0,0,0,0,0,0,0,0,0,0,0,0,0,0,0,0,0,0,0,0,0,0,0,0,0,0,0,0,0,0,0,0,0,0,0,0,0,0,0,0,0,0,0,0,0,0,0,0,0,0,0,0,0,0,0,0,0,0,0,0,0,0,0,0,0,0,0,0,0,
0,6866,0,0,0,0,0,0,0,0,0,0,0,0,0,0,0,0,0,0,0,0,0,0,0,0,0,0,0,0,0,0,0,0,0,0,0,0,0,0,0,0,0,0,0,0,0,0,0,0,0,0,0,0,0,0,0,0,0,0,0,0,0,0,0,0,0,0,0,0,0,0,0,0,0,0,0,0,0,0,0,0,0,0,0,0,0,0,0,0,0,0,0,0,0,0,0,0,0,0,0,0,0,0,0,0,0,0,0,0,0,0,0,0,6456,6457,0,0,0,0,
0,6866,0,0,0,0,0,0,0,0,0,0,0,0,0,0,0,0,0,0,0,0,0,0,0,0,0,0,0,0,0,0,0,0,0,0,0,0,0,0,0,0,0,0,0,0,0,0,0,0,0,0,0,0,0,0,0,0,0,0,0,0,0,0,0,0,0,0,0,0,0,0,0,0,0,0,0,0,0,0,0,0,0,0,0,0,0,0,0,0,0,0,0,0,0,0,0,0,0,0,0,0,0,0,0,0,0,0,0,0,0,0,0,0,0,0,0,0,0,0,
0,6866,0,0,0,0,0,0,0,0,0,0,0,0,0,0,0,0,0,0,0,0,0,0,0,0,0,0,0,0,0,0,0,0,0,0,0,0,0,0,0,0,0,0,0,0,0,0,0,0,0,0,0,0,0,0,0,0,0,0,0,0,0,0,0,0,0,0,0,0,0,0,6468,0,0,0,0,0,0,0,0,0,0,0,0,0,0,0,0,0,0,0,0,0,0,0,0,0,0,0,0,0,0,0,0,0,0,0,0,0,0,0,0,0,8321,0,6486,6487,0,0,
0,6866,0,0,0,0,0,0,0,0,0,0,0,0,0,0,0,0,0,0,0,0,0,0,0,0,0,0,0,0,0,0,0,0,0,0,0,0,0,0,0,0,0,0,0,0,0,0,0,0,0,0,0,0,0,0,0,0,0,0,0,0,0,0,0,0,0,0,0,0,0,0,0,0,0,0,0,0,0,0,0,0,0,0,0,0,0,0,0,0,0,0,0,0,0,0,0,0,0,0,0,0,0,0,0,0,0,0,0,0,0,0,0,0,0,0,0,0,8293,8294,
0,6866,0,0,0,0,0,0,0,0,0,0,0,0,0,0,0,0,0,0,0,0,0,0,0,0,0,0,0,0,0,0,0,0,0,0,0,0,0,0,0,0,0,0,0,0,0,0,0,0,0,0,0,0,0,0,0,0,0,0,0,0,0,0,0,0,0,0,0,0,0,0,0,0,0,0,0,0,0,0,0,0,0,0,0,0,0,0,0,0,0,0,0,0,0,0,0,0,0,0,0,0,0,0,0,0,0,0,0,0,0,0,0,0,0,8320,0,0,8318,8319,
0,6866,0,0,0,0,0,0,0,0,0,0,0,0,0,0,0,0,0,0,0,0,0,0,0,0,0,0,0,0,0,0,0,0,0,0,0,0,0,0,0,0,0,0,0,0,0,0,0,0,0,0,0,0,0,0,0,0,0,0,0,0,0,0,0,0,0,0,0,0,0,0,0,0,0,0,0,0,0,0,0,0,0,0,0,0,0,0,0,0,0,0,0,0,0,0,0,0,0,0,0,0,0,0,0,0,0,0,0,0,0,0,0,0,0,0,0,0,6456,6457,
0,6887,0,0,0,0,0,0,0,0,0,0,0,0,0,0,0,0,0,0,0,0,0,0,0,0,0,0,0,0,0,0,0,0,0,0,0,0,0,0,0,0,0,0,0,0,0,0,0,0,0,0,0,0,0,0,0,0,0,0,0,0,0,0,0,0,0,0,0,0,0,0,0,0,0,0,0,0,0,0,0,0,0,0,0,0,0,0,0,0,0,0,0,0,0,0,0,0,0,0,0,0,0,0,0,0,0,0,0,0,0,0,0,0,0,0,0,0,0,0,
0,6912,0,0,0,0,0,0,0,0,0,0,0,0,0,0,0,0,0,0,0,0,0,0,0,0,0,0,0,0,0,0,0,0,0,0,0,0,0,0,0,0,0,0,0,0,0,0,0,0,0,0,0,0,0,0,0,0,0,0,0,0,0,0,0,0,0,0,0,0,0,0,0,0,0,0,0,0,0,0,0,0,0,0,0,0,0,0,0,0,0,0,0,0,0,0,0,0,0,0,0,0,0,0,0,0,0,0,0,0,0,0,0,0,0,0,0,0,8322,0,
0,0,0,0,0,0,0,0,0,0,0,0,0,0,0,0,0,0,0,0,0,0,0,0,0,0,0,0,0,0,0,0,0,0,0,0,0,0,0,0,0,0,0,0,0,0,0,0,0,0,0,0,0,0,0,0,0,0,0,0,0,0,0,0,0,0,0,0,0,0,0,0,0,0,0,0,0,0,0,0,0,0,0,0,0,0,0,0,0,0,0,0,0,0,0,0,0,0,0,0,0,0,0,0,0,0,0,0,0,0,0,0,0,0,0,0,0,0,0,0,
0,0,0,0,0,0,0,0,0,0,0,0,0,0,0,0,0,0,0,0,0,0,0,0,0,0,0,0,0,0,0,0,0,0,0,0,0,0,0,0,0,0,0,0,0,0,0,0,0,0,0,0,0,0,0,0,0,0,0,0,0,0,0,0,0,0,0,0,0,0,0,0,0,0,0,0,0,0,0,0,0,0,0,0,0,0,0,0,0,0,0,0,0,0,0,0,0,0,0,0,0,0,0,0,0,0,0,0,0,0,0,0,0,0,0,0,0,0,0,0,
0,0,0,0,0,0,0,0,0,0,0,0,0,0,0,0,0,0,0,0,0,0,0,0,0,0,0,0,0,0,0,0,0,0,0,0,0,0,0,0,0,0,0,0,0,0,0,0,0,0,0,0,0,0,0,0,0,0,0,0,0,0,0,0,0,0,0,0,0,0,0,0,0,0,0,0,0,0,0,0,0,0,0,0,0,0,0,0,0,0,0,0,0,0,0,0,0,0,0,0,0,0,0,0,0,0,0,0,0,0,0,0,0,0,0,0,0,0,0,0,
0,0,0,0,0,0,0,0,0,0,0,0,0,0,0,0,0,0,0,0,0,0,0,0,0,0,0,0,0,0,0,0,8238,8239,8240,8241,8242,0,0,0,0,0,0,0,0,0,0,0,0,0,0,0,0,0,0,0,0,0,0,0,0,0,0,0,0,0,0,0,0,0,0,0,0,0,0,0,0,0,0,0,0,0,0,0,0,0,0,0,0,0,0,0,0,0,0,0,0,0,0,0,0,0,0,0,0,0,0,0,0,0,0,0,0,0,0,0,0,0,0,0,
0,0,0,0,0,0,0,0,0,0,0,0,0,0,0,0,0,0,0,0,0,0,0,0,0,0,0,0,0,0,0,0,8263,8264,8265,8266,8267,0,0,0,0,0,0,0,0,0,0,0,0,0,0,0,0,0,0,0,0,0,0,0,0,0,0,0,0,0,0,0,0,0,0,0,0,0,0,0,0,0,0,0,0,0,0,0,0,0,0,0,0,0,0,0,0,0,0,0,0,0,0,0,0,0,0,0,0,0,0,0,0,0,0,0,0,0,0,0,0,0,0,0,
0,0,0,0,0,0,0,0,0,0,0,0,0,0,0,0,0,0,0,0,0,0,0,0,0,0,0,0,0,0,8286,8287,8288,8289,8290,8291,8292,0,0,0,0,0,0,0,0,0,0,0,0,0,0,0,0,0,0,0,0,0,0,0,0,0,0,0,0,0,0,0,0,0,0,0,0,0,0,0,0,0,0,0,0,0,0,0,0,0,0,0,0,0,0,0,0,0,0,0,0,10693,10696,10694,10695,0,0,0,0,0,0,0,0,0,0,0,0,0,0,0,0,0,0,6818,
0,0,0,0,0,0,0,0,0,0,0,0,0,0,0,0,0,0,0,0,0,0,0,0,0,0,0,0,0,0,0,0,0,0,0,0,0,0,0,0,0,0,0,0,0,0,0,0,0,0,0,0,0,0,0,0,0,0,0,0,0,0,0,0,0,0,0,0,0,0,0,0,0,0,0,0,0,0,0,0,0,0,0,0,0,0,0,0,0,0,0,0,0,0,0,0,0,6806,0,0,6805,0,0,0,0,0,0,0,0,0,0,0,0,0,0,0,0,0,0,6862,
0,0,0,0,0,0,0,0,0,0,0,0,0,0,0,0,0,0,0,0,0,0,0,0,0,0,0,0,0,0,0,0,0,0,0,0,0,0,0,0,0,0,0,0,0,0,0,0,0,0,0,0,0,0,0,0,0,0,0,0,0,0,0,0,0,0,0,0,0,0,0,0,0,0,0,0,0,0,0,0,0,0,0,0,0,0,0,0,0,0,0,0,0,0,0,0,0,0,0,0,0,0,0,0,0,0,0,0,0,0,0,0,0,0,0,0,0,6818,0,6866,
0,0,0,0,0,0,0,0,0,0,0,0,0,0,0,0,0,0,0,0,0,0,0,0,0,0,0,0,0,0,0,0,0,0,0,0,0,0,0,0,0,0,0,0,0,0,0,0,0,0,0,0,0,0,0,0,0,0,0,0,0,6675,1578,1581,1582,0,0,0,0,0,0,0,0,0,0,0,0,0,0,0,0,0,0,0,0,0,0,0,0,0,0,0,0,6860,2136,0,0,0,0,0,6813,0,0,0,0,0,0,0,0,0,0,0,0,0,0,0,0,6862,0,6866,
0,0,0,0,0,0,0,0,0,0,0,0,0,0,0,0,0,0,0,0,0,0,0,0,0,0,0,0,0,0,0,0,0,0,0,0,0,6468,0,0,0,0,0,0,0,0,0,0,0,0,0,0,0,0,0,0,0,0,0,0,0,1349,1614,1617,1618,0,0,0,0,0,0,0,0,6468,0,0,0,0,0,0,0,0,0,0,0,0,0,0,0,0,0,6818,0,0,7712,0,0,0,0,0,0,6809,0,0,0,0,0,0,0,0,0,0,0,0,0,6818,0,6866,0,6866,
0,0,0,0,0,0,0,0,0,0,0,0,0,0,0,0,0,0,0,0,0,0,0,0,0,0,0,0,0,0,0,0,0,0,0,0,0,0,0,0,0,0,0,0,0,0,0,0,0,0,0,0,1313,1314,1315,1316,1315,1316,1317,6625,6812,2137,1650,1653,1654,0,0,0,0,0,0,0,0,0,0,0,0,0,0,0,0,0,0,0,0,0,0,0,0,0,0,6862,0,0,0,0,0,0,0,0,0,6833,0,0,0,0,0,0,0,0,0,0,0,0,0,6862,0,6866,0,6866,
0,0,0,0,0,0,0,0,0,0,0,0,0,0,0,0,0,2156,0,0,0,0,0,0,0,0,0,0,0,0,0,0,0,0,0,0,0,0,6818,0,0,0,0,0,0,0,0,0,0,0,0,0,1349,1350,1351,1352,1351,1352,1353,1354,0,1421,1686,1689,1690,0,0,0,0,0,0,0,0,0,0,0,0,0,0,0,0,0,0,0,0,0,0,6818,0,0,0,6866,6807,0,0,0,0,0,0,0,6884,0,0,0,0,2137,0,0,0,0,0,0,0,6818,0,6866,0,6866,0,6891,
0,0,0,0,0,0,0,0,0,0,0,0,0,0,0,0,0,6865,0,0,2137,0,0,0,0,0,0,0,0,0,0,0,0,0,0,0,0,0,6862,0,0,2137,0,0,0,0,0,0,0,0,0,0,1385,1386,1387,1388,1387,1388,1389,1390,0,1721,1722,1725,1726,0,0,0,0,0,0,0,0,0,0,0,0,0,0,0,0,0,0,0,0,0,0,6862,0,0,0,6866,0,0,0,0,0,0,0,0,6909,0,0,0,0,0,0,0,0,0,0,0,0,6862,0,6866,0,6866,0,0,
0,0,0,0,0,0,0,0,0,0,0,0,0,0,0,0,0,2149,0,0,0,0,0,2137,2156,0,0,0,0,0,2137,0,0,0,0,0,0,0,6866,0,0,0,0,2156,0,2137,0,0,0,0,0,0,1421,1422,1423,1424,1423,1424,1425,1426,0,1757,1758,1761,1762,0,0,0,0,0,0,0,0,0,2137,0,0,0,0,0,0,0,0,0,0,0,0,6866,0,0,2136,6866,6813,0,0,0,0,0,0,0,6837,0,0,2137,0,0,0,2156,2156,0,0,0,0,6866,0,6866,0,0,0,0,
0,0,0,0,0,0,0,0,0,0,0,0,0,0,0,0,0,2202,0,2136,0,0,0,0,6865,0,0,0,0,0,0,0,0,0,2137,0,6858,0,2165,0,2136,0,0,6865,0,0,0,0,0,0,0,0,1457,1458,1459,1460,1459,1460,1461,1462,0,1793,1794,1797,1798,0,0,0,6381,6382,6383,0,0,0,0,0,0,0,0,0,0,0,2137,0,0,6858,0,2165,0,0,0,6866,0,0,0,6836,0,0,0,0,2181,0,0,0,0,0,0,6865,2155,0,0,0,0,6866,0,6866,0,0,0,0,
0,0,0,0,0,0,0,0,0,0,0,0,0,0,0,0,0,0,0,0,0,0,0,0,2149,0,0,2137,0,0,0,0,0,0,0,0,0,0,6866,0,0,0,0,2149,0,0,0,6456,6457,0,0,0,1493,1494,1495,1496,1495,1496,1497,1498,0,0,0,0,0,0,8322,0,6406,6407,6408,0,2137,0,0,0,2136,0,0,0,0,0,0,0,0,0,0,2165,0,0,0,6891,0,2213,0,2215,0,0,2136,0,0,0,0,0,0,2136,0,2149,0,0,0,0,0,6866,0,0,0,0,0,0,
0,0,0,0,0,0,0,0,0,0,0,0,0,0,0,0,0,0,0,0,0,0,2136,0,2202,0,0,0,0,0,0,0,0,2136,0,0,0,0,2165,0,0,0,2136,2202,0,2136,0,0,0,0,6625,0,1529,1530,1531,1532,1531,1532,1533,1534,0,0,0,0,0,0,0,0,0,0,0,0,0,0,0,0,0,0,0,0,0,0,0,0,0,0,0,6866,0,0,0,0,0,2229,0,2231,0,0,0,0,0,0,0,2136,0,0,0,2202,0,0,0,0,0,6866,0,0,0,0,0,0,
0,0,0,0,0,0,0,0,0,0,0,0,0,0,0,0,0,0,0,0,0,0,0,0,0,0,2137,0,0,0,2136,0,0,0,0,2137,0,0,6891,0,0,0,0,0,0,0,0,0,0,0,8320,0,0,0,0,0,0,6456,6457,0,0,8321,1314,1315,1316,1317,6675,0,0,0,0,0,0,2136,0,0,0,2136,0,0,0,0,0,0,2137,0,0,6891,0,0,0,0,0,0,0,0,0,0,0,0,0,0,0,0,0,0,0,0,0,0,0,0,0,0,0,0,0,0,0,0,
0,0,0,0,0,0,0,0,0,0,0,0,0,0,0,0,0,0,0,0,0,0,0,0,0,0,0,0,0,0,0,0,0,0,0,0,0,0,0,0,0,0,0,0,0,0,0,0,0,0,0,6675,1578,1579,1580,1581,6600,0,0,0,0,1349,1350,1351,1352,1353,1354,0,0,0,0,0,0,0,0,0,0,0,0,0,0,0,0,0,0,0,0,0,0,0,0,0,0,0,0,0,0,0,0,0,0,0,0,0,0,0,0,0,0,0,0,0,0,0,0,0,0,0,0,0,
0,0,0,0,0,0,0,0,0,0,0,0,0,0,0,0,0,0,0,0,0,0,0,0,0,0,0,0,0,0,0,0,0,0,0,0,0,0,0,0,0,0,0,0,0,0,0,0,0,0,0,1613,1614,1615,1616,1617,1618,0,6625,0,0,1385,1386,1387,1388,1389,1390,0,0,0,0,0,0,0,0,0,0,0,0,0,0,0,0,0,0,0,0,0,0,0,0,0,0,0,0,0,0,0,0,0,0,0,0,0,0,0,0,0,0,0,0,0,0,0,0,0,0,0,0,0,
0,0,0,0,0,0,0,0,0,0,0,0,0,0,0,0,0,0,0,0,0,0,0,0,0,0,0,0,0,0,0,0,0,0,0,0,0,0,0,0,0,0,0,0,0,0,0,0,0,0,0,1649,1650,1651,1652,1653,1654,0,0,0,0,1421,1422,1423,1424,1425,1426,0,0,0,0,0,0,0,0,0,0,0,0,0,0,0,0,0,0,0,0,0,0,0,0,0,0,0,7740,0,0,0,0,0,0,0,0,0,0,0,0,0,0,0,0,0,0,0,0,0,0,0,0,0,
0,0,0,0,0,0,0,0,0,0,0,0,0,0,0,0,0,0,0,0,0,0,0,0,0,0,0,0,0,0,0,0,0,0,0,0,0,0,0,0,0,0,0,0,0,0,0,0,0,0,0,1685,1686,1687,1688,1689,1690,0,0,0,0,1457,1458,1459,1460,1461,1462,0,0,0,0,0,0,0,0,0,0,0,0,0,0,0,0,0,0,0,0,0,0,0,0,0,0,0,0,0,0,0,0,0,0,0,0,0,0,0,0,0,0,0,0,0,0,0,0,0,0,0,0,0,
0,0,0,0,0,0,0,0,0,0,0,0,0,0,0,0,0,0,0,0,0,0,0,0,0,0,0,0,0,0,0,0,0,0,0,0,0,0,0,0,0,0,0,0,0,0,0,0,0,0,0,1721,1722,1723,1724,1725,1726,0,0,0,0,1493,1494,1495,1496,1497,1498,0,0,0,0,0,0,0,0,0,0,0,0,0,0,0,0,0,0,0,0,0,0,0,0,0,0,0,0,0,0,0,0,0,0,0,0,0,0,0,0,0,0,0,0,0,0,0,0,0,0,0,0,0,
0,0,0,0,0,0,0,0,0,0,0,0,0,0,0,0,0,0,0,0,0,0,0,0,0,0,0,0,0,0,0,0,0,0,0,0,0,0,0,0,0,0,0,0,0,0,0,0,0,0,0,1757,1758,1759,1760,1761,1762,0,0,0,0,1529,1530,1531,1532,1533,1534,0,0,0,0,0,0,0,0,0,0,0,0,0,0,0,0,0,0,0,0,0,0,0,0,0,0,0,0,0,0,0,0,0,0,0,0,0,0,0,0,0,0,0,0,0,0,0,0,0,0,0,0,0,
0,0,0,0,0,0,0,0,0,0,0,0,0,0,0,0,0,0,0,0,0,0,0,0,0,0,0,0,0,0,0,0,0,0,0,0,0,0,0,0,0,0,0,0,0,0,0,0,0,0,0,1793,1794,1795,1796,1797,1798,0,0,0,0,0,0,0,0,0,0,0,0,0,0,0,0,0,0,0,0,0,0,0,0,0,0,0,0,0,0,0,0,0,0,0,0,0,0,0,0,0,0,0,0,0,0,0,0,0,0,0,0,0,0,0,0,0,0,0,0,0,0,0,
0,0,0,0,0,0,0,0,0,0,0,0,0,0,0,0,0,0,0,0,0,0,0,0,0,0,0,0,0,0,0,0,0,0,0,0,0,0,0,0,0,0,0,0,0,0,0,0,0,0,0,0,0,0,0,0,0,0,0,0,0,0,0,0,0,0,0,0,0,0,0,0,0,0,0,0,0,0,0,0,0,0,0,0,0,0,0,0,0,0,0,0,0,0,0,0,0,0,0,0,0,0,0,0,0,0,0,0,0,0,0,0,0,0,0,0,0,0,0,0,
0,0,0,0,0,0,0,0,0,0,0,0,0,0,0,0,0,0,0,0,0,0,0,0,0,0,0,0,0,0,0,0,0,0,0,0,0,0,0,0,0,0,0,0,0,0,0,0,0,0,0,0,0,0,0,0,0,0,0,0,0,0,0,0,0,0,0,0,0,0,0,0,0,0,0,0,0,0,0,0,0,0,0,0,0,0,0,0,0,0,0,0,0,0,0,0,0,0,0,0,0,0,0,0,0,0,0,0,0,0,0,0,0,0,0,0,0,0,0,0,
0,0,0,0,0,0,0,0,0,0,0,0,0,0,0,0,0,0,0,0,0,0,0,0,0,0,0,0,0,0,0,0,0,0,0,0,0,0,0,0,0,0,0,0,0,0,0,0,0,0,0,0,0,0,0,0,0,0,0,0,0,0,0,0,0,0,0,0,0,0,0,0,0,0,0,0,0,0,0,0,0,0,0,0,0,0,0,0,0,0,0,0,0,0,0,0,0,0,0,0,0,0,0,0,0,0,0,0,0,0,0,0,0,0,0,0,0,0,0,0,
0,0,0,0,0,0,0,0,0,0,0,0,0,0,0,0,0,0,0,0,0,0,0,0,0,0,0,0,0,0,0,0,0,0,0,0,0,0,0,0,0,0,0,0,0,0,0,0,0,0,0,0,0,0,0,0,0,0,0,0,0,0,0,0,0,0,0,0,0,0,0,0,0,0,0,0,0,0,0,0,0,0,0,0,0,0,0,0,0,0,0,0,0,0,0,0,0,0,0,0,0,0,0,0,0,0,0,0,0,0,0,0,0,0,0,0,0,0,0,0,
0,0,0,0,0,0,0,0,0,0,0,0,0,0,0,0,0,0,0,0,0,0,0,0,0,0,0,0,0,0,0,0,0,0,0,0,0,0,0,0,0,0,0,0,0,0,0,0,0,0,0,0,0,0,0,0,0,0,0,0,0,0,0,0,0,0,0,0,0,0,0,0,0,0,0,0,0,0,0,0,0,0,0,0,0,0,0,0,0,0,0,0,0,0,0,0,0,0,0,0,0,0,0,0,0,0,0,0,0,0,0,0,0,0,0,0,0,0,0,0,
0,0,0,0,0,0,0,0,0,0,0,0,0,0,0,0,0,0,0,0,0,0,0,0,0,0,0,0,0,0,0,0,0,0,0,0,0,0,0,0,0,0,0,0,0,0,0,0,0,0,0,0,0,0,0,0,0,0,0,0,0,0,0,0,0,0,0,0,0,0,0,0,0,0,0,0,0,0,0,0,0,0,0,0,0,0,0,0,0,0,0,0,0,0,0,0,0,0,0,0,0,0,0,0,0,0,0,0,0,0,0,0,0,0,0,0,0,0,0,0,
0,0,0,0,0,0,0,0,0,0,0,0,0,0,0,0,0,0,0,0,0,0,0,0,0,0,0,0,0,0,0,0,0,0,0,0,0,0,0,0,0,0,0,0,0,0,0,0,0,0,0,0,0,0,0,0,0,0,0,0,0,0,0,0,0,0,0,0,0,0,0,0,0,0,0,0,0,0,0,0,0,0,0,0,0,0,0,0,0,0,0,0,0,0,0,0,0,0,0,0,0,0,0,0,0,0,0,0,0,0,0,0,0,0,0,0,0,0,0,0
</data>
 </layer>
 <layer id="8" name="AlwaysFront" width="120" height="120">
  <data encoding="csv">
7314,7339,7314,7314,7314,7364,7314,7314,7314,7314,7314,7314,7308,7333,7334,7361,7338,7314,7314,7314,7314,7314,7314,7364,7383,7359,0,0,0,0,0,0,0,0,0,0,0,0,0,0,2639,2640,2641,2642,2643,0,0,0,0,0,0,0,2573,2574,2575,2576,2577,2578,2579,2580,0,0,6446,6447,6448,0,0,0,0,0,0,0,0,0,0,0,0,6486,6487,0,0,0,0,0,6368,6369,6370,0,0,0,6486,6487,0,0,0,0,0,0,0,0,0,0,0,0,0,0,0,0,0,0,0,0,0,0,0,0,0,0,0,0,
7314,7314,7314,7313,7314,7314,7314,7314,7314,7314,7314,7314,7314,7408,7385,7412,7413,7313,7314,7314,7314,7314,7314,7308,7309,7334,0,0,0,0,0,0,0,0,0,0,0,0,0,0,0,0,0,0,0,0,0,0,0,6371,6372,6373,2589,2590,2591,2592,2593,2594,2595,0,0,0,6471,6472,6473,0,0,0,0,0,0,0,0,0,0,0,0,0,0,0,0,0,0,0,6393,6394,6395,0,0,0,0,0,0,0,0,0,0,0,0,0,0,0,0,0,0,0,0,0,0,0,0,0,0,0,0,0,0,0,0,0,
7310,7311,7310,7311,7309,7313,7313,7314,7364,7314,7314,7314,7314,7433,7434,7437,7438,7314,7314,7314,7314,7314,7308,7309,7334,7360,0,0,0,6378,6379,6380,0,0,0,0,0,0,0,0,0,0,0,0,0,0,0,0,0,6396,6397,6398,0,0,2607,2608,2609,2610,2611,0,0,0,0,0,0,0,0,0,0,0,0,0,0,0,0,0,0,0,0,6384,6385,6386,6387,6388,6418,6419,6420,6371,6372,6373,0,0,0,0,0,0,6371,6372,6373,0,0,6384,6385,6386,6387,6388,6389,0,0,0,0,6384,6385,6386,6387,6388,6389,6368,6369,6370,
7335,7336,7335,7336,7336,7337,7338,7313,7314,7314,7314,7339,7314,7314,7314,7314,7314,7339,7314,7314,7314,7308,7383,7334,7360,0,0,0,0,6403,6404,0,0,0,0,0,0,0,6385,6386,6387,6388,0,0,0,0,0,0,0,6421,6422,6423,0,0,2623,2624,2625,2626,2627,0,0,0,0,0,0,0,0,0,0,0,0,0,0,0,0,0,0,0,0,6409,6410,6411,6412,6413,6414,6444,6445,6396,6397,6398,0,0,0,0,0,0,6396,6397,6398,0,0,6409,6410,6411,6412,6413,6414,0,0,0,0,6409,6410,6411,6412,6413,6414,6393,6394,6395,
0,0,0,0,0,7361,7337,7338,7313,7313,7313,7314,7314,7314,7314,7364,7314,7313,7314,7364,7383,7309,7334,7360,0,0,0,0,0,6428,6429,0,0,0,0,0,0,6385,6410,6411,6412,6413,6387,6388,0,0,0,0,0,6446,6447,6448,0,0,2639,2640,2641,2642,2643,0,0,0,0,0,0,0,0,0,0,0,0,0,0,0,0,0,0,0,0,6434,6435,6436,6437,6438,6439,6469,0,6421,6422,6423,0,0,0,0,0,0,6421,6422,6423,0,0,6434,6435,6436,6437,6438,6439,0,0,0,0,6434,6435,6436,6437,6438,6439,6418,6419,6420,
0,0,0,0,0,0,7361,7337,7338,7310,7312,7309,7311,7310,7311,7312,7311,7311,7310,7311,7309,7334,7360,0,0,0,0,0,0,0,0,0,0,0,0,0,6409,6410,6411,6411,6412,6438,6411,6439,0,0,0,0,0,0,0,0,0,6471,0,6473,0,0,0,0,0,0,0,0,0,0,0,0,0,0,0,0,0,0,0,0,0,0,0,6459,6460,6461,6462,6463,6464,0,0,6446,6447,6448,0,0,0,0,0,0,6446,6447,6448,0,0,6459,6460,6461,6462,6463,6464,0,0,0,0,6459,6460,6461,6462,6463,6464,6443,6444,6445,
0,0,0,0,0,0,0,7361,7335,7336,7336,7336,7336,7335,7336,7336,7336,7336,7336,7336,7336,0,0,0,0,0,0,0,0,0,0,0,0,0,0,0,6434,6436,6437,6436,6437,6436,6411,6439,0,0,0,0,0,0,0,0,0,0,0,0,0,0,0,0,0,0,0,0,0,0,0,0,0,0,0,0,0,0,0,0,0,0,0,0,0,6486,6487,0,0,0,0,0,0,0,0,0,0,6381,0,0,0,0,0,0,0,0,0,6486,6487,0,0,0,0,0,0,0,0,0,0,0,0,0,0,0,
6380,0,0,0,0,0,0,0,0,0,0,0,0,0,0,0,0,0,0,0,0,0,0,0,0,0,0,0,0,0,0,0,0,0,0,0,6459,6460,6460,6461,6462,6463,6463,6464,0,0,0,0,0,0,0,0,0,0,0,0,0,0,0,0,0,0,0,0,0,0,0,0,0,0,0,0,0,0,0,0,0,0,0,0,0,6390,6391,6392,0,0,0,0,0,0,0,0,0,6540,6541,6541,6541,6541,6541,6541,6541,6541,6542,0,0,0,6368,6369,6370,0,0,0,0,0,0,0,0,0,0,0,
6405,0,0,0,0,0,0,0,0,0,0,0,0,0,0,0,0,0,0,0,0,0,0,0,0,0,0,0,0,0,0,0,0,0,0,0,0,0,0,0,0,0,0,0,0,0,0,0,0,0,0,0,0,0,0,0,0,0,0,0,0,0,0,0,0,0,0,0,0,0,0,0,0,0,0,0,0,0,0,0,0,6415,6416,6417,0,0,0,0,0,0,0,0,0,6565,6660,6566,6566,6660,6566,6566,6566,6490,6567,6371,6372,6373,6393,6394,6395,0,0,0,0,0,0,0,0,0,0,0,
6430,0,0,0,0,0,0,0,0,0,0,0,0,0,0,0,0,0,0,0,0,0,0,0,0,0,0,0,0,0,0,0,0,0,0,0,0,0,0,0,0,0,0,0,0,0,0,0,0,0,0,0,0,0,0,0,0,0,0,0,0,0,0,0,0,0,0,0,0,0,0,0,0,0,0,0,0,0,0,0,0,6440,6441,6442,0,0,8277,0,8279,0,0,0,0,6565,6566,6660,6566,6566,6566,6566,6660,6515,6567,6396,6397,6398,6418,6419,6420,0,0,6456,6457,0,6381,6382,6383,6371,6372,6373,
6455,0,0,0,0,0,0,0,0,0,0,0,0,0,0,0,0,0,0,0,0,0,0,0,0,0,0,0,0,0,0,0,0,0,0,0,0,0,0,0,0,0,0,0,0,0,0,0,0,0,0,0,0,0,0,0,0,0,0,0,0,0,0,0,0,0,0,0,0,0,0,0,0,0,0,0,0,0,0,0,0,0,0,0,0,6540,8302,8303,8304,6541,6541,6541,7593,0,0,0,0,0,0,0,0,0,0,0,0,0,0,0,0,0,0,0,0,0,0,0,0,6396,6397,6398,
6378,6379,6380,0,0,0,0,0,0,0,0,0,0,0,0,0,0,0,0,0,0,0,0,0,0,0,0,0,0,0,0,0,0,0,0,0,0,0,0,0,0,0,0,0,0,0,0,0,0,0,0,0,0,0,0,0,0,0,0,0,0,0,0,0,0,0,0,0,0,0,0,0,0,0,0,0,0,0,0,0,0,0,0,0,0,6565,8327,8328,8329,6660,6566,6566,0,0,0,0,0,0,0,0,6590,0,0,0,0,0,0,0,0,0,0,0,0,0,0,0,0,6421,6422,6423,
6403,6404,6405,0,0,0,0,0,0,0,0,0,0,0,0,0,0,0,0,0,0,0,0,0,0,0,0,0,0,0,0,0,0,0,0,0,0,0,0,0,0,0,0,0,0,0,0,0,0,0,0,0,0,0,0,0,0,0,0,0,0,0,0,0,0,0,0,0,0,0,0,0,0,0,0,0,0,0,0,0,0,0,0,0,0,6565,6660,6566,6566,6566,6566,6566,0,0,0,0,0,0,0,0,6615,0,0,0,0,0,0,0,0,0,0,0,0,0,0,0,0,6446,6447,6448,
6428,6429,6430,0,0,0,0,0,0,0,0,0,0,0,0,0,0,0,0,0,0,0,0,0,0,0,0,0,0,0,0,0,0,0,0,0,0,0,0,0,0,0,0,0,0,0,0,0,0,0,0,0,0,0,0,0,0,0,0,0,0,0,0,0,0,0,0,0,0,0,0,0,0,0,0,0,0,0,0,0,0,0,0,0,0,0,0,0,0,0,0,0,0,0,0,0,0,0,0,0,6615,6616,0,0,0,0,0,0,0,0,0,0,0,0,0,0,0,6471,6472,6473,
6453,6454,6455,0,0,0,0,0,0,0,0,0,0,0,0,0,0,0,0,0,0,0,0,0,0,0,0,0,0,0,0,0,0,0,0,0,0,0,0,0,0,0,0,0,0,0,0,0,0,0,0,0,0,0,0,0,0,0,0,0,0,0,0,0,0,0,0,0,0,0,0,0,0,0,0,0,0,0,0,0,0,0,0,0,0,0,0,0,0,0,0,0,0,0,0,0,0,0,0,0,6615,0,0,0,0,0,0,0,0,6384,6385,6386,6387,6388,6389,0,0,0,0,0,
0,0,0,0,0,0,0,6996,0,0,0,0,0,0,0,0,0,0,0,0,0,0,0,0,0,0,0,0,0,0,0,0,0,0,0,0,0,0,0,0,0,0,0,0,0,0,0,0,0,0,0,0,0,0,0,0,0,0,0,0,0,0,0,0,0,0,0,0,0,0,0,0,0,0,0,0,0,0,0,0,0,0,0,0,0,0,0,0,0,0,0,0,0,0,0,0,0,0,0,0,0,0,0,0,0,0,0,0,0,6409,6410,6411,6412,6413,6414,0,0,0,0,0,
6372,6373,0,0,0,0,0,0,0,0,0,0,0,0,0,0,0,0,0,0,0,0,0,0,0,0,0,0,0,0,0,0,0,0,0,0,0,0,0,0,0,0,0,0,0,0,0,0,0,0,0,0,0,0,0,0,0,0,0,0,0,0,0,0,0,0,0,0,0,0,0,0,0,0,0,0,0,0,0,0,0,0,0,0,0,0,0,0,0,0,0,0,0,0,0,0,0,0,0,0,0,0,0,0,6368,6369,6370,0,0,6434,6435,6436,6437,6438,6439,0,0,0,0,0,
6397,6398,0,0,0,0,0,0,0,0,0,0,0,0,0,0,0,0,0,0,0,0,0,0,0,0,0,0,0,0,0,0,0,0,0,0,0,0,0,0,0,0,0,0,0,0,0,0,0,0,0,0,0,0,0,0,0,0,0,0,0,0,0,0,0,0,0,0,0,0,0,0,0,0,0,0,0,0,0,0,0,0,0,0,0,0,0,0,0,0,0,0,0,0,0,0,0,0,0,0,0,0,0,0,6393,6394,6395,0,0,6459,6460,6461,6462,6463,6464,0,0,0,0,0,
6422,6423,0,0,0,0,0,0,0,0,0,0,0,0,0,0,0,0,0,0,0,0,0,0,0,0,0,0,0,0,0,0,0,0,0,0,0,0,0,0,0,0,0,0,0,0,0,0,0,0,0,0,0,0,0,0,0,0,0,0,0,0,0,0,0,0,0,0,0,0,0,0,0,0,0,0,0,0,0,0,0,0,0,0,0,0,0,0,0,0,0,0,0,0,0,0,0,0,0,0,0,0,0,0,6418,6419,6420,0,0,0,0,0,0,0,0,0,0,0,0,0,
0,6448,0,0,0,0,0,0,0,0,0,0,0,0,0,0,0,0,0,0,0,0,0,0,0,0,0,0,0,0,0,0,0,0,0,0,0,0,0,0,0,0,0,0,0,0,0,0,0,0,0,0,0,0,0,0,0,0,0,0,0,0,0,0,0,0,0,0,0,0,0,0,0,0,0,0,0,0,0,0,0,0,0,0,0,0,0,0,0,0,0,0,0,0,0,0,0,0,0,0,0,0,0,0,6443,6444,6445,0,0,0,0,0,0,0,0,0,0,0,0,0,
0,0,0,0,0,0,0,0,0,0,0,0,0,0,0,0,0,0,0,0,0,0,0,0,0,0,0,0,0,0,0,0,0,0,0,0,0,0,0,0,0,0,0,0,0,0,0,0,0,0,0,0,0,0,0,0,0,0,0,0,0,0,0,0,0,0,0,0,0,0,0,0,0,0,0,0,0,0,0,0,0,0,0,0,0,0,0,0,0,0,0,0,0,0,0,0,0,0,0,0,0,0,0,0,0,6469,0,0,0,0,0,0,0,0,0,0,0,0,0,0,
7385,0,0,0,0,0,0,0,0,0,0,0,0,0,0,0,0,0,0,0,0,0,0,0,0,0,0,0,0,0,0,0,0,0,0,0,0,0,0,0,0,0,0,0,0,0,0,0,0,0,0,0,0,0,0,0,0,0,0,0,0,0,0,0,0,0,0,0,0,0,0,0,0,0,0,0,0,0,0,0,0,0,0,0,0,0,0,0,0,0,0,0,0,0,0,0,0,0,0,0,0,0,0,0,0,0,0,0,0,0,0,0,0,0,0,0,0,0,0,0,
7359,0,0,0,0,0,0,0,0,0,0,0,0,0,0,0,0,0,0,0,0,0,0,0,0,0,0,0,0,0,0,0,0,0,0,0,0,0,0,0,0,0,0,0,0,0,0,0,0,0,0,0,0,0,0,0,0,0,0,0,0,1022,1023,1024,1025,0,0,0,0,0,0,0,0,0,0,0,0,0,0,0,0,0,0,0,0,0,0,0,0,0,0,0,0,0,0,0,0,0,0,0,0,0,0,0,0,0,0,0,0,0,0,0,0,0,0,0,0,0,0,0,
7384,0,0,0,0,0,0,0,0,0,0,0,0,0,0,0,0,0,0,0,0,0,0,0,0,0,0,0,0,0,0,0,0,0,0,0,0,0,0,0,0,0,0,0,0,0,0,0,0,0,0,0,0,0,0,0,0,0,0,0,0,0,0,0,0,0,0,0,0,0,0,0,0,0,0,0,0,0,0,0,0,0,0,0,0,0,0,0,0,0,0,0,0,0,0,0,0,0,0,0,0,0,0,0,0,0,0,0,0,0,0,0,0,0,0,0,0,0,0,0,
7359,0,0,0,0,0,0,0,0,0,0,0,0,0,0,0,0,0,0,0,0,0,0,0,0,0,0,0,0,0,0,0,0,0,0,0,0,0,0,0,0,0,0,0,0,0,0,0,0,0,0,0,0,0,0,0,0,0,0,0,0,0,0,0,0,0,0,0,0,0,0,0,0,0,0,0,0,0,0,0,0,0,0,0,0,0,0,0,0,0,0,0,0,0,0,0,0,0,0,0,0,0,0,0,0,0,0,0,0,0,0,0,0,0,0,0,0,0,0,0,
7384,0,0,0,0,0,0,0,0,0,0,0,0,0,0,0,0,0,0,0,0,0,0,0,0,0,0,0,0,0,0,0,0,0,0,0,0,0,0,0,0,0,0,0,0,0,0,0,0,0,0,0,0,0,0,0,0,0,0,0,0,0,0,0,0,0,0,0,0,0,0,0,0,0,0,0,0,0,0,0,0,0,0,0,0,0,0,0,0,0,0,0,0,0,0,0,0,0,0,0,0,0,0,0,0,0,0,0,0,0,0,0,0,0,0,0,0,6371,6372,6373,
6380,0,0,0,0,0,0,0,0,0,0,6530,6531,0,0,0,0,0,0,0,0,0,0,0,0,0,0,0,0,0,0,0,0,0,0,0,0,0,0,0,0,0,0,0,0,0,0,0,0,0,0,0,0,0,0,0,0,0,0,0,0,0,0,0,0,0,0,0,0,0,0,0,0,0,0,0,0,0,0,0,0,0,0,0,0,0,0,0,0,0,0,0,0,0,0,0,0,0,0,0,0,0,0,0,0,0,0,0,0,0,6371,6372,6373,0,0,0,0,6396,6397,6398,
6405,0,0,0,0,0,0,0,0,0,0,0,0,0,0,0,0,0,0,0,0,0,0,0,0,0,0,0,0,0,0,0,0,0,0,0,0,0,0,0,0,0,0,0,0,0,0,0,0,0,0,0,0,0,0,0,0,0,0,0,0,0,0,0,0,0,0,0,0,0,0,0,0,0,0,0,0,0,0,0,0,0,0,0,0,0,0,0,0,0,0,0,0,0,0,0,0,0,0,0,0,7533,7534,7535,7536,7537,7538,7539,7540,0,6396,6397,6398,0,0,0,0,6421,6422,6423,
6430,0,0,0,0,0,0,0,0,0,0,0,0,0,0,0,0,0,0,0,0,0,0,0,0,0,0,0,0,0,0,0,0,0,0,0,0,0,0,0,0,0,0,0,0,0,0,0,0,0,0,0,0,0,0,0,0,0,0,0,0,0,0,0,0,0,0,0,0,0,0,0,0,0,0,0,0,0,0,0,0,0,0,0,0,0,0,0,0,0,0,0,0,0,0,0,0,0,0,0,0,7172,7173,0,0,7176,0,0,0,0,6421,6422,6423,0,0,0,0,6446,6447,6448,
6455,0,0,0,0,0,0,0,0,0,0,0,0,6378,6379,6380,0,0,0,0,0,0,0,0,0,0,0,0,0,0,0,0,0,0,0,0,0,0,0,0,0,0,0,0,0,0,0,0,0,0,0,0,0,0,0,0,0,0,0,0,0,0,0,0,0,0,0,0,0,0,0,0,0,0,0,0,0,0,0,0,0,0,0,0,0,0,0,0,0,0,0,0,0,0,0,0,0,0,0,0,0,0,0,0,0,0,0,0,0,7593,6446,6447,6448,0,0,0,0,6471,6472,6473,
6387,6388,6389,0,0,0,0,0,0,0,0,0,0,6403,6404,6405,0,0,0,0,0,0,0,0,0,0,0,0,0,0,0,0,0,0,0,0,0,0,0,0,0,0,0,0,0,0,0,0,0,0,0,0,0,0,0,0,0,0,0,0,0,0,0,0,0,0,0,0,0,0,0,0,0,0,0,0,0,0,0,0,0,0,0,0,0,0,0,0,0,0,0,0,0,0,0,0,0,0,0,0,0,0,0,0,0,0,0,0,0,0,0,0,0,0,0,0,0,0,0,0,
6412,6413,6414,0,0,0,0,0,0,0,0,0,0,6428,6429,6430,0,0,0,0,0,0,0,0,0,0,0,0,0,0,0,0,0,0,0,0,0,0,0,0,0,0,0,0,0,0,0,0,0,0,0,0,0,0,0,0,0,0,0,0,0,0,0,0,0,0,0,0,0,0,0,0,0,0,0,0,0,0,0,0,0,0,0,0,0,0,0,0,0,0,0,0,0,0,0,0,0,0,0,0,0,0,0,0,0,0,0,0,0,0,0,0,0,0,0,0,0,0,0,0,
6437,6438,6439,0,0,0,0,0,0,0,0,0,0,6453,6454,6455,0,0,0,0,0,0,0,0,0,0,0,0,0,0,0,0,0,0,0,0,0,0,0,0,0,0,0,0,0,0,0,0,0,0,0,0,0,0,0,0,0,0,0,0,0,0,0,0,0,0,0,0,0,0,0,0,0,0,0,0,0,0,0,0,0,0,0,0,0,0,0,0,0,0,0,0,0,0,0,0,0,0,0,0,0,0,0,0,0,0,0,0,0,0,0,0,0,0,0,0,0,0,0,0,
6462,6463,6464,0,0,0,0,0,0,0,0,0,0,6471,6479,6473,0,0,0,0,0,0,0,0,0,0,0,0,0,0,0,0,0,0,0,0,0,0,0,0,0,0,0,0,0,0,0,0,0,0,0,0,0,0,0,0,0,0,0,0,0,0,0,0,0,0,0,0,0,0,0,0,0,0,0,0,0,0,0,0,0,0,0,0,0,0,0,0,0,0,0,0,0,0,0,0,0,0,0,0,0,0,0,0,0,0,0,0,0,0,0,0,0,0,0,0,0,0,0,0,
6487,0,0,0,0,0,0,0,0,0,0,0,0,0,0,0,0,0,0,0,0,0,0,0,0,0,0,0,0,0,0,0,0,0,0,0,0,0,0,0,0,0,0,0,0,0,0,0,0,0,0,0,0,0,0,0,0,0,0,0,0,0,0,0,0,0,0,0,0,0,0,0,0,0,0,0,0,0,0,0,0,0,0,0,0,0,0,0,0,0,0,0,0,0,0,0,0,0,0,0,0,0,0,0,0,0,0,0,0,0,0,0,0,0,0,0,0,0,0,0,
6512,0,0,0,0,0,0,0,0,0,0,0,0,0,0,0,0,0,0,0,0,0,0,0,0,0,0,0,0,0,0,0,0,0,0,0,0,0,0,0,0,0,0,0,0,0,0,0,0,0,0,0,0,0,0,0,0,0,0,0,0,0,0,0,0,0,0,0,0,0,0,0,0,0,0,0,0,0,0,0,0,0,0,0,0,0,0,0,0,0,0,0,0,0,0,0,0,0,0,0,0,0,0,0,0,0,0,0,0,0,0,0,0,0,0,0,0,0,0,0,
6537,0,0,0,0,0,0,0,0,0,0,0,0,0,0,0,0,0,0,0,0,0,0,0,0,0,0,0,0,0,0,0,0,0,0,0,0,0,0,0,0,0,0,0,0,0,0,0,0,0,0,0,0,0,0,0,0,0,0,0,0,0,0,0,0,0,0,0,0,0,0,0,0,0,0,0,0,0,0,0,0,0,0,0,0,0,0,0,0,0,0,0,0,0,0,0,0,0,0,0,0,0,0,0,0,0,0,0,0,0,0,0,0,0,0,0,0,0,0,0,
6378,6379,6380,0,0,0,0,0,0,0,0,0,0,0,0,0,0,0,0,0,0,0,0,0,0,0,0,0,0,0,0,0,0,0,0,0,0,0,0,0,0,0,0,0,0,0,0,0,0,0,0,0,0,0,0,0,0,0,0,0,0,0,0,0,0,0,0,0,0,0,0,0,0,0,0,0,0,0,0,0,0,0,0,0,0,0,0,0,0,0,0,0,0,0,0,0,0,0,0,0,0,0,0,0,0,0,0,0,0,0,0,0,0,0,0,0,0,0,0,0,
6403,6404,6405,0,0,0,0,0,0,0,0,0,0,0,0,0,0,0,0,0,0,0,0,0,0,0,0,0,0,0,0,0,0,0,0,0,0,0,0,0,0,0,0,0,0,0,0,0,0,0,0,0,0,0,0,0,0,0,0,0,0,0,0,0,0,0,0,0,0,0,0,0,0,0,0,0,0,0,0,0,0,0,0,0,0,0,0,0,0,0,0,0,0,0,0,0,0,0,0,0,0,0,0,0,0,0,0,0,0,0,0,0,0,0,0,0,0,0,0,0,
6428,6429,6430,0,0,0,0,0,0,0,0,0,0,0,0,0,0,0,0,0,0,0,0,0,0,0,0,0,0,0,0,0,0,0,0,0,0,0,0,0,0,0,0,0,0,0,0,0,0,0,0,0,0,0,0,0,0,0,0,0,0,0,0,0,0,0,0,0,0,0,0,0,0,0,0,0,0,0,0,0,0,0,0,0,0,0,0,0,0,0,0,0,0,0,0,0,0,0,0,0,0,0,0,0,0,0,0,0,0,0,0,0,0,0,0,0,0,0,0,0,
6453,6454,6455,0,0,0,0,0,0,0,0,0,0,0,0,0,0,0,0,0,0,0,0,0,0,0,0,0,0,0,0,0,0,0,0,0,0,0,0,0,0,0,0,0,0,0,0,0,0,0,0,0,0,0,0,0,0,0,0,0,0,0,0,0,0,0,0,0,0,0,0,0,0,0,0,0,0,0,0,0,0,0,0,0,0,0,0,0,0,0,0,0,0,0,0,0,0,0,0,0,0,0,0,0,0,0,0,0,0,0,0,0,0,0,0,0,0,0,0,0,
0,0,0,0,0,0,0,0,0,0,0,0,0,0,0,0,0,0,0,0,0,0,0,0,0,0,0,0,0,0,0,0,0,0,0,0,0,0,0,0,0,0,0,0,0,0,0,0,0,0,0,0,0,0,0,0,0,0,0,0,0,0,0,0,0,0,0,0,0,0,0,0,0,0,0,0,0,0,0,0,0,0,0,0,0,0,0,0,0,0,0,0,0,0,0,0,0,0,0,0,0,0,0,0,0,0,0,0,0,0,0,0,0,0,0,0,0,0,0,0,
7385,0,0,0,0,0,0,0,0,0,0,0,0,0,0,0,0,0,0,0,0,0,0,0,0,0,0,0,0,0,0,0,0,0,0,0,0,0,0,0,0,0,0,0,0,0,0,0,0,0,0,0,0,0,0,0,0,0,0,0,0,0,0,0,0,0,0,0,0,0,0,0,0,0,0,0,0,0,0,0,0,0,0,0,0,0,0,0,0,0,0,0,0,0,0,0,0,0,0,0,0,0,0,0,0,0,0,0,0,0,0,0,0,0,0,0,0,0,0,0,
7359,0,0,0,0,0,0,0,0,0,0,0,0,0,0,0,0,0,0,0,0,0,0,0,0,0,0,0,0,0,0,0,0,0,0,0,0,0,0,0,0,0,0,0,0,0,0,0,0,0,0,0,0,0,0,0,0,0,0,0,0,0,0,0,0,0,0,0,0,0,0,0,0,0,0,0,0,0,0,0,0,0,0,0,0,0,0,0,0,0,0,0,0,0,0,0,0,0,0,0,0,0,0,0,0,0,0,0,0,0,0,0,0,0,0,0,0,0,0,0,
7384,0,0,0,0,0,0,0,0,0,0,0,0,0,0,0,0,0,0,0,0,0,0,0,0,0,0,0,0,0,0,0,0,0,0,0,0,0,0,0,0,0,0,0,0,0,0,0,0,0,0,0,0,0,0,0,0,0,0,0,0,0,0,0,0,0,0,0,0,0,0,0,0,0,0,0,0,0,0,0,0,0,0,0,0,0,0,0,0,0,0,0,0,0,0,0,0,0,0,0,0,0,0,0,0,0,0,0,0,0,0,0,0,0,0,0,0,0,0,0,
7360,0,0,0,0,0,0,0,0,0,0,0,0,0,0,0,0,0,0,0,0,0,0,0,0,0,0,0,0,0,0,0,0,0,0,0,0,0,0,0,0,0,0,0,0,0,0,0,0,0,0,0,0,0,0,0,0,0,0,0,0,0,0,0,0,0,0,0,0,0,0,0,0,0,0,0,0,0,0,0,0,0,0,0,0,0,0,0,0,0,0,0,0,0,0,0,0,0,0,0,0,0,0,0,0,0,0,0,0,0,6384,6385,6386,6387,6388,6389,0,0,0,0,
6379,6380,0,0,0,0,0,0,0,0,0,0,0,0,0,0,0,0,0,0,0,0,0,0,0,0,0,0,0,0,0,0,0,0,0,0,0,0,0,0,0,0,0,0,0,0,0,0,0,0,0,0,0,0,0,0,0,0,0,0,0,0,0,0,0,0,0,0,0,0,0,0,0,0,0,0,0,0,0,0,0,0,0,0,0,0,0,0,0,0,0,0,0,0,0,0,0,0,0,0,0,0,0,0,0,0,0,0,0,0,6409,6410,6411,6412,6413,6414,0,0,0,0,
6404,6405,0,0,0,0,0,0,0,0,0,0,0,0,0,0,0,0,0,0,0,0,0,0,0,0,0,0,0,0,0,0,0,0,0,0,0,0,0,0,0,0,0,0,0,0,0,0,0,0,0,0,0,0,0,0,0,0,0,0,0,0,0,0,0,0,0,0,0,0,0,0,0,0,0,0,0,0,0,0,0,0,0,0,0,0,0,0,0,0,0,0,0,0,0,0,0,0,0,0,0,0,0,0,0,0,0,0,0,0,6434,6435,6436,6437,6438,6439,0,0,0,0,
6429,6430,0,0,0,0,0,0,0,0,0,0,0,0,0,0,0,0,0,0,0,0,0,0,0,0,0,0,0,0,0,0,0,0,0,0,0,0,0,0,0,0,0,0,0,0,0,0,0,0,0,0,0,0,0,0,0,0,0,0,0,0,0,0,0,0,0,0,0,0,0,0,0,0,0,0,0,0,0,0,0,0,0,0,0,0,0,0,0,0,0,0,0,0,0,0,0,0,0,0,0,0,0,0,0,0,0,0,0,0,6459,6460,6461,6462,6463,6464,0,0,0,0,
7409,7385,0,0,0,0,0,0,0,0,0,0,0,0,0,0,0,0,0,0,0,0,0,0,0,0,0,0,0,0,0,0,0,0,0,0,0,0,0,0,0,0,0,0,0,0,0,0,0,0,0,0,0,0,0,0,0,0,0,0,0,0,0,0,0,0,0,0,0,0,0,0,0,0,0,0,0,0,0,0,0,0,0,0,0,0,0,0,0,0,0,0,0,0,0,0,0,0,0,0,0,0,0,0,0,0,0,6378,6379,6380,0,0,0,0,0,0,0,0,0,0,
7408,7409,7385,0,0,0,0,0,0,0,0,0,0,0,0,0,0,0,0,0,0,0,0,0,0,0,0,0,8645,8646,8647,8648,8649,0,0,0,0,0,0,0,0,0,0,0,0,0,0,0,0,0,0,0,0,0,0,0,0,0,0,0,0,0,0,0,0,0,0,0,0,0,0,0,0,0,0,0,0,0,0,0,0,0,0,0,0,0,0,0,0,0,0,0,0,0,0,0,0,0,0,0,0,0,0,0,0,0,0,6403,6404,6405,0,0,0,0,0,0,0,0,0,0,
7433,7408,7359,0,0,0,0,0,0,0,0,0,0,0,0,0,0,0,0,0,0,0,0,0,0,0,8668,8669,8670,8671,8672,8673,8674,8675,8676,0,0,0,0,0,0,0,0,0,0,0,0,0,0,0,0,0,0,0,0,0,0,0,0,0,0,0,0,0,0,0,0,0,0,0,0,0,0,0,0,0,0,0,0,0,0,0,0,0,0,0,0,0,0,0,0,0,0,0,0,0,0,0,0,0,0,0,0,0,0,0,0,6428,6429,6430,0,0,0,0,0,0,0,0,0,0,
7314,7383,7384,0,0,0,0,0,0,0,0,0,0,0,0,0,0,0,0,0,0,0,0,0,0,0,8693,8694,8695,8696,8697,8698,8699,8700,8701,0,0,0,0,0,0,0,0,0,0,0,0,0,0,0,0,0,0,0,0,0,0,0,0,0,0,0,0,0,0,0,0,0,0,0,0,0,0,0,0,0,0,0,0,0,0,0,0,0,0,0,0,0,0,0,0,0,0,0,0,0,0,0,0,0,0,0,0,0,0,0,0,6453,6454,6455,0,0,0,0,0,0,0,0,0,0,
7314,7408,7409,7385,0,6379,6380,0,0,0,0,0,0,0,0,0,0,0,0,0,0,0,0,0,0,0,0,0,0,0,0,0,0,0,0,0,0,0,0,0,0,0,0,0,0,0,0,0,0,0,0,0,0,0,0,0,0,0,0,0,0,0,0,0,0,0,0,0,0,0,0,0,0,0,0,0,0,0,0,0,0,0,0,0,0,0,0,0,0,0,0,0,0,0,0,0,0,0,0,0,0,0,0,0,0,0,0,0,6479,0,0,0,0,0,0,0,0,0,0,0,
7314,7433,7434,7409,7385,6404,6405,0,0,0,0,0,0,0,0,0,0,0,0,0,0,0,0,0,0,0,0,0,0,0,0,0,0,0,0,0,0,0,0,0,0,0,0,0,0,0,0,0,0,0,0,0,0,0,0,0,0,0,0,0,0,0,0,0,0,0,0,0,0,0,0,0,0,0,0,0,0,0,0,0,0,0,0,0,0,0,0,0,0,0,0,0,0,0,0,0,0,0,0,0,0,0,0,0,0,0,0,0,0,0,0,0,0,0,0,0,0,6378,6379,6380,
7314,7314,7314,7408,7359,6414,6430,0,0,0,0,0,0,0,0,0,0,0,0,0,0,0,0,0,0,0,0,0,0,0,0,0,0,0,0,0,0,0,0,0,0,0,0,0,0,0,0,0,0,0,0,0,0,0,0,0,0,0,0,0,0,0,0,0,0,0,0,0,0,0,0,0,0,0,0,0,0,0,0,0,0,0,0,0,0,0,0,0,0,0,0,0,0,0,0,0,0,0,0,0,0,0,0,0,0,0,6368,6369,6370,0,0,0,0,0,0,0,0,6403,6404,6405,
7314,7314,7314,7358,7384,6439,6455,0,0,0,0,0,0,0,0,0,0,0,0,0,0,0,0,0,0,0,0,0,0,0,0,0,0,0,0,0,0,0,0,0,0,0,0,0,0,0,0,0,0,0,0,0,0,0,0,0,0,0,0,0,0,0,0,0,0,0,0,0,0,0,0,0,0,0,0,0,0,0,0,0,0,0,0,0,0,0,0,0,0,0,0,0,0,0,0,0,0,0,0,0,0,0,0,0,0,0,6393,6394,6395,0,0,0,0,0,6378,6379,6380,6428,6429,6430,
7314,7314,7314,7383,7359,6464,0,0,0,0,0,0,0,0,0,0,0,0,0,0,0,0,0,0,0,0,0,0,0,0,0,0,0,0,0,0,0,0,0,0,0,0,0,0,0,0,0,0,0,0,0,0,0,0,0,0,0,0,0,0,0,0,0,0,0,0,0,0,0,0,0,0,0,0,0,0,0,0,0,0,0,0,0,0,0,0,0,0,0,0,0,0,0,0,0,0,0,0,0,0,0,0,0,0,0,0,6418,6419,6420,0,0,0,0,0,6403,6404,6405,6453,6454,6455,
7314,7364,7308,7309,7384,0,0,0,0,0,0,0,0,0,0,0,0,0,0,0,0,0,0,0,0,0,0,0,0,0,0,0,0,0,0,0,0,0,0,0,0,0,0,0,0,0,0,0,0,0,0,0,0,0,0,0,0,0,0,0,0,0,0,0,0,0,0,0,0,0,0,0,0,0,0,0,0,0,0,0,0,0,0,0,0,0,0,0,0,0,0,0,0,0,0,0,0,0,0,0,0,0,0,0,0,0,6443,6444,6445,0,0,0,0,0,6428,6429,6430,0,0,0,
7308,7309,7334,7335,7360,0,0,0,0,0,0,0,0,0,0,0,0,0,0,0,0,0,0,0,0,0,0,0,0,0,0,0,0,0,0,0,0,0,0,0,0,0,0,0,0,0,0,0,0,0,0,0,0,0,0,0,0,0,0,0,0,0,0,0,0,0,0,0,0,0,0,0,0,0,0,0,0,0,0,0,0,0,0,0,0,0,0,0,0,0,0,0,0,0,0,0,0,0,0,0,0,0,0,0,0,0,0,0,0,0,0,0,0,0,6453,6454,6455,0,0,0,
7309,7334,7360,0,0,0,0,0,0,0,0,0,0,0,0,0,0,0,0,0,0,0,0,0,0,0,0,0,0,0,0,0,0,0,0,0,0,0,0,0,0,0,0,0,0,0,0,0,0,0,0,0,0,0,0,0,0,0,0,0,0,0,0,0,0,0,0,0,0,0,0,0,0,0,0,0,0,0,0,0,0,0,0,0,0,0,0,0,0,0,0,0,0,0,0,0,0,0,0,0,0,0,0,0,0,0,0,0,0,0,0,0,0,0,0,0,0,0,0,0,
7334,7360,0,0,0,0,0,0,0,0,0,0,0,0,0,0,0,0,0,0,0,0,0,0,0,0,0,0,0,0,0,0,0,0,0,0,0,0,0,0,0,0,0,0,0,0,0,0,0,0,0,0,0,0,0,0,0,0,0,0,0,0,0,0,0,0,0,0,0,0,0,0,0,0,0,0,0,0,0,0,0,0,0,0,0,0,0,0,0,0,0,0,0,0,0,0,0,0,0,0,0,0,0,0,0,0,0,0,0,0,0,0,0,0,0,0,0,6378,6379,6380,
7360,0,0,0,0,0,0,0,0,0,0,0,0,0,0,0,0,0,0,0,0,0,0,0,0,0,0,0,0,0,0,0,0,0,0,0,0,0,0,0,0,0,0,0,0,0,0,0,0,0,0,0,0,0,0,0,0,0,0,0,0,0,0,0,0,0,0,0,0,0,0,0,0,0,0,0,0,0,0,0,0,0,0,0,0,0,0,0,0,0,0,0,0,0,0,0,0,0,0,0,0,0,0,0,0,0,0,0,0,0,0,0,0,0,0,0,0,6403,6404,6405,
0,0,0,6384,6385,6386,6387,6388,0,0,0,0,0,0,0,0,0,0,0,0,0,0,0,0,0,0,0,0,0,0,0,0,0,0,0,0,0,0,0,0,0,0,0,0,0,0,0,0,0,0,0,0,0,0,0,0,0,0,0,0,0,0,0,0,0,0,0,0,0,0,0,0,0,0,0,0,0,0,0,0,0,0,0,0,0,0,0,0,0,0,0,0,0,0,0,0,0,0,0,0,0,0,0,0,0,0,0,0,0,0,0,0,0,0,0,0,0,6428,6429,6430,
0,0,0,6409,6410,6411,6412,6413,6414,0,0,0,0,0,0,0,0,0,0,0,0,0,0,0,0,0,0,0,0,0,0,0,0,0,0,0,0,0,0,0,0,0,0,0,0,0,0,0,0,0,0,0,0,0,0,0,0,0,0,0,0,0,0,0,0,0,0,0,0,0,0,0,0,0,0,0,0,0,0,0,0,0,0,0,0,0,0,0,0,0,0,0,0,0,0,0,0,0,0,0,0,0,0,0,0,0,0,0,0,0,0,0,0,0,0,0,0,6453,6454,6455,
0,0,0,6434,6435,6436,6437,6438,6439,0,0,0,0,0,0,0,0,0,0,0,0,0,0,0,0,0,0,0,0,0,0,0,0,0,0,0,0,0,0,0,0,0,0,0,0,0,0,0,0,0,0,0,0,0,0,0,0,0,0,0,0,0,0,0,0,0,0,0,0,0,0,0,0,0,0,0,0,0,0,0,0,0,0,0,0,0,0,0,0,0,0,0,0,0,0,0,0,0,0,0,0,0,0,0,0,0,0,0,6384,6385,6386,6387,6388,6389,0,0,0,0,0,0,
0,0,0,6459,6460,6461,6462,6463,6464,0,0,0,0,0,0,0,0,0,0,0,0,0,0,0,0,0,0,0,0,0,0,0,0,0,0,0,0,0,0,0,0,0,0,0,0,0,0,0,0,0,0,0,0,0,0,0,0,0,0,0,0,0,0,0,0,0,0,0,0,0,0,0,0,0,0,0,0,0,0,0,0,0,0,0,0,0,0,0,0,0,0,0,0,0,0,0,0,0,0,0,0,0,0,0,0,0,0,0,6409,6410,6411,6412,6413,6414,0,0,0,0,0,0,
0,0,0,0,0,6486,6487,0,0,0,0,0,0,0,0,0,0,0,0,0,0,0,0,0,0,0,0,0,0,0,0,0,0,0,0,0,0,0,0,0,0,0,0,0,0,0,0,0,0,0,0,0,0,0,0,0,0,0,0,0,0,0,0,0,0,0,0,0,0,0,0,0,0,0,0,0,0,0,0,0,0,0,0,0,0,0,0,0,0,0,0,0,0,0,0,0,0,0,0,0,0,0,0,0,0,6371,6372,6373,6434,6435,6436,6437,6438,6439,0,0,0,0,0,0,
0,0,0,0,0,6511,6512,0,0,0,0,0,0,0,0,0,0,0,0,0,0,0,0,0,0,0,0,0,0,0,0,0,0,0,0,0,0,0,0,0,0,0,0,0,0,0,0,0,0,0,0,0,0,0,0,0,0,0,0,0,0,0,0,0,0,0,0,0,0,0,0,0,0,0,0,0,0,0,0,0,0,0,0,0,0,0,0,0,0,0,0,0,0,0,0,0,0,0,0,0,0,0,0,0,0,6396,6397,6398,6459,6460,6461,6462,6463,6464,0,0,0,0,0,6378,
0,0,0,0,0,6536,6537,0,0,0,0,0,0,0,0,0,0,0,0,0,0,0,0,0,0,0,0,0,0,0,0,0,0,0,0,0,0,1992,1993,1994,1993,1993,1994,1995,0,0,0,0,0,0,0,0,0,0,0,0,0,0,0,0,0,0,0,0,0,0,0,0,0,0,0,0,0,0,0,0,0,0,0,0,0,0,0,0,0,0,0,0,0,0,0,0,0,0,0,0,0,0,0,0,0,0,0,0,0,6421,6422,6423,0,0,0,0,0,0,0,0,0,0,0,6403,
0,0,0,0,0,0,0,0,0,0,0,0,0,0,0,0,0,0,0,0,0,0,0,0,0,0,0,0,0,0,0,0,0,0,0,0,0,2028,2029,2030,2029,2029,2030,2031,0,0,0,0,0,0,0,0,0,0,0,0,0,0,0,0,0,1992,1993,1994,1995,0,0,0,0,0,0,0,0,0,0,0,0,0,0,0,0,0,0,0,0,0,0,0,0,0,0,0,0,0,0,0,0,0,0,0,0,0,0,0,0,6446,6447,6448,0,0,0,0,0,0,0,0,0,0,0,6428,
0,0,0,0,0,0,0,0,0,0,0,0,0,0,0,0,0,0,0,0,0,0,0,0,0,0,0,0,0,0,0,0,0,0,0,0,0,2064,2065,2066,2065,2065,2066,2067,0,0,0,0,0,0,0,0,0,0,0,0,0,0,0,0,0,2028,2029,2030,2031,0,0,0,0,0,0,0,0,0,0,0,0,0,0,0,0,0,0,0,0,0,0,0,0,0,0,0,0,0,0,0,0,0,0,0,0,0,0,0,0,0,0,0,0,0,0,0,0,6378,6379,6380,0,0,0,6453,
0,0,0,0,0,0,0,0,0,0,0,0,0,0,0,0,0,0,0,0,0,0,0,0,0,0,0,0,0,0,0,0,0,0,0,0,0,0,0,0,0,0,0,0,0,0,0,0,0,0,0,0,0,0,0,0,0,0,0,0,0,2064,2065,2066,2067,0,0,0,0,0,0,0,0,0,0,0,0,0,0,0,0,0,0,0,0,0,0,0,0,0,0,0,0,0,0,0,0,0,0,0,0,0,0,0,0,0,0,0,0,0,0,0,0,6403,6404,6405,0,0,0,0,
0,0,0,0,0,0,0,0,0,0,0,0,0,0,0,0,0,0,0,0,0,0,0,0,0,0,0,0,0,0,0,0,0,0,0,0,0,0,0,0,0,0,0,0,0,0,0,0,0,0,0,0,0,0,0,0,0,0,0,0,0,0,0,0,0,0,0,0,0,0,0,0,0,0,0,0,0,0,0,0,0,0,0,0,0,0,0,0,0,0,0,0,0,0,0,0,0,0,0,0,0,0,0,0,0,0,0,0,0,0,0,0,0,6428,6429,6430,0,0,0,0,
0,0,0,0,0,0,0,0,0,0,0,0,0,0,0,0,0,0,0,0,0,0,0,0,0,0,0,0,0,0,0,0,0,0,0,0,0,0,0,0,0,0,0,0,0,0,0,0,0,0,0,0,0,0,0,0,0,0,0,0,0,0,0,0,0,0,0,0,0,0,0,0,0,0,0,0,0,0,0,0,0,0,0,0,0,0,0,0,0,0,0,0,0,0,0,0,0,0,0,0,0,0,0,0,0,0,0,0,0,0,0,0,0,6453,6454,6455,0,0,0,0,
0,0,0,0,0,0,0,0,0,0,0,0,0,0,0,0,0,0,0,0,0,0,0,0,0,0,0,0,0,0,0,0,0,0,0,0,0,0,0,0,0,0,0,0,0,0,0,0,0,0,0,0,0,0,0,0,0,0,0,0,0,0,0,0,0,0,0,0,0,0,0,0,0,0,0,0,0,0,0,0,0,0,0,0,0,0,0,0,0,0,0,0,0,0,0,0,0,0,0,0,0,0,0,0,0,0,0,0,0,0,0,0,0,0,0,0,0,0,0,0,
0,0,0,0,0,0,0,0,0,0,0,0,0,0,0,0,0,0,0,0,0,0,0,0,0,0,0,0,0,0,0,0,0,0,0,0,0,0,0,0,0,0,0,0,0,0,0,0,0,0,0,0,0,0,0,0,0,0,0,0,0,0,0,0,0,0,0,0,0,0,0,0,0,0,0,0,0,0,0,0,0,0,0,0,0,0,0,0,0,0,0,0,0,0,0,0,0,0,0,0,0,0,0,0,0,0,0,0,0,0,0,0,0,0,0,0,0,0,0,0,
0,0,0,0,0,0,0,0,0,0,0,0,0,0,0,0,0,0,0,0,0,0,0,0,0,0,0,0,0,0,0,0,0,0,0,0,0,0,0,0,0,0,0,0,0,0,0,0,0,0,0,0,0,0,0,0,0,0,0,0,0,0,0,0,0,0,0,0,0,0,0,0,0,0,0,0,0,0,0,0,0,0,0,0,0,0,0,0,0,0,0,0,0,0,0,0,0,0,0,0,0,0,0,0,0,0,0,0,0,0,0,0,0,0,0,0,0,0,0,0,
0,0,0,0,0,0,0,0,0,0,0,0,0,0,0,0,0,0,0,0,0,0,0,0,0,0,0,0,0,0,0,0,0,0,0,0,0,0,0,0,0,0,0,0,0,0,0,0,0,0,0,0,0,0,0,0,0,0,0,0,0,0,0,0,0,0,0,0,0,0,0,0,0,0,0,0,0,0,0,0,0,0,0,0,0,0,0,0,0,0,0,0,0,0,0,0,0,0,0,0,0,0,0,0,0,0,0,0,0,0,0,0,0,0,6384,6385,6386,6387,6388,6389,
0,0,0,0,0,0,0,0,0,0,0,0,0,0,0,0,0,0,0,0,0,0,0,0,0,0,0,0,0,0,0,0,0,0,0,0,0,0,0,0,0,0,0,0,0,0,0,0,0,0,0,0,0,0,0,0,0,0,0,0,0,0,0,0,0,0,0,0,0,0,0,0,0,0,0,0,0,0,0,0,0,0,0,0,0,0,0,0,0,0,0,0,0,0,0,0,0,0,0,0,0,0,0,0,0,0,0,0,0,0,0,0,0,0,6409,6410,6411,6412,6413,6414,
0,0,0,0,0,0,0,0,0,0,0,0,0,0,0,0,0,0,0,0,0,0,0,0,0,0,0,0,0,0,0,0,0,0,0,0,0,0,0,0,0,0,0,0,0,0,0,0,0,0,0,0,0,0,0,0,0,0,0,0,0,0,0,0,0,0,0,0,0,0,0,0,0,0,0,0,0,0,0,0,0,0,0,0,0,0,0,0,0,0,0,0,0,0,0,0,0,0,0,0,0,0,0,0,0,0,0,0,0,0,0,0,0,0,6434,6435,6436,6437,6438,6439,
0,0,0,0,0,0,0,0,0,0,0,0,0,0,0,0,0,0,0,0,0,0,0,0,0,0,0,0,0,0,0,0,0,0,0,0,0,0,0,0,0,0,0,0,0,0,0,0,0,0,0,0,0,0,0,0,0,0,0,0,0,0,0,0,0,0,0,0,0,0,0,0,0,0,0,0,0,0,0,0,0,0,0,0,0,0,0,0,0,0,0,0,0,0,0,0,0,0,0,0,0,0,0,0,0,0,0,0,0,0,0,0,0,0,6459,6460,6461,6462,6463,6464,
0,0,0,0,0,0,0,0,0,0,0,0,0,0,0,0,0,0,0,0,0,0,0,0,0,0,0,0,0,0,0,0,0,0,0,0,0,0,0,0,0,0,0,0,0,0,0,0,0,0,0,0,0,0,0,0,0,0,0,0,0,0,0,0,0,0,0,0,0,0,0,0,0,0,0,0,0,0,0,0,0,0,0,0,0,0,0,0,0,0,0,0,0,0,0,0,0,0,0,0,0,0,0,0,0,0,0,0,0,0,0,0,0,0,0,0,0,0,0,0,
0,0,0,0,0,0,0,0,0,0,0,0,0,0,0,0,0,0,0,0,0,0,0,0,0,0,0,0,0,0,0,0,0,0,0,0,0,0,0,0,0,0,0,0,0,0,0,0,0,0,0,0,0,0,0,0,0,0,0,0,0,0,0,0,0,0,0,0,0,0,0,0,0,0,0,0,0,0,0,0,0,0,0,0,0,0,0,0,0,0,0,0,0,0,0,0,0,0,0,0,0,0,0,0,0,0,0,0,0,0,0,0,0,0,0,0,0,0,0,0,
0,0,0,0,0,0,0,0,0,0,0,0,0,0,0,0,0,0,0,0,0,0,0,0,0,0,0,0,0,0,0,0,0,0,0,0,0,0,0,0,0,0,0,0,0,0,0,0,0,0,0,0,0,0,0,0,0,0,0,0,0,0,0,0,0,0,0,0,0,0,0,0,0,0,0,0,0,0,0,0,0,0,0,0,0,0,0,0,0,0,0,0,0,0,0,0,0,0,0,0,0,0,0,0,0,0,0,0,0,0,0,0,0,0,0,0,0,0,0,0,
0,0,0,0,0,0,0,0,0,0,0,0,0,0,0,0,0,0,0,0,0,0,0,0,0,0,0,0,0,0,0,0,0,0,0,0,0,0,0,0,0,0,0,0,0,0,0,0,0,0,0,0,0,0,0,0,0,0,0,0,0,0,0,0,0,0,0,0,0,0,0,0,0,0,0,0,0,0,0,0,0,0,0,0,0,0,0,0,0,0,0,0,0,0,0,0,0,0,0,0,0,0,0,0,0,0,0,0,0,0,0,0,0,0,0,0,0,0,0,0,
0,0,0,0,0,0,0,0,0,0,0,0,0,0,0,0,0,0,0,0,0,0,0,0,0,0,0,0,0,0,0,0,0,0,0,0,0,0,0,0,0,0,0,0,0,0,0,0,0,0,0,0,0,0,0,0,0,0,0,0,0,0,0,0,0,0,0,0,0,0,0,0,0,0,0,0,0,0,0,0,0,0,0,0,0,0,0,0,0,0,0,0,0,0,0,0,0,0,0,0,0,0,0,0,0,0,0,0,0,0,0,0,0,0,0,0,0,0,0,0,
0,0,0,0,0,0,0,0,0,0,0,0,0,0,0,0,0,0,0,0,0,0,0,0,0,0,0,0,0,0,0,0,0,0,0,0,0,0,0,0,0,0,0,0,0,0,0,0,0,0,0,0,0,0,0,0,0,0,0,0,0,0,0,0,0,0,0,0,0,0,0,0,0,0,0,0,0,0,0,0,0,0,0,0,0,0,0,0,0,0,0,0,0,0,0,0,0,0,0,0,0,0,0,0,0,0,0,0,0,0,0,0,0,0,0,0,0,0,6389,0,
0,0,0,0,0,0,0,0,0,0,0,0,0,0,0,0,0,0,0,0,0,0,0,0,0,0,0,0,0,0,0,0,0,8164,8165,8166,0,0,0,0,0,0,0,0,0,0,0,0,0,0,0,0,0,0,0,0,0,0,0,0,0,0,0,0,0,0,0,0,0,0,0,0,0,0,0,0,0,0,0,0,0,0,0,0,0,0,0,0,0,0,0,0,0,0,0,0,0,0,0,0,0,0,0,0,0,0,0,0,0,0,0,0,0,0,0,0,0,0,0,0,
0,0,0,0,0,0,0,0,0,0,0,0,0,0,0,0,0,0,0,0,0,0,0,0,0,0,0,0,0,0,0,0,8139,8189,8190,8191,8192,0,0,0,0,0,0,0,0,0,0,0,0,0,0,0,0,0,0,0,0,0,0,0,0,0,0,0,0,0,0,0,0,0,0,0,0,0,0,0,0,0,0,0,0,0,0,0,0,0,0,0,0,0,0,0,0,0,0,0,0,0,0,0,0,0,0,0,0,0,0,0,0,0,0,0,0,0,0,0,0,0,0,0,
0,0,0,0,0,0,0,0,0,0,0,0,0,0,0,0,0,0,0,0,0,0,0,0,0,0,0,0,0,0,0,0,8213,8214,8215,8216,8217,0,0,0,0,0,0,0,0,0,0,0,0,0,0,0,0,0,0,0,0,0,0,0,0,0,0,0,0,0,0,0,0,0,0,0,0,0,0,0,0,0,0,0,0,0,0,0,0,0,0,0,0,0,0,0,0,0,0,0,0,0,0,0,0,0,0,0,0,0,0,0,0,0,0,0,0,0,0,0,0,0,0,0,
0,0,0,0,0,0,0,0,0,0,0,0,0,0,0,0,0,0,0,0,0,0,0,0,0,0,0,0,0,0,0,0,8238,8239,8240,8241,8242,0,0,0,0,0,0,0,0,0,0,0,0,0,0,0,0,0,0,0,0,0,0,0,0,0,0,0,0,0,0,0,0,0,0,0,0,0,0,0,0,0,0,0,0,0,0,0,0,0,0,0,0,0,0,0,0,0,0,0,0,0,0,0,0,0,0,0,0,0,0,0,0,0,0,0,0,0,0,0,0,0,0,0,
0,0,0,0,0,0,0,0,0,0,0,0,0,0,0,0,0,0,0,0,0,0,0,0,0,0,0,0,0,0,8261,8262,8263,8264,8265,8266,8267,0,0,0,0,0,0,0,0,0,0,0,0,0,0,0,0,0,0,0,0,0,0,0,0,0,0,0,0,0,0,0,0,0,0,0,0,0,0,0,0,0,0,0,0,0,0,0,0,0,0,0,0,0,0,0,0,0,0,0,0,0,0,0,0,0,0,0,0,0,0,0,0,0,0,0,0,0,0,0,0,0,0,0,
0,0,0,0,0,0,0,0,0,0,0,0,0,0,0,0,0,0,0,0,0,0,0,0,0,0,0,0,0,0,0,0,0,0,0,0,0,0,0,0,0,0,0,0,0,0,0,0,0,0,0,0,0,0,0,0,0,0,0,0,0,0,0,0,0,0,0,0,0,0,0,0,0,0,0,0,0,0,0,0,0,0,0,0,0,0,0,0,0,0,0,0,0,0,0,0,0,0,0,0,0,0,0,0,0,0,0,0,0,0,0,0,0,0,0,0,0,0,0,0,
0,0,0,0,0,0,0,0,0,0,0,0,0,0,0,0,0,0,0,0,0,0,0,0,0,0,0,0,0,0,0,0,0,0,0,0,0,0,0,0,0,0,0,0,0,0,0,0,0,0,0,0,0,0,0,0,0,0,0,0,0,0,0,0,0,0,0,0,0,0,0,0,0,0,0,0,0,0,0,0,0,0,0,0,0,0,0,0,0,0,0,0,0,0,0,0,0,0,0,0,0,0,0,0,0,0,0,0,0,0,0,0,0,0,0,0,0,0,0,0,
0,0,0,0,0,0,0,0,0,0,0,0,0,0,0,0,0,0,0,0,0,0,0,0,0,0,0,0,0,0,0,0,0,0,0,0,0,0,0,0,0,0,0,0,0,0,0,0,0,0,0,0,0,0,0,0,0,0,0,0,0,0,0,0,0,0,0,0,0,0,0,0,0,0,0,0,0,0,0,0,0,0,0,0,0,0,0,0,0,0,0,0,0,0,0,0,0,0,0,0,0,0,0,0,0,0,0,0,0,0,0,0,0,0,0,0,0,0,0,0,
0,0,0,0,0,0,0,0,0,0,0,0,0,0,0,0,0,0,0,0,0,0,0,0,0,0,0,0,0,0,0,0,0,0,0,0,0,0,0,0,0,0,0,0,0,0,0,0,0,0,0,0,0,0,0,0,0,0,0,0,0,0,0,0,0,0,0,0,0,0,0,0,0,0,0,0,0,0,0,0,0,0,0,0,0,0,0,0,0,0,0,0,0,0,0,0,0,0,0,0,0,0,0,0,0,0,0,0,0,0,0,0,0,0,0,0,0,0,0,0,
0,0,0,0,0,0,0,0,0,0,0,0,0,0,0,0,0,0,0,0,0,0,0,0,0,0,0,0,0,0,0,0,0,0,0,0,0,0,0,0,0,0,0,0,0,0,0,0,0,0,0,0,0,0,0,0,0,0,0,0,0,0,0,0,0,0,0,0,0,0,0,0,0,0,0,0,0,0,0,0,0,0,0,0,0,0,0,0,0,0,0,0,0,0,0,0,0,0,0,0,0,0,0,0,0,0,0,0,0,0,0,0,0,0,0,0,0,0,0,0,
0,0,0,0,0,0,0,0,0,0,0,0,0,0,0,0,0,0,0,0,0,0,0,0,0,0,0,0,0,0,0,0,0,0,0,0,0,0,0,0,0,0,0,0,0,0,0,0,0,0,0,0,0,0,0,0,0,0,0,0,0,0,0,0,0,0,0,0,0,0,0,0,0,0,0,0,0,0,0,0,0,0,0,0,0,0,0,0,0,0,0,0,0,0,0,0,0,0,0,0,0,0,0,0,0,0,0,0,0,0,0,0,0,0,0,0,0,0,0,0,
0,0,0,0,0,0,0,0,0,0,0,0,0,0,0,0,0,0,0,0,0,0,0,0,0,0,0,0,0,0,0,0,0,0,0,0,0,0,0,0,0,0,0,0,0,0,0,0,0,0,0,0,0,0,0,0,0,0,0,0,0,0,0,0,0,0,6371,6372,6373,0,0,0,0,0,0,0,0,0,0,0,0,0,0,0,0,0,0,0,0,0,0,0,0,0,0,0,0,0,0,0,0,0,0,0,0,0,0,0,0,0,0,0,0,0,0,0,0,0,0,0,
0,0,0,0,0,0,0,0,0,0,0,0,0,0,0,0,0,0,0,0,0,0,0,0,0,0,0,0,0,0,0,0,0,0,0,0,0,0,0,0,0,0,0,0,0,0,0,0,0,0,0,0,0,0,0,0,0,0,0,0,0,1991,1992,1995,1996,0,6396,6397,6398,0,0,0,0,0,0,0,0,0,0,0,0,0,0,0,0,0,0,0,0,0,0,0,0,0,0,0,0,0,0,0,0,0,0,0,0,0,0,0,0,0,0,0,0,0,0,0,0,0,0,0,
0,0,0,0,0,0,0,0,0,0,0,0,0,0,0,0,0,0,0,0,0,0,0,0,0,0,0,0,0,0,0,0,0,0,0,0,0,0,0,0,0,0,0,0,0,0,0,0,0,0,0,0,0,0,0,0,0,0,0,0,0,2027,2028,2031,2032,0,6421,6422,6423,0,0,0,0,0,0,0,0,0,0,0,0,0,0,0,0,0,0,0,0,0,0,0,0,0,0,0,0,0,0,0,0,0,0,0,0,0,0,0,0,0,0,0,0,0,0,0,0,0,0,0,
0,0,0,0,0,0,0,0,0,0,0,0,0,0,0,0,0,0,0,0,0,0,0,0,0,0,0,0,0,0,0,0,0,0,0,0,0,0,0,0,0,0,0,0,0,0,0,0,0,0,0,0,1991,1992,1993,1994,1993,1994,1995,1996,0,2063,2064,2067,2068,0,6446,6447,6448,0,0,0,0,0,0,0,0,0,0,0,0,0,0,0,0,0,0,0,0,0,0,0,0,0,0,0,0,0,0,0,0,0,0,0,0,0,0,0,0,0,0,0,0,0,0,0,0,0,0,0,
0,0,0,0,0,0,0,0,0,0,0,0,0,0,0,0,0,0,0,0,0,0,0,0,0,0,0,0,0,0,0,0,0,0,0,0,0,0,0,0,0,0,0,0,0,0,0,0,0,0,0,0,2027,2028,2029,2030,2029,2030,2031,2032,0,0,0,0,0,0,0,0,0,0,0,0,0,0,0,0,0,0,0,0,0,0,0,0,0,0,0,0,0,0,0,0,0,0,0,0,0,0,0,0,0,0,0,0,0,0,0,0,0,0,0,0,0,0,0,0,0,0,0,0,
0,0,0,0,0,0,0,0,0,0,0,0,0,0,0,0,0,0,0,0,0,0,0,0,0,0,0,0,0,0,0,0,0,0,0,0,0,0,0,0,0,0,0,0,0,0,0,0,0,0,0,0,2063,2064,2065,2066,2065,2066,2067,2068,0,0,0,0,0,0,0,0,0,0,0,0,0,0,0,0,0,0,0,0,0,0,0,0,0,0,0,0,0,0,0,0,0,0,0,0,0,0,0,0,0,0,0,0,0,0,0,0,0,0,0,0,0,0,0,0,0,0,0,0,
0,0,0,0,0,0,0,0,0,0,0,0,0,0,0,0,0,0,0,0,0,0,0,0,0,0,0,0,0,0,0,0,0,0,0,0,0,0,0,0,0,0,0,0,0,0,0,0,0,0,0,0,0,0,0,0,0,0,0,0,0,0,0,0,0,0,0,0,0,0,0,0,0,0,0,0,0,0,0,0,0,0,0,0,0,0,0,0,0,0,0,0,0,0,0,0,0,0,0,0,0,0,0,0,0,0,0,0,0,0,0,0,0,0,0,0,0,0,0,0,
0,0,0,0,0,0,0,0,0,0,0,0,0,0,0,0,0,0,0,0,0,0,0,0,0,0,0,0,0,0,0,0,0,0,0,0,0,0,0,0,0,0,0,0,0,0,0,0,0,0,0,0,0,0,0,0,0,0,0,0,0,0,0,0,0,0,0,0,0,0,0,0,0,0,0,0,0,0,0,0,0,0,0,0,0,0,0,0,0,0,0,0,0,0,0,0,0,0,0,0,0,0,0,0,0,0,0,0,0,0,0,0,0,0,0,0,0,0,0,0,
0,0,0,0,0,0,0,0,0,0,0,0,0,0,0,0,0,0,0,0,0,0,0,0,0,0,0,0,0,0,0,0,0,0,0,0,0,0,0,0,0,0,0,0,0,0,0,0,0,0,0,0,0,0,0,0,0,0,0,0,0,0,0,0,0,0,0,0,0,0,0,0,0,0,0,0,0,0,0,0,0,0,0,0,0,0,0,0,0,0,0,0,0,0,0,0,0,0,0,0,0,0,0,0,0,0,0,0,0,0,0,0,0,0,0,0,0,0,0,0,
0,0,0,0,0,0,0,0,0,0,0,0,0,0,0,0,0,0,0,0,0,0,0,0,0,0,0,0,0,0,0,0,0,0,0,0,0,0,0,0,0,0,0,0,0,0,0,0,0,0,0,0,0,0,0,0,0,0,0,0,0,0,0,0,0,0,0,0,0,0,0,0,0,0,0,0,0,0,0,0,0,0,0,0,0,0,0,0,0,0,0,0,0,0,0,0,0,0,0,0,0,0,0,0,0,0,0,0,0,0,0,0,0,0,0,0,0,0,0,0,
0,0,0,0,0,0,0,0,0,0,0,0,0,0,0,0,0,0,0,0,0,0,0,0,0,0,0,0,0,0,0,0,0,0,0,0,0,0,0,0,0,0,0,0,0,0,0,0,0,0,0,0,0,0,0,0,0,0,0,0,0,1991,1992,1993,1994,1995,1996,0,0,0,0,0,0,0,0,0,0,0,0,0,0,0,0,0,0,0,0,0,0,0,0,0,0,0,0,0,0,0,0,0,0,0,0,0,0,0,0,0,0,0,0,0,0,0,0,0,0,0,0,0,
0,0,0,0,0,0,0,0,0,0,0,0,0,0,0,0,0,0,0,0,0,0,0,0,0,0,0,0,0,0,0,0,0,0,0,0,0,0,0,0,0,0,0,0,0,0,0,0,0,0,0,1991,1992,1993,1994,1995,1996,0,0,0,0,2027,2028,2029,2030,2031,2032,0,0,0,0,0,0,0,0,0,0,0,0,0,0,0,0,0,0,0,0,0,0,0,0,0,0,0,0,0,0,0,0,0,0,0,0,0,0,0,0,0,0,0,0,0,0,0,0,0,0,0,0,0,
0,0,0,0,0,0,0,0,0,0,0,0,0,0,0,0,0,0,0,0,0,0,0,0,0,0,0,0,0,0,0,0,0,0,0,0,0,0,0,0,0,0,0,0,0,0,0,0,0,0,0,2027,2028,2029,2030,2031,2032,0,0,0,0,2063,2064,2065,2066,2067,2068,0,0,0,0,0,0,0,0,0,0,0,0,0,0,0,0,0,0,0,0,0,0,0,0,0,0,0,0,0,0,0,0,0,0,0,0,0,0,0,0,0,0,0,0,0,0,0,0,0,0,0,0,0,
0,0,0,0,0,0,0,0,0,0,0,0,0,0,0,0,0,0,0,0,0,0,0,0,0,0,0,0,0,0,0,0,0,0,0,0,0,0,0,0,0,0,0,0,0,0,0,0,0,0,0,2063,2064,2065,2066,2067,2068,0,0,0,0,0,0,0,0,0,0,0,0,0,0,0,0,0,0,0,0,0,0,0,0,0,0,0,0,0,0,0,0,0,0,0,0,0,0,0,0,0,0,0,0,0,0,0,0,0,0,0,0,0,0,0,0,0,0,0,0,0,0,0,
0,0,0,0,0,0,0,0,0,0,0,0,0,0,0,0,0,0,0,0,0,0,0,0,0,0,0,0,0,0,0,0,0,0,0,0,0,0,0,0,0,0,0,0,0,0,0,0,0,0,0,0,0,0,0,0,0,0,0,0,0,0,0,0,0,0,0,0,0,0,0,0,0,0,0,0,0,0,0,0,0,0,0,0,0,0,0,0,0,0,0,0,0,0,0,0,0,0,0,0,0,0,0,0,0,0,0,0,0,0,0,0,0,0,0,0,0,0,0,0,
0,0,0,0,0,0,0,0,0,0,0,0,0,0,0,0,0,0,0,0,0,0,0,0,0,0,0,0,0,0,0,0,0,0,0,0,0,0,0,0,0,0,0,0,0,0,0,0,0,0,0,0,0,0,0,0,0,0,0,0,0,0,0,0,0,0,0,0,0,0,0,0,0,0,0,0,0,0,0,0,0,0,0,0,0,0,0,0,0,0,0,0,0,0,0,0,0,0,0,0,0,0,0,0,0,0,0,0,0,0,0,0,0,0,0,0,0,0,0,0,
0,0,0,0,0,0,0,0,0,0,0,0,0,0,0,0,0,0,0,0,0,0,0,0,0,0,0,0,0,0,0,0,0,0,0,0,0,0,0,0,0,0,0,0,0,0,0,0,0,0,0,0,0,0,0,0,0,0,0,0,0,0,0,0,0,0,0,0,0,0,0,0,0,0,0,0,0,0,0,0,0,0,0,0,0,0,0,0,0,0,0,0,0,0,0,0,0,0,0,0,0,0,0,0,0,0,0,0,0,0,0,0,0,0,0,0,0,0,0,0,
0,0,0,0,0,0,0,0,0,0,0,0,0,0,0,0,0,0,0,0,0,0,0,0,0,0,0,0,0,0,0,0,0,0,0,0,0,0,0,0,0,0,0,0,0,0,0,0,0,0,0,0,0,0,0,0,0,0,0,0,0,0,0,0,0,0,0,0,0,0,0,0,0,0,0,0,0,0,0,0,0,0,0,0,0,0,0,0,0,0,0,0,0,0,0,0,0,0,0,0,0,0,0,0,0,0,0,0,0,0,0,0,0,0,0,0,0,0,0,0,
0,0,0,0,0,0,0,0,0,0,0,0,0,0,0,0,0,0,0,0,0,0,0,0,0,0,0,0,0,0,0,0,0,0,0,0,0,0,0,0,0,0,0,0,0,0,0,0,0,0,0,0,0,0,0,0,0,0,0,0,0,0,0,0,0,0,0,0,0,0,0,0,0,0,0,0,0,0,0,0,0,0,0,0,0,0,0,0,0,0,0,0,0,0,0,0,0,0,0,0,0,0,0,0,0,0,0,0,0,0,0,0,0,0,0,0,0,0,0,0,
0,0,0,0,0,0,0,0,0,0,0,0,0,0,0,0,0,0,0,0,0,0,0,0,0,0,0,0,0,0,0,0,0,0,0,0,0,0,0,0,0,0,0,0,0,0,0,0,0,0,0,0,0,0,0,0,0,0,0,0,0,0,0,0,0,0,0,0,0,0,0,0,0,0,0,0,0,0,0,0,0,0,0,0,0,0,0,0,0,0,0,0,0,0,0,0,0,0,0,0,0,0,0,0,0,0,0,0,0,0,0,0,0,0,0,0,0,0,0,0,
0,0,0,0,0,0,0,0,0,0,0,0,0,0,0,0,0,0,0,0,0,0,0,0,0,0,0,0,0,0,0,0,0,0,0,0,0,0,0,0,0,0,0,0,0,0,0,0,0,0,0,0,0,0,0,0,0,0,0,0,0,0,0,0,0,0,0,0,0,0,0,0,0,0,0,0,0,0,0,0,0,0,0,0,0,0,0,0,0,0,0,0,0,0,0,0,0,0,0,0,0,0,0,0,0,0,0,0,0,0,0,0,0,0,0,0,0,0,0,0
</data>
 </layer>
 <layer id="9" name="AlwaysFront2" width="120" height="120">
  <properties>
   <property name="Draw" value="AlwaysFront"/>
  </properties>
  <data encoding="csv">
0,0,0,0,0,0,0,0,0,0,0,0,0,0,0,7386,0,0,0,0,0,0,0,0,0,2573,2574,2575,2576,2577,2578,2579,2580,0,0,0,0,0,0,0,0,0,0,0,0,0,0,0,0,0,0,0,0,0,0,0,0,0,0,0,0,0,0,0,0,0,0,0,0,0,0,0,0,0,0,0,0,0,0,0,0,0,0,0,0,0,0,0,0,0,0,0,0,0,0,0,0,0,0,0,0,0,0,0,0,0,0,0,0,0,0,0,0,0,0,0,0,0,0,0,
0,0,0,0,0,0,0,0,0,0,0,0,0,0,7360,0,0,0,0,0,0,0,0,0,0,2589,2590,2591,2592,2593,2594,2595,0,0,0,0,0,0,0,0,0,0,0,0,0,0,0,0,0,0,0,0,0,0,0,0,0,0,0,0,0,0,0,0,0,0,0,0,0,0,0,0,0,0,0,0,0,0,0,0,0,0,0,0,0,0,0,0,0,0,0,0,0,0,0,0,0,0,0,0,0,0,0,0,0,0,0,0,0,0,0,0,0,0,0,0,0,0,0,0,
0,0,0,0,0,0,0,0,0,0,0,0,0,0,0,0,0,0,0,0,0,0,0,0,0,0,0,2607,2608,2609,2610,2611,0,0,0,0,0,0,0,0,0,0,0,0,0,0,0,0,0,0,0,0,0,0,0,0,0,0,0,0,0,0,0,0,0,0,0,0,0,0,0,0,0,0,0,0,0,0,0,0,0,0,0,0,0,0,0,0,0,0,0,0,0,0,0,0,0,0,0,0,0,0,0,0,0,0,0,0,0,0,0,0,0,0,0,0,0,0,0,0,
0,0,0,0,0,0,0,0,0,0,0,0,0,0,0,0,0,0,0,0,0,0,0,0,0,0,0,2623,2624,2625,2626,2627,0,0,0,0,0,0,0,0,0,0,0,0,0,0,0,0,0,0,0,0,0,0,0,0,0,0,0,0,0,0,0,0,0,0,0,0,0,0,0,0,0,0,0,0,0,0,0,0,0,0,0,0,0,0,0,0,0,0,0,0,0,0,0,0,0,0,0,0,0,0,0,0,0,0,0,0,0,0,0,0,0,0,0,0,0,0,0,0,
0,0,0,0,0,0,0,0,0,0,0,0,0,0,0,0,0,0,0,0,0,0,0,0,0,0,0,2639,2640,2641,2642,2643,0,0,0,0,0,0,0,0,0,0,0,0,0,0,0,0,0,0,0,0,0,0,0,0,0,0,0,0,0,0,0,0,0,0,0,0,0,0,0,0,0,0,0,0,0,0,0,0,0,0,0,0,0,0,0,0,0,0,0,0,0,0,0,0,0,0,0,0,0,0,0,0,0,0,0,0,0,0,0,0,0,0,0,0,0,0,0,0,
0,0,0,0,0,0,0,0,0,0,0,0,0,0,0,0,0,0,0,0,0,0,0,0,0,0,0,0,0,0,0,0,0,0,0,0,0,0,0,0,0,0,0,0,0,0,0,0,0,0,0,0,0,0,0,0,0,0,0,0,0,0,0,0,0,0,0,0,0,0,0,0,0,0,0,0,0,0,0,0,0,0,0,0,0,0,0,0,0,0,0,0,0,0,0,0,0,0,0,0,0,0,0,0,0,0,0,0,0,0,0,0,0,0,0,0,0,0,0,0,
0,0,0,0,0,0,0,0,0,0,0,0,0,0,0,0,0,0,0,0,0,0,0,0,0,0,0,0,0,0,0,0,0,0,0,0,0,0,0,0,0,0,0,0,0,0,0,0,0,0,0,0,0,0,0,0,0,0,0,0,0,0,0,0,0,0,0,0,0,0,0,0,0,0,0,0,0,0,0,0,0,0,0,0,0,0,0,0,0,0,0,0,0,0,0,0,0,0,0,0,0,0,0,0,0,0,0,0,0,0,0,0,0,0,0,0,0,0,0,0,
0,0,0,0,0,0,0,0,0,0,0,0,0,0,0,0,0,0,0,0,0,0,0,0,0,0,0,0,0,0,0,0,0,0,0,0,0,0,0,0,0,0,0,0,0,0,0,0,0,0,0,0,0,0,0,0,0,0,0,0,0,0,0,0,0,0,0,0,0,0,0,0,0,0,0,0,0,0,0,0,0,0,0,0,0,0,0,0,0,0,0,0,0,0,0,0,0,0,0,0,0,0,0,0,0,0,0,0,0,0,0,0,0,0,0,0,0,0,0,0,
0,0,0,0,0,0,0,0,0,0,0,0,0,0,0,0,0,0,0,0,0,0,0,0,0,0,0,0,0,0,0,0,0,0,0,0,0,0,0,0,0,0,0,0,0,0,0,0,0,0,0,0,0,0,0,0,0,0,0,0,0,0,0,0,0,0,0,0,0,0,0,0,0,0,0,0,0,0,0,0,0,0,0,0,0,0,0,0,0,0,0,0,0,0,0,0,0,0,0,0,0,0,0,0,0,0,0,0,0,0,0,0,0,0,0,0,0,0,0,0,
0,0,0,0,0,0,0,0,0,0,0,0,0,0,0,0,0,0,0,0,0,0,0,0,0,0,0,0,0,0,0,0,0,0,0,0,0,0,0,0,0,0,0,0,0,0,0,0,0,0,0,0,0,0,0,0,0,0,0,0,0,0,0,0,0,0,0,0,0,0,0,0,0,0,0,0,0,0,0,0,0,0,0,0,0,0,0,0,0,0,0,0,0,0,0,0,0,0,0,0,0,0,0,0,0,0,0,0,0,0,0,0,0,0,0,0,0,0,0,0,
0,0,0,0,0,0,0,0,0,0,0,0,0,0,0,0,0,0,0,0,0,0,0,0,0,0,0,0,0,0,0,0,0,0,0,0,0,0,0,0,0,0,0,0,0,0,0,0,0,0,0,0,0,0,0,0,0,0,0,0,0,0,0,0,0,0,0,0,0,0,0,0,0,0,0,0,0,0,0,0,0,0,0,0,0,0,0,0,0,0,0,0,0,0,0,0,0,0,0,0,0,0,0,0,0,0,0,0,0,0,0,0,0,0,0,0,0,0,0,0,
0,0,0,0,0,0,0,0,0,0,0,0,0,0,0,0,0,0,0,0,0,0,0,0,0,0,0,0,0,0,0,0,0,0,0,0,0,0,0,0,0,0,0,0,0,0,0,0,0,0,0,0,0,0,0,0,0,0,0,0,0,0,0,0,0,0,0,0,0,0,0,0,0,0,0,0,0,0,0,0,0,0,0,0,0,0,0,0,0,0,0,0,0,0,0,0,0,0,0,0,0,0,0,0,0,0,0,0,0,0,0,0,0,0,0,0,0,0,0,0,
0,0,0,0,0,0,0,0,0,0,0,0,0,0,0,0,0,0,0,0,0,0,0,0,0,0,0,0,0,0,0,0,0,0,0,0,0,0,0,0,0,0,0,0,0,0,0,0,0,0,0,0,0,0,0,0,0,0,0,0,0,0,0,0,0,0,0,0,0,0,0,0,0,0,0,0,0,0,0,0,0,0,0,0,0,0,0,0,0,0,0,0,0,0,0,0,0,0,0,0,0,0,0,0,0,0,0,0,0,0,0,0,0,0,0,0,0,0,0,0,
0,0,0,0,0,0,0,0,0,0,0,0,0,0,0,0,0,0,0,0,0,0,0,0,0,0,0,0,0,0,0,0,0,0,0,0,0,0,0,0,0,0,0,0,0,0,0,0,0,0,0,0,0,0,0,0,0,0,0,0,0,0,0,0,0,0,0,0,0,0,0,0,0,0,0,0,0,0,0,0,0,0,0,0,0,0,0,0,0,0,0,0,0,0,0,0,0,0,0,0,0,0,0,0,0,0,0,0,0,0,0,0,0,0,0,0,0,0,0,0,
0,0,0,0,0,0,0,0,0,0,0,0,0,0,0,0,0,0,0,0,0,0,0,0,0,0,0,0,0,0,0,0,0,0,0,0,0,0,0,0,0,0,0,0,0,0,0,0,0,0,0,0,0,0,0,0,0,0,0,0,0,0,0,0,0,0,0,0,0,0,0,0,0,0,0,0,0,0,0,0,0,0,0,0,0,0,0,0,0,0,0,0,0,0,0,0,0,0,0,0,0,0,0,0,0,0,0,0,0,0,0,0,0,0,0,0,0,0,0,0,
0,0,0,0,0,0,0,0,0,0,0,0,0,0,0,0,0,0,0,0,0,0,0,0,0,0,0,0,0,0,0,0,0,0,0,0,0,0,0,0,0,0,0,0,0,0,0,0,0,0,0,0,0,0,0,0,0,0,0,0,0,0,0,0,0,0,0,0,0,0,0,0,0,0,0,0,0,0,0,0,0,0,0,0,0,0,0,0,0,0,0,0,0,0,0,0,0,0,0,0,0,0,0,0,0,0,0,0,0,0,0,0,0,0,0,0,0,0,0,0,
0,0,0,0,0,0,0,0,0,0,0,0,0,0,0,0,0,0,0,0,0,0,0,0,0,0,0,0,0,0,0,0,0,0,0,0,0,0,0,0,0,0,0,0,0,0,0,0,0,0,0,0,0,0,0,0,0,0,0,0,0,0,0,0,0,0,0,0,0,0,0,0,0,0,0,0,0,0,0,0,0,0,0,0,0,0,0,0,0,0,0,0,0,0,0,0,0,0,0,0,0,0,0,0,0,0,0,0,0,0,0,0,0,0,0,0,0,0,0,0,
0,0,0,0,0,0,0,0,0,0,0,0,0,0,0,0,0,0,0,0,0,0,0,0,0,0,0,0,0,0,0,0,0,0,0,0,0,0,0,0,0,0,0,0,0,0,0,0,0,0,0,0,0,0,0,0,0,0,0,0,0,0,0,0,0,0,0,0,0,0,0,0,0,0,0,0,0,0,0,0,0,0,0,0,0,0,0,0,0,0,0,0,0,0,0,0,0,0,0,0,0,0,0,0,0,0,0,0,0,0,0,0,0,0,0,0,0,0,0,0,
0,0,0,0,0,0,0,0,0,0,0,0,0,0,0,0,0,0,0,0,0,0,0,0,0,0,0,0,0,0,0,0,0,0,0,0,0,0,0,0,0,0,0,0,0,0,0,0,0,0,0,0,0,0,0,0,0,0,0,0,0,0,0,0,0,0,0,0,0,0,0,0,0,0,0,0,0,0,0,0,0,0,0,0,0,0,0,0,0,0,0,0,0,0,0,0,0,0,0,0,0,0,0,0,0,0,0,0,0,0,0,0,0,0,0,0,0,0,0,0,
0,0,0,0,0,0,0,0,0,0,0,0,0,0,0,0,0,0,0,0,0,0,0,0,0,0,0,0,0,0,0,0,0,0,0,0,0,0,0,0,0,0,0,0,0,0,0,0,0,0,0,0,0,0,0,0,0,0,0,0,0,0,0,0,0,0,0,0,0,0,0,0,0,0,0,0,0,0,0,0,0,0,0,0,0,0,0,0,0,0,0,0,0,0,0,0,0,0,0,0,0,0,0,0,0,0,0,0,0,0,0,0,0,0,0,0,0,0,0,0,
0,0,0,0,0,0,0,0,0,0,0,0,0,0,0,0,0,0,0,0,0,0,0,0,0,0,0,0,0,0,0,0,0,0,0,0,0,0,0,0,0,0,0,0,0,0,0,0,0,0,0,0,0,0,0,0,0,0,0,0,0,0,0,0,0,0,0,0,0,0,0,0,0,0,0,0,0,0,0,0,0,0,0,0,0,0,0,0,0,0,0,0,0,0,0,0,0,0,0,0,0,0,0,0,0,0,0,0,0,0,0,0,0,0,0,0,0,0,0,0,
0,0,0,0,0,0,0,0,0,0,0,0,0,0,0,0,0,0,0,0,0,0,0,0,0,0,0,0,0,0,0,0,0,0,0,0,0,0,0,0,0,0,0,0,0,0,0,0,0,0,0,0,0,0,0,0,0,0,0,0,0,0,0,0,0,0,0,0,0,0,0,0,0,0,0,0,0,0,0,0,0,0,0,0,0,0,0,0,0,0,0,0,0,0,0,0,0,0,0,0,0,0,0,0,0,0,0,0,0,0,0,0,0,0,0,0,0,0,0,0,
0,0,0,0,0,0,0,0,0,0,0,0,0,0,0,0,0,0,0,0,0,0,0,0,0,0,0,0,0,0,0,0,0,0,0,0,0,0,0,0,0,0,0,0,0,0,0,0,0,0,0,0,0,0,0,0,0,0,0,0,0,0,0,0,0,0,0,0,0,0,0,0,0,0,0,0,0,0,0,0,0,0,0,0,0,0,0,0,0,0,0,0,0,0,0,0,0,0,0,0,0,0,0,0,0,0,0,0,0,0,0,0,0,0,0,0,0,0,0,0,
0,0,0,0,0,0,0,0,0,0,0,0,0,0,0,0,0,0,0,0,0,0,0,0,0,0,0,0,0,0,0,0,0,0,0,0,0,0,0,0,0,0,0,0,0,0,0,0,0,0,0,0,0,0,0,0,0,0,0,0,0,0,0,0,0,0,0,0,0,0,0,0,0,0,0,0,0,0,0,0,0,0,0,0,0,0,0,0,0,0,0,0,0,0,0,0,0,0,0,0,0,0,0,0,0,0,0,0,0,0,0,0,0,0,0,0,0,0,0,0,
0,0,0,0,0,0,0,0,0,0,0,0,0,0,0,0,0,0,0,0,0,0,0,0,0,0,0,0,0,0,0,0,0,0,0,0,0,0,0,0,0,0,0,0,0,0,0,0,0,0,0,0,0,0,0,0,0,0,0,0,0,0,0,0,0,0,0,0,0,0,0,0,0,0,0,0,0,0,0,0,0,0,0,0,0,0,0,0,0,0,0,0,0,0,0,0,0,0,0,0,0,0,0,0,0,0,0,0,0,0,0,0,0,0,0,0,0,0,0,0,
0,0,0,0,0,0,0,0,0,0,0,0,0,0,0,0,0,0,0,0,0,0,0,0,0,0,0,0,0,0,0,0,0,0,0,0,0,0,0,0,0,0,0,0,0,0,0,0,0,0,0,0,0,0,0,0,0,0,0,0,0,0,0,0,0,0,0,0,0,0,0,0,0,0,0,0,0,0,0,0,0,0,0,0,0,0,0,0,0,0,0,0,0,0,0,0,0,0,0,0,0,0,0,0,0,0,0,0,0,0,0,0,0,0,0,0,0,0,0,0,
7360,0,0,0,0,0,0,0,0,0,0,0,0,0,0,0,0,0,0,0,0,0,0,0,0,0,0,0,0,0,0,0,0,0,0,0,0,0,0,0,0,0,0,0,0,0,0,0,0,0,0,0,0,0,0,0,0,0,0,0,0,0,0,0,0,0,0,0,0,0,0,0,0,0,0,0,0,0,0,0,0,0,0,0,0,0,0,0,0,0,0,0,0,0,0,0,0,0,0,0,0,0,0,0,0,0,0,0,0,0,0,0,0,0,0,0,0,0,0,0,
0,0,0,0,0,0,0,0,0,0,0,0,0,0,0,0,0,0,0,0,0,0,0,0,0,0,0,0,0,0,0,0,0,0,0,0,0,0,0,0,0,0,0,0,0,0,0,0,0,0,0,0,0,0,0,0,0,0,0,0,0,0,0,0,0,0,0,0,0,0,0,0,0,0,0,0,0,0,0,0,0,0,0,0,0,0,0,0,0,0,0,0,0,0,0,0,0,0,0,0,0,0,0,0,0,0,0,0,0,0,0,0,0,0,0,0,0,0,0,0,
0,0,0,0,0,0,0,0,0,0,0,0,0,0,0,0,0,0,0,0,0,0,0,0,0,0,0,0,0,0,0,0,0,0,0,0,0,0,0,0,0,0,0,0,0,0,0,0,0,0,0,0,0,0,0,0,0,0,0,0,0,0,0,0,0,0,0,0,0,0,0,0,0,0,0,0,0,0,0,0,0,0,0,0,0,0,0,0,0,0,0,0,0,0,0,0,0,0,0,0,0,0,0,0,0,0,0,0,0,0,0,0,0,0,0,0,0,0,0,0,
0,0,0,0,0,0,0,0,0,0,0,0,0,0,0,0,0,0,0,0,0,0,0,0,0,0,0,0,0,0,0,0,0,0,0,0,0,0,0,0,0,0,0,0,0,0,0,0,0,0,0,0,0,0,0,0,0,0,0,0,0,0,0,0,0,0,0,0,0,0,0,0,0,0,0,0,0,0,0,0,0,0,0,0,0,0,0,0,0,0,0,0,0,0,0,0,0,0,0,0,0,0,0,0,0,0,0,0,0,0,0,0,0,0,0,0,0,0,0,0,
0,0,0,0,0,0,0,0,0,0,0,0,0,0,0,0,0,0,0,0,0,0,0,0,0,0,0,0,0,0,0,0,0,0,0,0,0,0,0,0,0,0,0,0,0,0,0,0,0,0,0,0,0,0,0,0,0,0,0,0,0,0,0,0,0,0,0,0,0,0,0,0,0,0,0,0,0,0,0,0,0,0,0,0,0,0,0,0,0,0,0,0,0,0,0,0,0,0,0,0,0,0,0,0,0,0,0,0,0,0,0,0,0,0,0,0,0,0,0,0,
0,0,0,0,0,0,0,0,0,0,0,0,0,0,0,0,0,0,0,0,0,0,0,0,0,0,0,0,0,0,0,0,0,0,0,0,0,0,0,0,0,0,0,0,0,0,0,0,0,0,0,0,0,0,0,0,0,0,0,0,0,0,0,0,0,0,0,0,0,0,0,0,0,0,0,0,0,0,0,0,0,0,0,0,0,0,0,0,0,0,0,0,0,0,0,0,0,0,0,0,0,0,0,0,0,0,0,0,0,0,0,0,0,0,0,0,0,0,0,0,
0,0,0,0,0,0,0,0,0,0,0,0,0,0,0,0,0,0,0,0,0,0,0,0,0,0,0,0,0,0,0,0,0,0,0,0,0,0,0,0,0,0,0,0,0,0,0,0,0,0,0,0,0,0,0,0,0,0,0,0,0,0,0,0,0,0,0,0,0,0,0,0,0,0,0,0,0,0,0,0,0,0,0,0,0,0,0,0,0,0,0,0,0,0,0,0,0,0,0,0,0,0,0,0,0,0,0,0,0,0,0,0,0,0,0,0,0,0,0,0,
0,0,0,0,0,0,0,0,0,0,0,0,0,0,0,0,0,0,0,0,0,0,0,0,0,0,0,0,0,0,0,0,0,0,0,0,0,0,0,0,0,0,0,0,0,0,0,0,0,0,0,0,0,0,0,0,0,0,0,0,0,0,0,0,0,0,0,0,0,0,0,0,0,0,0,0,0,0,0,0,0,0,0,0,0,0,0,0,0,0,0,0,0,0,0,0,0,0,0,0,0,0,0,0,0,0,0,0,0,0,0,0,0,0,0,0,0,0,0,0,
0,0,0,0,0,0,0,0,0,0,0,0,0,0,0,0,0,0,0,0,0,0,0,0,0,0,0,0,0,0,0,0,0,0,0,0,0,0,0,0,0,0,0,0,0,0,0,0,0,0,0,0,0,0,0,0,0,0,0,0,0,0,0,0,0,0,0,0,0,0,0,0,0,0,0,0,0,0,0,0,0,0,0,0,0,0,0,0,0,0,0,0,0,0,0,0,0,0,0,0,0,0,0,0,0,0,0,0,0,0,0,0,0,0,0,0,0,0,0,0,
0,0,0,0,0,0,0,0,0,0,0,0,0,0,0,0,0,0,0,0,0,0,0,0,0,0,0,0,0,0,0,0,0,0,0,0,0,0,0,0,0,0,0,0,0,0,0,0,0,0,0,0,0,0,0,0,0,0,0,0,0,0,0,0,0,0,0,0,0,0,0,0,0,0,0,0,0,0,0,0,0,0,0,0,0,0,0,0,0,0,0,0,0,0,0,0,0,0,0,0,0,0,0,0,0,0,0,0,0,0,0,0,0,0,0,0,0,0,0,0,
0,0,0,0,0,0,0,0,0,0,0,0,0,0,0,0,0,0,0,0,0,0,0,0,0,0,0,0,0,0,0,0,0,0,0,0,0,0,0,0,0,0,0,0,0,0,0,0,0,0,0,0,0,0,0,0,0,0,0,0,0,0,0,0,0,0,0,0,0,0,0,0,0,0,0,0,0,0,0,0,0,0,0,0,0,0,0,0,0,0,0,0,0,0,0,0,0,0,0,0,0,0,0,0,0,0,0,0,0,0,0,0,0,0,0,0,0,0,0,0,
0,0,0,0,0,0,0,0,0,0,0,0,0,0,0,0,0,0,0,0,0,0,0,0,0,0,0,0,0,0,0,0,0,0,0,0,0,0,0,0,0,0,0,0,0,0,0,0,0,0,0,0,0,0,0,0,0,0,0,0,0,0,0,0,0,0,0,0,0,0,0,0,0,0,0,0,0,0,0,0,0,0,0,0,0,0,0,0,0,0,0,0,0,0,0,0,0,0,0,0,0,0,0,0,0,0,0,0,0,0,0,0,0,0,0,0,0,0,0,0,
0,0,0,0,0,0,0,0,0,0,0,0,0,0,0,0,0,0,0,0,0,0,0,0,0,0,0,0,0,0,0,0,0,0,0,0,0,0,0,0,0,0,0,0,0,0,0,0,0,0,0,0,0,0,0,0,0,0,0,0,0,0,0,0,0,0,0,0,0,0,0,0,0,0,0,0,0,0,0,0,0,0,0,0,0,0,0,0,0,0,0,0,0,0,0,0,0,0,0,0,0,0,0,0,0,0,0,0,0,0,0,0,0,0,0,0,0,0,0,0,
0,0,0,0,0,0,0,0,0,0,0,0,0,0,0,0,0,0,0,0,0,0,0,0,0,0,0,0,0,0,0,0,0,0,0,0,0,0,0,0,0,0,0,0,0,0,0,0,0,0,0,0,0,0,0,0,0,0,0,0,0,0,0,0,0,0,0,0,0,0,0,0,0,0,0,0,0,0,0,0,0,0,0,0,0,0,0,0,0,0,0,0,0,0,0,0,0,0,0,0,0,0,0,0,0,0,0,0,0,0,0,0,0,0,0,0,0,0,0,0,
0,0,0,0,0,0,0,0,0,0,0,0,0,0,0,0,0,0,0,0,0,0,0,0,0,0,0,0,0,0,0,0,0,0,0,0,0,0,0,0,0,0,0,0,0,0,0,0,0,0,0,0,0,0,0,0,0,0,0,0,0,0,0,0,0,0,0,0,0,0,0,0,0,0,0,0,0,0,0,0,0,0,0,0,0,0,0,0,0,0,0,0,0,0,0,0,0,0,0,0,0,0,0,0,0,0,0,0,0,0,0,0,0,0,0,0,0,0,0,0,
0,0,0,0,0,0,0,0,0,0,0,0,0,0,0,0,0,0,0,0,0,0,0,0,0,0,0,0,0,0,0,0,0,0,0,0,0,0,0,0,0,0,0,0,0,0,0,0,0,0,0,0,0,0,0,0,0,0,0,0,0,0,0,0,0,0,0,0,0,0,0,0,0,0,0,0,0,0,0,0,0,0,0,0,0,0,0,0,0,0,0,0,0,0,0,0,0,0,0,0,0,0,0,0,0,0,0,0,0,0,0,0,0,0,0,0,0,0,0,0,
0,0,0,0,0,0,0,0,0,0,0,0,0,0,0,0,0,0,0,0,0,0,0,0,0,0,0,0,0,0,0,0,0,0,0,0,0,0,0,0,0,0,0,0,0,0,0,0,0,0,0,0,0,0,0,0,0,0,0,0,0,0,0,0,0,0,0,0,0,0,0,0,0,0,0,0,0,0,0,0,0,0,0,0,0,0,0,0,0,0,0,0,0,0,0,0,0,0,0,0,0,0,0,0,0,0,0,0,0,0,0,0,0,0,0,0,0,0,0,0,
0,0,0,0,0,0,0,0,0,0,0,0,0,0,0,0,0,0,0,0,0,0,0,0,0,0,0,0,0,0,0,0,0,0,0,0,0,0,0,0,0,0,0,0,0,0,0,0,0,0,0,0,0,0,0,0,0,0,0,0,0,0,0,0,0,0,0,0,0,0,0,0,0,0,0,0,0,0,0,0,0,0,0,0,0,0,0,0,0,0,0,0,0,0,0,0,0,0,0,0,0,0,0,0,0,0,0,0,0,0,0,0,0,0,0,0,0,0,0,0,
0,0,0,0,0,0,0,0,0,0,0,0,0,0,0,0,0,0,0,0,0,0,0,0,0,0,0,0,0,0,0,0,0,0,0,0,0,0,0,0,0,0,0,0,0,0,0,0,0,0,0,0,0,0,0,0,0,0,0,0,0,0,0,0,0,0,0,0,0,0,0,0,0,0,0,0,0,0,0,0,0,0,0,0,0,0,0,0,0,0,0,0,0,0,0,0,0,0,0,0,0,0,0,0,0,0,0,0,0,0,0,0,0,0,0,0,0,0,0,0,
0,0,0,0,0,0,0,0,0,0,0,0,0,0,0,0,0,0,0,0,0,0,0,0,0,0,0,0,0,0,0,0,0,0,0,0,0,0,0,0,0,0,0,0,0,0,0,0,0,0,0,0,0,0,0,0,0,0,0,0,0,0,0,0,0,0,0,0,0,0,0,0,0,0,0,0,0,0,0,0,0,0,0,0,0,0,0,0,0,0,0,0,0,0,0,0,0,0,0,0,0,0,0,0,0,0,0,0,0,0,0,0,0,0,0,0,0,0,0,0,
0,0,0,0,0,0,0,0,0,0,0,0,0,0,0,0,0,0,0,0,0,0,0,0,0,0,0,0,0,0,0,0,0,0,0,0,0,0,0,0,0,0,0,0,0,0,0,0,0,0,0,0,0,0,0,0,0,0,0,0,0,0,0,0,0,0,0,0,0,0,0,0,0,0,0,0,0,0,0,0,0,0,0,0,0,0,0,0,0,0,0,0,0,0,0,0,0,0,0,0,0,0,0,0,0,0,0,0,0,0,0,0,0,0,0,0,0,0,0,0,
0,0,0,0,0,0,0,0,0,0,0,0,0,0,0,0,0,0,0,0,0,0,0,0,0,0,0,0,0,0,0,0,0,0,0,0,0,0,0,0,0,0,0,0,0,0,0,0,0,0,0,0,0,0,0,0,0,0,0,0,0,0,0,0,0,0,0,0,0,0,0,0,0,0,0,0,0,0,0,0,0,0,0,0,0,0,0,0,0,0,0,0,0,0,0,0,0,0,0,0,0,0,0,0,0,0,0,0,0,0,0,0,0,0,0,0,0,0,0,0,
0,0,0,0,0,0,0,0,0,0,0,0,0,0,0,0,0,0,0,0,0,0,0,0,0,0,0,0,0,0,0,0,0,0,0,0,0,0,0,0,0,0,0,0,0,0,0,0,0,0,0,0,0,0,0,0,0,0,0,0,0,0,0,0,0,0,0,0,0,0,0,0,0,0,0,0,0,0,0,0,0,0,0,0,0,0,0,0,0,0,0,0,0,0,0,0,0,0,0,0,0,0,0,0,0,0,0,0,0,0,0,0,0,0,0,0,0,0,0,0,
0,0,0,0,0,0,0,0,0,0,0,0,0,0,0,0,0,0,0,0,0,0,0,0,0,0,0,0,0,0,0,0,0,0,0,0,0,0,0,0,0,0,0,0,0,0,0,0,0,0,0,0,0,0,0,0,0,0,0,0,0,0,0,0,0,0,0,0,0,0,0,0,0,0,0,0,0,0,0,0,0,0,0,0,0,0,0,0,0,0,0,0,0,0,0,0,0,0,0,0,0,0,0,0,0,0,0,0,0,0,0,0,0,0,0,0,0,0,0,0,
0,0,0,0,0,0,0,0,0,0,0,0,0,0,0,0,0,0,0,0,0,0,0,0,0,0,0,0,0,0,0,0,0,0,0,0,0,0,0,0,0,0,0,0,0,0,0,0,0,0,0,0,0,0,0,0,0,0,0,0,0,0,0,0,0,0,0,0,0,0,0,0,0,0,0,0,0,0,0,0,0,0,0,0,0,0,0,0,0,0,0,0,0,0,0,0,0,0,0,0,0,0,0,0,0,0,0,0,0,0,0,0,0,0,0,0,0,0,0,0,
0,0,0,0,0,0,0,0,0,0,0,0,0,0,0,0,0,0,0,0,0,0,0,0,0,0,0,0,0,0,0,0,0,0,0,0,0,0,0,0,0,0,0,0,0,0,0,0,0,0,0,0,0,0,0,0,0,0,0,0,0,0,0,0,0,0,0,0,0,0,0,0,0,0,0,0,0,0,0,0,0,0,0,0,0,0,0,0,0,0,0,0,0,0,0,0,0,0,0,0,0,0,0,0,0,0,0,0,0,0,0,0,0,0,0,0,0,0,0,0,
0,0,0,0,0,0,0,0,0,0,0,0,0,0,0,0,0,0,0,0,0,0,0,0,0,0,0,0,0,0,0,0,0,0,0,0,0,0,0,0,0,0,0,0,0,0,0,0,0,0,0,0,0,0,0,0,0,0,0,0,0,0,0,0,0,0,0,0,0,0,0,0,0,0,0,0,0,0,0,0,0,0,0,0,0,0,0,0,0,0,0,0,0,0,0,0,0,0,0,0,0,0,0,0,0,0,0,0,0,0,0,0,0,0,0,0,0,0,0,0,
0,0,0,0,0,0,0,0,0,0,0,0,0,0,0,0,0,0,0,0,0,0,0,0,0,0,0,0,0,0,0,0,0,0,0,0,0,0,0,0,0,0,0,0,0,0,0,0,0,0,0,0,0,0,0,0,0,0,0,0,0,0,0,0,0,0,0,0,0,0,0,0,0,0,0,0,0,0,0,0,0,0,0,0,0,0,0,0,0,0,0,0,0,0,0,0,0,0,0,0,0,0,0,0,0,0,0,0,0,0,0,0,0,0,0,0,0,0,0,0,
0,0,0,0,0,0,0,0,0,0,0,0,0,0,0,0,0,0,0,0,0,0,0,0,0,0,0,0,0,0,0,0,0,0,0,0,0,0,0,0,0,0,0,0,0,0,0,0,0,0,0,0,0,0,0,0,0,0,0,0,0,0,0,0,0,0,0,0,0,0,0,0,0,0,0,0,0,0,0,0,0,0,0,0,0,0,0,0,0,0,0,0,0,0,0,0,0,0,0,0,0,0,0,0,0,0,0,0,0,0,0,0,0,0,0,0,0,0,0,0,
0,0,0,0,0,0,0,0,0,0,0,0,0,0,0,0,0,0,0,0,0,0,0,0,0,0,0,0,0,0,0,0,0,0,0,0,0,0,0,0,0,0,0,0,0,0,0,0,0,0,0,0,0,0,0,0,0,0,0,0,0,0,0,0,0,0,0,0,0,0,0,0,0,0,0,0,0,0,0,0,0,0,0,0,0,0,0,0,0,0,0,0,0,0,0,0,0,0,0,0,0,0,0,0,0,0,0,0,0,0,0,0,0,0,0,0,0,0,0,0,
0,0,0,0,0,0,0,0,0,0,0,0,0,0,0,0,0,0,0,0,0,0,0,0,0,0,0,0,0,0,0,0,0,0,0,0,0,0,0,0,0,0,0,0,0,0,0,0,0,0,0,0,0,0,0,0,0,0,0,0,0,0,0,0,0,0,0,0,0,0,0,0,0,0,0,0,0,0,0,0,0,0,0,0,0,0,0,0,0,0,0,0,0,0,0,0,0,0,0,0,0,0,0,0,0,0,0,0,0,0,0,0,0,0,0,0,0,0,0,0,
0,0,0,0,0,0,0,0,0,0,0,0,0,0,0,0,0,0,0,0,0,0,0,0,0,0,0,0,0,0,0,0,0,0,0,0,0,0,0,0,0,0,0,0,0,0,0,0,0,0,0,0,0,0,0,0,0,0,0,0,0,0,0,0,0,0,0,0,0,0,0,0,0,0,0,0,0,0,0,0,0,0,0,0,0,0,0,0,0,0,0,0,0,0,0,0,0,0,0,0,0,0,0,0,0,0,0,0,0,0,0,0,0,0,0,0,0,0,0,0,
0,0,0,0,0,0,0,0,0,0,0,0,0,0,0,0,0,0,0,0,0,0,0,0,0,0,0,0,0,0,0,0,0,0,0,0,0,0,0,0,0,0,0,0,0,0,0,0,0,0,0,0,0,0,0,0,0,0,0,0,0,0,0,0,0,0,0,0,0,0,0,0,0,0,0,0,0,0,0,0,0,0,0,0,0,0,0,0,0,0,0,0,0,0,0,0,0,0,0,0,0,0,0,0,0,0,0,0,0,0,0,0,0,0,0,0,0,0,0,0,
0,0,0,0,0,0,0,0,0,0,0,0,0,0,0,0,0,0,0,0,0,0,0,0,0,0,0,0,0,0,0,0,0,0,0,0,0,0,0,0,0,0,0,0,0,0,0,0,0,0,0,0,0,0,0,0,0,0,0,0,0,0,0,0,0,0,0,0,0,0,0,0,0,0,0,0,0,0,0,0,0,0,0,0,0,0,0,0,0,0,0,0,0,0,0,0,0,0,0,0,0,0,0,0,0,0,0,0,0,0,0,0,0,0,0,0,0,0,0,0,
0,0,0,0,0,0,0,0,0,0,0,0,0,0,0,0,0,0,0,0,0,0,0,0,0,0,0,0,0,0,0,0,0,0,0,0,0,0,0,0,0,0,0,0,0,0,0,0,0,0,0,0,0,0,0,0,0,0,0,0,0,0,0,0,0,0,0,0,0,0,0,0,0,0,0,0,0,0,0,0,0,0,0,0,0,0,0,0,0,0,0,0,0,0,0,0,0,0,0,0,0,0,0,0,0,0,0,0,0,0,0,0,0,0,0,0,0,0,0,0,
0,0,0,0,0,0,0,0,0,0,0,0,0,0,0,0,0,0,0,0,0,0,0,0,0,0,0,0,0,0,0,0,0,0,0,0,0,0,0,0,0,0,0,0,0,0,0,0,0,0,0,0,0,0,0,0,0,0,0,0,0,0,0,0,0,0,0,0,0,0,0,0,0,0,0,0,0,0,0,0,0,0,0,0,0,0,0,0,0,0,0,0,0,0,0,0,0,0,0,0,0,0,0,0,0,0,0,0,0,0,0,0,0,0,0,0,0,0,0,0,
0,0,0,0,0,0,0,0,0,0,0,0,0,0,0,0,0,0,0,0,0,0,0,0,0,0,0,0,0,0,0,0,0,0,0,0,0,0,0,0,0,0,0,0,0,0,0,0,0,0,0,0,0,0,0,0,0,0,0,0,0,0,0,0,0,0,0,0,0,0,0,0,0,0,0,0,0,0,0,0,0,0,0,0,0,0,0,0,0,0,0,0,0,0,0,0,0,0,0,0,0,0,0,0,0,0,0,0,0,0,0,0,0,0,0,0,0,0,0,0,
0,0,0,0,0,0,0,0,0,0,0,0,0,0,0,0,0,0,0,0,0,0,0,0,0,0,0,0,0,0,0,0,0,0,0,0,0,0,0,0,0,0,0,0,0,0,0,0,0,0,0,0,0,0,0,0,0,0,0,0,0,0,0,0,0,0,0,0,0,0,0,0,0,0,0,0,0,0,0,0,0,0,0,0,0,0,0,0,0,0,0,0,0,0,0,0,0,0,0,0,0,0,0,0,0,0,0,0,0,0,0,0,0,0,0,0,0,0,0,0,
0,0,0,0,0,0,0,0,0,0,0,0,0,0,0,0,0,0,0,0,0,0,0,0,0,0,0,0,0,0,0,0,0,0,0,0,0,0,0,0,0,0,0,0,0,0,0,0,0,0,0,0,0,0,0,0,0,0,0,0,0,0,0,0,0,0,0,0,0,0,0,0,0,0,0,0,0,0,0,0,0,0,0,0,0,0,0,0,0,0,0,0,0,0,0,0,0,0,0,0,0,0,0,0,0,0,0,0,0,0,0,0,0,0,0,0,0,0,0,0,
0,0,0,0,0,0,0,0,0,0,0,0,0,0,0,0,0,0,0,0,0,0,0,0,0,0,0,0,0,0,0,0,0,0,0,0,0,0,0,0,0,0,0,0,0,0,0,0,0,0,0,0,0,0,0,0,0,0,0,0,0,0,0,0,0,0,0,0,0,0,0,0,0,0,0,0,0,0,0,0,0,0,0,0,0,0,0,0,0,0,0,0,0,0,0,0,0,0,0,0,0,0,0,0,0,0,0,0,0,0,0,0,0,0,0,0,0,0,0,0,
0,0,0,0,0,0,0,0,0,0,0,0,0,0,0,0,0,0,0,0,0,0,0,0,0,0,0,0,0,0,0,0,0,0,0,0,0,0,0,0,0,0,0,0,0,0,0,0,0,0,0,0,0,0,0,0,0,0,0,0,0,0,0,0,0,0,0,0,0,0,0,0,0,0,0,0,0,0,0,0,0,0,0,0,0,0,0,0,0,0,0,0,0,0,0,0,0,0,0,0,0,0,0,0,0,0,0,0,0,0,0,0,0,0,0,0,0,0,0,0,
0,0,0,0,0,0,0,0,0,0,0,0,0,0,0,0,0,0,0,0,0,0,0,0,0,0,0,0,0,0,0,0,0,0,0,0,0,0,0,0,0,0,0,0,6861,0,0,0,0,0,0,0,0,0,0,0,0,0,0,0,0,0,0,0,0,0,0,0,0,0,0,0,0,0,0,0,0,0,0,0,0,0,0,0,0,0,0,0,0,0,0,0,0,0,0,0,0,0,0,0,0,0,0,0,0,0,0,0,0,0,0,0,0,0,0,0,0,0,0,0,
0,0,0,0,0,0,0,0,0,0,0,0,0,0,0,0,0,0,0,0,0,0,0,0,0,0,0,0,0,0,0,0,0,0,0,0,0,0,0,0,0,0,0,0,6886,0,0,0,0,0,0,0,0,0,0,0,0,0,0,0,0,0,0,0,0,0,0,0,0,0,0,0,0,0,0,0,0,0,0,0,0,0,0,0,0,0,0,0,0,0,0,0,0,0,0,0,0,0,0,0,0,0,0,0,0,0,0,0,0,0,0,0,0,0,0,0,0,0,0,0,
0,0,0,0,0,0,0,0,0,0,0,0,0,0,0,0,0,0,0,0,0,0,0,0,0,0,0,0,0,0,0,0,0,0,0,0,0,0,0,0,0,0,0,0,6911,0,0,0,0,0,0,0,0,0,0,0,0,0,0,0,0,0,0,0,0,0,0,0,0,0,0,0,0,0,0,0,0,0,0,0,0,0,0,0,0,0,0,0,0,0,0,0,0,0,0,0,0,0,0,0,0,0,0,0,0,0,0,0,0,0,0,0,0,0,0,0,0,0,0,0,
0,0,0,0,0,0,0,0,0,0,0,0,0,0,0,0,0,0,0,0,0,0,0,0,0,0,0,0,0,0,0,0,0,0,0,0,0,0,0,0,0,0,0,0,0,0,0,0,0,0,0,0,0,0,0,0,0,0,0,0,0,0,0,0,0,0,0,0,0,0,0,0,0,0,0,0,0,0,0,0,0,0,0,0,0,0,0,0,0,0,0,0,0,0,0,0,0,0,0,0,0,0,0,0,0,0,0,0,0,0,0,0,0,0,0,0,0,0,0,0,
0,0,0,0,0,0,0,0,0,0,0,0,0,0,0,0,0,0,0,0,0,0,0,0,0,0,0,0,0,0,0,0,0,0,0,0,0,0,0,0,0,0,0,0,0,0,0,0,0,0,0,0,0,0,0,0,0,0,0,0,0,0,0,0,0,0,0,0,0,0,0,0,0,0,0,0,0,0,0,0,0,0,0,0,0,0,0,0,0,0,0,0,0,0,0,0,0,0,0,0,0,0,0,0,0,0,0,0,0,0,0,0,0,0,0,0,0,0,0,0,
0,0,0,0,0,0,0,0,0,0,0,0,0,0,0,0,0,0,0,0,0,0,0,0,0,0,0,0,0,0,0,0,0,0,0,0,0,0,0,0,0,0,0,0,0,0,0,0,0,0,0,0,0,0,0,0,0,0,0,0,0,0,0,0,0,0,0,0,0,0,0,0,0,0,0,0,0,0,0,0,0,0,0,0,0,0,0,0,0,0,0,0,0,0,0,0,0,0,0,0,0,0,0,0,0,0,0,0,0,0,0,0,0,0,0,0,0,0,0,0,
0,0,0,0,0,0,0,0,0,0,0,0,0,0,0,0,0,0,0,0,0,0,0,0,0,0,0,0,0,0,0,0,0,0,0,0,0,0,0,0,0,0,0,0,0,0,0,0,0,0,0,0,0,0,0,0,0,0,0,0,0,0,0,0,0,0,0,0,0,0,0,0,0,0,0,0,0,0,0,0,0,0,0,0,0,0,0,0,0,0,0,0,0,0,0,0,0,0,0,0,0,0,0,0,0,0,0,0,0,0,0,0,0,0,0,0,0,0,0,0,
0,0,0,0,0,0,0,0,0,0,0,0,0,0,0,0,0,0,0,0,0,0,0,0,0,0,0,0,0,0,0,0,0,0,0,0,0,0,0,0,0,0,0,0,0,0,0,0,0,0,0,0,0,0,0,0,0,0,0,0,0,0,0,0,0,0,0,0,0,0,0,0,0,0,0,0,0,0,0,0,0,0,0,0,0,0,0,0,0,0,0,0,0,0,0,0,0,0,0,0,0,0,0,0,0,0,0,0,0,0,0,0,0,0,0,0,0,0,0,0,
0,0,0,0,0,0,0,0,0,0,0,0,0,0,0,0,0,0,0,0,0,0,0,0,0,0,0,0,0,0,0,0,0,0,0,0,0,0,0,0,0,0,0,0,0,0,0,0,0,0,0,0,0,0,0,0,0,0,0,0,0,0,0,0,0,0,0,0,0,0,0,0,0,0,0,0,0,0,0,0,0,0,0,0,0,0,0,0,0,0,0,0,0,0,0,0,0,0,0,0,0,0,0,0,0,0,0,0,0,0,0,0,0,0,0,0,0,0,0,0,
0,0,0,0,0,0,0,0,0,0,0,0,0,0,0,0,0,0,0,0,0,0,0,0,0,0,0,0,0,0,0,0,0,0,0,0,0,0,0,0,0,0,0,0,0,0,0,0,0,0,0,0,0,0,0,0,0,0,0,0,0,0,0,0,0,0,0,0,0,0,0,0,0,0,0,0,0,0,0,0,0,0,0,0,0,0,0,0,0,0,0,0,0,0,0,0,0,0,0,0,0,0,0,0,0,0,0,0,0,0,0,0,0,0,0,0,0,0,0,0,
0,0,0,0,0,0,0,0,0,0,0,0,0,0,0,0,0,0,0,0,0,0,0,0,0,0,0,0,0,0,0,0,0,0,0,0,0,0,0,0,0,0,0,0,0,0,0,0,0,0,0,0,0,0,0,0,0,0,0,0,0,0,0,0,0,0,0,0,0,0,0,0,0,0,0,0,0,0,0,0,0,0,0,0,0,0,0,0,0,0,0,0,0,0,0,0,0,0,0,0,0,0,0,0,0,0,0,0,0,0,0,0,0,0,0,0,0,0,0,0,
0,0,0,0,0,0,0,0,0,0,0,0,0,0,0,0,0,0,0,0,0,0,0,0,0,0,0,0,0,0,0,0,0,0,0,0,0,0,0,0,0,0,0,0,0,0,0,0,0,0,0,0,0,0,0,0,0,0,0,0,0,0,0,0,0,0,0,0,0,0,0,0,0,0,0,0,0,0,0,0,0,0,0,0,0,0,0,0,0,0,0,0,0,0,0,0,0,0,0,0,0,0,0,0,0,0,0,0,0,0,0,0,0,0,0,0,0,0,0,0,
0,0,0,0,0,0,0,0,0,0,0,0,0,0,0,0,0,0,0,0,0,0,0,0,0,0,0,0,0,0,0,0,0,0,0,0,0,0,0,0,0,0,0,0,0,0,0,0,0,0,0,0,0,0,0,0,0,0,0,0,0,0,0,0,0,0,0,0,0,0,0,0,0,0,0,0,0,0,0,0,0,0,0,0,0,0,0,0,0,0,0,0,0,0,0,0,0,0,0,0,0,0,0,0,0,0,0,0,0,0,0,0,0,0,0,0,0,0,0,0,
0,0,0,0,0,0,0,0,0,0,0,0,0,0,0,0,0,0,0,0,0,0,0,0,0,0,0,0,0,0,0,0,0,0,0,0,0,0,0,0,0,0,0,0,0,0,0,0,0,0,0,0,0,0,0,0,0,0,0,0,0,0,0,0,0,0,0,0,0,0,0,0,0,0,0,0,0,0,0,0,0,0,0,0,0,0,0,0,0,0,0,0,0,0,0,0,0,0,0,0,0,0,0,0,0,0,0,0,0,0,0,0,0,0,0,0,0,0,0,0,
0,0,0,0,0,0,0,0,0,0,0,0,0,0,0,0,0,0,0,0,0,0,0,0,0,0,0,0,0,0,0,0,0,0,0,0,0,0,0,0,0,0,0,0,0,0,0,0,0,0,0,0,0,0,0,0,0,0,0,0,0,0,0,0,0,0,0,0,0,0,0,0,0,0,0,0,0,0,0,0,0,0,0,0,0,0,0,0,0,0,0,0,0,0,0,0,0,0,0,0,0,0,0,0,0,0,0,0,0,0,0,0,0,0,0,0,0,0,0,0,
0,0,0,0,0,0,0,0,0,0,0,0,0,0,0,0,0,0,0,0,0,0,0,0,0,0,0,0,0,0,0,0,0,0,0,0,0,0,0,0,0,0,0,0,0,0,0,0,0,0,0,0,0,0,0,0,0,0,0,0,0,0,0,0,0,0,0,0,0,0,0,0,0,0,0,0,0,0,0,0,0,0,0,0,0,0,0,0,0,0,0,0,0,0,0,0,0,0,0,0,0,0,0,0,0,0,0,0,0,0,0,0,0,0,0,0,0,0,0,0,
0,0,0,0,0,0,0,0,0,0,0,0,0,0,0,0,0,0,0,0,0,0,0,0,0,0,0,0,0,0,0,0,0,0,0,0,0,0,0,0,0,0,0,0,0,0,0,0,0,0,0,0,0,0,0,0,0,0,0,0,0,0,0,0,0,0,0,0,0,0,0,0,0,0,0,0,0,0,0,0,0,0,0,0,0,0,0,0,0,0,0,0,0,0,0,0,0,0,0,0,0,0,0,0,0,0,0,0,0,0,0,0,0,0,0,0,0,0,0,0,
0,0,0,0,0,0,0,0,0,0,0,0,0,0,0,0,0,0,0,0,0,0,0,0,0,0,0,0,0,0,0,0,0,0,0,0,0,0,0,0,0,0,0,0,0,0,0,0,0,0,0,0,0,0,0,0,0,0,0,0,0,0,0,0,0,0,0,0,0,0,0,0,0,0,0,0,0,0,0,0,0,0,0,0,0,0,0,0,0,0,0,0,0,0,0,0,0,0,0,0,0,0,0,0,0,0,0,0,0,0,0,0,0,0,0,0,0,0,0,0,
0,0,0,0,0,0,0,0,0,0,0,0,0,0,0,0,0,0,0,0,0,0,0,0,0,0,0,0,0,0,0,0,0,0,0,0,0,0,0,0,0,0,0,0,0,0,0,0,0,0,0,0,0,0,0,0,0,0,0,0,0,0,0,0,0,0,0,0,0,0,0,0,0,0,0,0,0,0,0,0,0,0,0,0,0,0,0,0,0,0,0,0,0,0,0,0,0,0,0,0,0,0,0,0,0,0,0,0,0,0,0,0,0,0,0,0,0,0,0,0,
0,0,0,0,0,0,0,0,0,0,0,0,0,0,0,0,0,0,0,0,0,0,0,0,0,0,0,0,0,0,0,0,0,0,0,0,0,0,0,0,0,0,0,0,0,0,0,0,0,0,0,0,0,0,0,0,0,0,0,0,0,0,0,0,0,0,0,0,0,0,0,0,0,0,0,0,0,0,0,0,0,0,0,0,0,0,0,0,0,0,0,0,0,0,0,0,0,0,0,0,0,0,0,0,0,0,0,0,0,0,0,0,0,0,0,0,0,0,0,0,
0,0,0,0,0,0,0,0,0,0,0,0,0,0,0,0,0,0,0,0,0,0,0,0,0,0,0,0,0,0,0,0,0,0,0,0,0,0,0,0,0,0,0,0,0,0,0,0,0,0,0,0,0,0,0,0,0,0,0,0,0,0,0,0,0,0,0,0,0,0,0,0,0,0,0,0,0,0,0,0,0,0,0,0,0,0,0,0,0,0,0,0,0,0,0,0,0,0,0,0,0,0,0,0,0,0,0,0,0,0,0,0,0,0,0,0,0,0,0,0,
0,0,0,0,0,0,0,0,0,0,0,0,0,0,0,0,0,0,0,0,0,0,0,0,0,0,0,0,0,0,0,0,0,0,0,0,0,0,0,0,0,0,0,0,0,0,0,0,0,0,0,0,0,0,0,0,0,0,0,0,0,0,0,0,0,0,0,0,0,0,0,0,0,0,0,0,0,0,0,0,0,0,0,0,0,0,0,0,0,0,0,0,0,0,0,0,0,0,0,0,0,0,0,0,0,0,0,0,0,0,0,0,0,0,0,0,0,0,0,0,
0,0,0,0,0,0,0,0,0,0,0,0,0,0,0,0,0,0,0,0,0,0,0,0,0,0,0,0,0,0,0,0,0,0,0,0,0,0,0,0,0,0,0,0,0,0,0,0,0,0,0,0,0,0,0,0,0,0,0,0,0,0,0,0,0,0,0,0,0,0,0,0,0,0,0,0,0,0,0,0,0,0,0,0,0,0,0,0,0,0,0,0,0,0,0,0,0,0,0,0,0,0,0,0,0,0,0,0,0,0,0,0,0,0,0,0,0,0,0,0,
0,0,0,0,0,0,0,0,0,0,0,0,0,0,0,0,0,0,0,0,0,0,0,0,0,0,0,0,0,0,0,0,0,0,0,0,0,0,0,0,0,0,0,0,0,0,0,0,0,0,0,0,0,0,0,0,0,0,0,0,0,0,0,0,0,0,0,0,0,0,0,0,0,0,0,0,0,0,0,0,0,0,0,0,0,0,0,0,0,0,0,0,0,0,0,0,0,0,0,0,0,0,0,0,0,0,0,0,0,0,0,0,0,0,0,0,0,0,0,0,
0,0,0,0,0,0,0,0,0,0,0,0,0,0,0,0,0,0,0,0,0,0,0,0,0,0,0,0,0,0,0,0,0,0,0,0,0,0,0,0,0,0,0,0,0,0,0,0,0,0,0,0,0,0,0,0,0,0,0,0,0,0,0,0,0,0,0,0,0,0,0,0,0,0,0,0,0,0,0,0,0,0,0,0,0,0,0,0,0,0,0,0,0,0,0,0,0,0,0,0,0,0,0,0,0,0,0,0,0,0,0,0,0,0,0,0,0,0,0,0,
0,0,0,0,0,0,0,0,0,0,0,0,0,0,0,0,0,0,0,0,0,0,0,0,0,0,0,0,0,0,0,0,0,0,0,0,0,0,0,0,0,0,0,0,0,0,0,0,0,0,0,0,0,0,0,0,0,0,0,0,0,0,0,0,0,0,0,0,0,0,0,0,0,0,0,0,0,0,0,0,0,0,0,0,0,0,0,0,0,0,0,0,0,0,0,0,0,0,0,0,0,0,0,0,0,0,0,0,0,0,0,0,0,0,0,0,0,0,0,0,
0,0,0,0,0,0,0,0,0,0,0,0,0,0,0,0,0,0,0,0,0,0,0,0,0,0,0,0,0,0,0,0,0,0,0,0,0,0,0,0,0,0,0,0,0,0,0,0,0,0,0,0,0,0,0,0,0,0,0,0,0,0,0,0,0,0,0,0,0,0,0,0,0,0,0,0,0,0,0,0,0,0,0,0,0,0,0,0,0,0,0,0,0,0,0,0,0,0,0,0,0,0,0,0,0,0,0,0,0,0,0,0,0,0,0,0,0,0,0,0,
0,0,0,0,0,0,0,0,0,0,0,0,0,0,0,0,0,0,0,0,0,0,0,0,0,0,0,0,0,0,0,0,0,0,0,0,0,0,0,0,0,0,0,0,0,0,0,0,0,0,0,0,0,0,0,0,0,0,0,0,0,0,0,0,0,0,0,0,0,0,0,0,0,0,0,0,0,0,0,0,0,0,0,0,0,0,0,0,0,0,0,0,0,0,0,0,0,0,0,0,0,0,0,0,0,0,0,0,0,0,0,0,0,0,0,0,0,0,0,0,
0,0,0,0,0,0,0,0,0,0,0,0,0,0,0,0,0,0,0,0,0,0,0,0,0,0,0,0,0,0,0,0,0,0,0,0,0,0,0,0,0,0,0,0,0,0,0,0,0,0,0,0,0,0,0,0,0,0,0,0,0,0,0,0,0,0,0,0,0,0,0,0,0,0,0,0,0,0,0,0,0,0,0,0,0,0,0,0,0,0,0,0,0,0,0,0,0,0,0,0,0,0,0,0,0,0,0,0,0,0,0,0,0,0,0,0,0,0,0,0,
0,0,0,0,0,0,0,0,0,0,0,0,0,0,0,0,0,0,0,0,0,0,0,0,0,0,0,0,0,0,0,0,0,0,0,0,0,0,0,0,0,0,0,0,0,0,0,0,0,0,0,0,0,0,0,0,0,0,0,0,0,0,0,0,0,0,0,0,0,0,0,0,0,0,0,0,0,0,0,0,0,0,0,0,0,0,0,0,0,0,0,0,0,0,0,0,0,0,0,0,0,0,0,0,0,0,0,0,0,0,0,0,0,0,0,0,0,0,0,0,
0,0,0,0,0,0,0,0,0,0,0,0,0,0,0,0,0,0,0,0,0,0,0,0,0,0,0,0,0,0,0,0,0,0,0,0,0,0,0,0,0,0,0,0,0,0,0,0,0,0,0,0,0,0,0,0,0,0,0,0,0,0,0,0,0,0,0,0,0,0,0,0,0,0,0,0,0,0,0,0,0,0,0,0,0,0,0,0,0,0,0,0,0,0,0,0,0,0,0,0,0,0,0,0,0,0,0,0,0,0,0,0,0,0,0,0,0,0,0,0,
0,0,0,0,0,0,0,0,0,0,0,0,0,0,0,0,0,0,0,0,0,0,0,0,0,0,0,0,0,0,0,0,0,0,0,0,0,0,0,0,0,0,0,0,0,0,0,0,0,0,0,0,0,0,0,0,0,0,0,0,0,0,0,0,0,0,0,0,0,0,0,0,0,0,0,0,0,0,0,0,0,0,0,0,0,0,0,0,0,0,0,0,0,0,0,0,0,0,0,0,0,0,0,0,0,0,0,0,0,0,0,0,0,0,0,0,0,0,0,0,
0,0,0,0,0,0,0,0,0,0,0,0,0,0,0,0,0,0,0,0,0,0,0,0,0,0,0,0,0,0,0,0,0,0,0,0,0,0,0,0,0,0,0,0,0,0,0,0,0,0,0,0,0,0,0,0,0,0,0,0,0,0,0,0,0,0,0,0,0,0,0,0,0,0,0,0,0,0,0,0,0,0,0,0,0,0,0,0,0,0,0,0,0,0,0,0,0,0,0,0,0,0,0,0,0,0,0,0,0,0,0,0,0,0,0,0,0,0,0,0,
0,0,0,0,0,0,0,0,0,0,0,0,0,0,0,0,0,0,0,0,0,0,0,0,0,0,0,0,0,0,0,0,0,0,0,0,0,0,0,0,0,0,0,0,0,0,0,0,6378,6379,6380,0,0,0,0,0,0,0,0,0,0,0,0,0,0,0,0,0,0,0,0,0,0,0,0,0,0,0,0,0,0,0,0,0,0,0,0,0,0,0,0,0,0,0,0,0,0,0,0,0,0,0,0,0,0,0,0,0,0,0,0,0,0,0,0,0,0,0,0,0,
0,0,0,0,0,0,0,0,0,0,0,0,0,0,0,0,0,0,0,0,0,0,0,0,0,0,0,0,0,0,0,0,0,0,0,0,0,0,0,0,0,0,0,0,0,0,0,0,6403,6404,6405,0,0,0,0,0,0,0,6368,6369,6370,0,0,0,0,0,0,0,0,0,0,0,0,0,0,0,0,0,0,0,0,0,0,0,0,0,0,0,0,0,0,0,0,0,0,0,0,0,0,0,0,0,0,0,0,0,0,0,0,0,0,0,0,0,0,0,0,0,0,0,
0,0,0,0,0,0,0,0,0,0,0,0,0,0,0,0,0,0,0,0,0,0,0,0,0,0,0,0,0,0,0,0,0,0,0,0,0,0,0,0,0,0,0,0,0,0,0,0,6428,6429,6430,0,0,0,0,0,0,0,6393,6394,6395,0,0,0,0,0,0,0,0,0,0,0,0,0,0,0,0,0,0,0,0,0,0,0,0,0,0,0,0,0,0,0,0,0,0,0,0,0,0,0,0,0,0,0,0,0,0,0,0,0,0,0,0,0,0,0,0,0,0,0,
0,0,0,0,0,0,0,0,0,0,0,0,0,0,0,0,0,0,0,0,0,0,0,0,0,0,0,0,0,0,0,0,0,0,0,0,0,0,0,0,0,0,0,0,0,0,0,0,6453,6454,6455,0,0,0,0,0,0,0,6418,6419,6420,0,0,0,0,0,0,0,0,0,0,0,0,0,0,0,0,0,0,0,0,0,0,0,0,0,0,0,0,0,0,0,0,0,0,0,0,0,0,0,0,0,0,0,0,0,0,0,0,0,0,0,0,0,0,0,0,0,0,0,
0,0,0,0,0,0,0,0,0,0,0,0,0,0,0,0,0,0,0,0,0,0,0,0,0,0,0,0,0,0,0,0,0,0,0,0,0,0,0,0,0,0,0,0,0,0,0,0,0,6479,0,0,0,0,0,0,0,0,6443,6444,6445,0,0,0,0,0,0,0,0,0,0,0,0,0,0,0,0,0,0,0,0,0,0,0,0,0,0,0,0,0,0,0,0,0,0,0,0,0,0,0,0,0,0,0,0,0,0,0,0,0,0,0,0,0,0,0,0,0,0,0,
0,0,0,0,0,0,0,0,0,0,0,0,0,0,0,0,0,0,0,0,0,0,0,0,0,0,0,0,0,0,0,0,0,0,0,0,0,0,0,0,0,0,0,0,0,0,0,0,0,6504,0,0,0,0,0,0,0,0,0,6469,0,0,0,0,0,0,0,0,0,0,0,0,0,0,0,0,0,0,0,0,0,0,0,0,0,0,0,0,0,0,0,0,0,0,0,0,0,0,0,0,0,0,0,0,0,0,0,0,0,0,0,0,0,0,0,0,0,0,0,0,
0,0,0,0,0,0,0,0,0,0,0,0,0,0,0,0,0,0,0,0,0,0,0,0,0,0,0,0,0,0,0,0,0,0,0,0,0,0,0,0,0,0,0,0,0,0,0,0,0,0,0,0,0,0,0,0,0,0,0,6494,0,0,0,0,0,0,0,0,0,0,0,0,0,0,0,0,0,0,0,0,0,0,0,0,0,0,0,0,0,0,0,0,0,0,0,0,0,0,0,0,0,0,0,0,0,0,0,0,0,0,0,0,0,0,0,0,0,0,0,0,
0,0,0,0,0,0,0,0,0,0,0,0,0,0,0,0,0,0,0,0,0,0,0,0,0,0,0,0,0,0,0,0,0,0,0,0,0,0,0,0,0,0,0,0,0,0,0,0,0,0,0,0,0,0,0,0,0,0,0,0,0,0,0,0,0,0,0,0,0,0,0,0,0,0,0,0,0,0,0,0,0,0,0,0,0,0,0,0,0,0,0,0,0,0,0,0,0,0,0,0,0,0,0,0,0,0,0,0,0,0,0,0,0,0,0,0,0,0,0,0,
0,0,0,0,0,0,0,0,0,0,0,0,0,0,0,0,0,0,0,0,0,0,0,0,0,0,0,0,0,0,0,0,0,0,0,0,0,0,0,0,0,0,0,0,0,0,0,0,0,0,0,0,0,0,0,0,0,0,0,0,0,0,0,0,0,0,0,0,0,0,0,0,0,0,0,0,0,0,0,0,0,0,0,0,0,0,0,0,0,0,0,0,0,0,0,0,0,0,0,0,0,0,0,0,0,0,0,0,0,0,0,0,0,0,0,0,0,0,0,0,
0,0,0,0,0,0,0,0,0,0,0,0,0,0,0,0,0,0,0,0,0,0,0,0,0,0,0,0,0,0,0,0,0,0,0,0,0,0,0,0,0,0,0,0,0,0,0,0,0,0,0,0,0,0,0,0,0,0,0,0,0,0,0,0,0,0,0,0,0,0,0,0,0,0,0,0,0,0,0,0,0,0,0,0,0,0,0,0,0,0,0,0,0,0,0,0,0,0,0,0,0,0,0,0,0,0,0,0,0,0,0,0,0,0,0,0,0,0,0,0,
0,0,0,0,0,0,0,0,0,0,0,0,0,0,0,0,0,0,0,0,0,0,0,0,0,0,0,0,0,0,0,0,0,0,0,0,0,0,0,0,0,0,0,0,0,0,0,0,0,0,0,0,0,0,0,0,0,0,0,0,0,0,0,0,0,0,0,0,0,0,0,0,0,0,0,0,0,0,0,0,0,0,0,0,0,0,0,0,0,0,0,0,0,0,0,0,0,0,0,0,0,0,0,0,0,0,0,0,0,0,0,0,0,0,0,0,0,0,0,0,
0,0,0,0,0,0,0,0,0,0,0,0,0,0,0,0,0,0,0,0,0,0,0,0,0,0,0,0,0,0,0,0,0,0,0,0,0,0,0,0,0,0,0,0,0,0,0,0,0,0,0,0,0,0,0,0,0,0,0,0,0,0,0,0,0,0,0,0,0,0,0,0,0,0,0,0,0,0,0,0,0,0,0,0,0,0,0,0,0,0,0,0,0,0,0,0,0,0,0,0,0,0,0,0,0,0,0,0,0,0,0,0,0,0,0,0,0,0,0,0,
0,0,0,0,0,0,0,0,0,0,0,0,0,0,0,0,0,0,0,0,0,0,0,0,0,0,0,0,0,0,0,0,0,0,0,0,0,0,0,0,0,0,0,0,0,0,0,0,0,0,0,0,0,0,0,0,0,0,0,0,0,0,0,0,0,0,0,0,0,0,0,0,0,0,0,0,0,0,0,0,0,0,0,0,0,0,0,0,0,0,0,0,0,0,0,0,0,0,0,0,0,0,0,0,0,0,0,0,0,0,0,0,0,0,0,0,0,0,0,0,
0,0,0,0,0,0,0,0,0,0,0,0,0,0,0,0,0,0,0,0,0,0,0,0,0,0,0,0,0,0,0,0,0,0,0,0,0,0,0,0,0,0,0,0,0,0,0,0,0,0,0,0,0,0,0,0,0,0,0,0,0,0,0,0,0,0,0,0,0,0,0,0,0,0,0,0,0,0,0,0,0,0,0,0,0,0,0,0,0,0,0,0,0,0,0,0,0,0,0,0,0,0,0,0,0,0,0,0,0,0,0,0,0,0,0,0,0,0,0,0,
0,0,0,0,0,0,0,0,0,0,0,0,0,0,0,0,0,0,0,0,0,0,0,0,0,0,0,0,0,0,0,0,0,0,0,0,0,0,0,0,0,0,0,0,0,0,0,0,0,0,0,0,0,0,0,0,0,0,0,0,0,0,0,0,0,0,0,0,0,0,0,0,0,0,0,0,0,0,0,0,0,0,0,0,0,0,0,0,0,0,0,0,0,0,0,0,0,0,0,0,0,0,0,0,0,0,0,0,0,0,0,0,0,0,0,0,0,0,0,0,
0,0,0,0,0,0,0,0,0,0,0,0,0,0,0,0,0,0,0,0,0,0,0,0,0,0,0,0,0,0,0,0,0,0,0,0,0,0,0,0,0,0,0,0,0,0,0,0,0,0,0,0,0,0,0,0,0,0,0,0,0,0,0,0,0,0,0,0,0,0,0,0,0,0,0,0,0,0,0,0,0,0,0,0,0,0,0,0,0,0,0,0,0,0,0,0,0,0,0,0,0,0,0,0,0,0,0,0,0,0,0,0,0,0,0,0,0,0,0,0,
0,0,0,0,0,0,0,0,0,0,0,0,0,0,0,0,0,0,0,0,0,0,0,0,0,0,0,0,0,0,0,0,0,0,0,0,0,0,0,0,0,0,0,0,0,0,0,0,0,0,0,0,0,0,0,0,0,0,0,0,0,0,0,0,0,0,0,0,0,0,0,0,0,0,0,0,0,0,0,0,0,0,0,0,0,0,0,0,0,0,0,0,0,0,0,0,0,0,0,0,0,0,0,0,0,0,0,0,0,0,0,0,0,0,0,0,0,0,0,0,
0,0,0,0,0,0,0,0,0,0,0,0,0,0,0,0,0,0,0,0,0,0,0,0,0,0,0,0,0,0,0,0,0,0,0,0,0,0,0,0,0,0,0,0,0,0,0,0,0,0,0,0,0,0,0,0,0,0,0,0,0,0,0,0,0,0,0,0,0,0,0,0,0,0,0,0,0,0,0,0,0,0,0,0,0,0,0,0,0,0,0,0,0,0,0,0,0,0,0,0,0,0,0,0,0,0,0,0,0,0,0,0,0,0,0,0,0,0,0,0,
0,0,0,0,0,0,0,0,0,0,0,0,0,0,0,0,0,0,0,0,0,0,0,0,0,0,0,0,0,0,0,0,0,0,0,0,0,0,0,0,0,0,0,0,0,0,0,0,0,0,0,0,0,0,0,0,0,0,0,0,0,0,0,0,0,0,0,0,0,0,0,0,0,0,0,0,0,0,0,0,0,0,0,0,0,0,0,0,0,0,0,0,0,0,0,0,0,0,0,0,0,0,0,0,0,0,0,0,0,0,0,0,0,0,0,0,0,0,0,0,
0,0,0,0,0,0,0,0,0,0,0,0,0,0,0,0,0,0,0,0,0,0,0,0,0,0,0,0,0,0,0,0,0,0,0,0,0,0,0,0,0,0,0,0,0,0,0,0,0,0,0,0,0,0,0,0,0,0,0,0,0,0,0,0,0,0,0,0,0,0,0,0,0,0,0,0,0,0,0,0,0,0,0,0,0,0,0,0,0,0,0,0,0,0,0,0,0,0,0,0,0,0,0,0,0,0,0,0,0,0,0,0,0,0,0,0,0,0,0,0
</data>
 </layer>
 <layer id="10" name="Set-Up" width="120" height="120">
  <data encoding="csv">
0,0,0,0,0,0,0,0,0,0,0,0,0,0,0,0,0,0,0,0,0,0,0,0,0,0,0,0,0,0,0,0,0,0,0,0,0,0,0,0,0,0,0,0,0,0,0,0,0,0,0,0,0,0,0,0,0,0,0,0,0,0,0,0,0,0,0,0,0,0,0,0,0,0,0,0,0,0,0,0,0,0,0,0,0,0,0,0,0,0,0,0,0,0,0,0,0,0,0,0,0,0,0,0,0,0,0,0,0,0,0,0,0,0,0,0,0,0,0,0,
0,0,0,0,0,0,0,0,0,0,0,0,0,0,0,0,0,0,0,0,0,0,0,0,0,0,0,0,0,0,0,0,0,0,0,0,0,0,0,0,0,0,0,0,0,0,0,0,0,0,0,0,0,0,0,0,0,0,0,0,0,0,0,0,0,0,0,0,0,0,0,0,0,0,0,0,0,0,0,0,0,0,0,0,0,0,0,0,0,0,0,0,0,0,0,0,0,0,0,0,0,0,0,0,0,0,0,0,0,0,0,0,0,0,0,0,0,0,0,0,
0,0,0,0,0,0,0,0,0,0,0,0,0,0,0,0,0,0,0,0,0,0,0,0,0,0,0,0,0,0,0,0,0,0,0,0,0,0,0,0,0,0,0,0,0,0,0,0,0,0,0,0,0,0,0,0,0,0,0,0,0,0,0,0,0,0,0,0,0,0,0,0,0,0,0,0,0,0,0,0,0,0,0,0,0,0,0,0,0,0,0,0,0,0,0,0,0,0,0,0,0,0,0,0,0,0,0,0,0,0,0,0,0,0,0,0,0,0,0,0,
0,0,0,0,0,0,0,0,0,0,0,0,0,0,0,0,0,0,0,0,0,0,0,0,0,0,0,0,0,0,0,0,0,0,0,0,0,0,0,0,0,0,0,0,0,0,0,0,0,0,0,0,0,0,0,0,0,0,0,0,0,0,0,0,0,0,0,0,0,0,0,0,0,0,0,0,0,0,0,0,0,0,0,0,0,0,0,0,0,0,0,0,0,0,0,0,0,0,0,0,0,0,0,0,0,0,0,0,0,0,0,0,0,0,0,0,0,0,0,0,
0,0,0,0,0,0,0,0,0,0,0,0,0,0,0,0,0,0,0,0,0,0,0,0,0,0,0,0,0,0,0,0,0,0,0,0,0,0,0,0,0,0,0,0,0,0,0,0,0,0,0,0,0,0,0,0,0,0,0,0,0,0,0,0,0,0,0,0,0,0,0,0,0,0,0,0,0,0,0,0,0,0,0,0,0,0,0,0,0,0,0,0,0,0,0,0,0,0,0,0,0,0,0,0,0,0,0,0,0,0,0,0,0,0,0,0,0,0,0,0,
0,0,0,0,0,0,0,0,0,0,0,0,0,0,0,0,0,0,0,0,0,0,0,0,0,0,0,0,0,0,0,0,0,0,0,0,0,0,0,0,0,0,0,0,0,0,0,0,0,0,0,0,0,0,0,0,0,0,0,0,0,0,0,0,0,0,0,0,0,0,0,0,0,0,0,0,0,0,0,0,0,0,0,0,0,0,0,0,0,0,0,0,0,0,0,0,0,0,0,0,0,0,0,0,0,0,0,0,0,0,0,0,0,0,0,0,0,0,0,0,
0,0,0,0,0,0,0,0,0,0,0,0,0,0,0,0,0,0,0,0,0,0,0,0,0,0,0,0,0,0,0,0,0,0,0,0,0,0,0,0,0,0,0,0,0,0,0,0,0,0,0,0,0,0,0,0,0,0,0,0,0,0,0,0,0,0,0,0,0,0,0,0,0,0,0,0,0,0,0,0,0,0,0,0,0,0,0,0,0,0,0,0,0,0,0,0,0,0,0,0,0,0,0,0,0,0,0,0,0,0,0,0,0,0,0,0,0,0,0,0,
0,0,0,0,0,0,0,0,0,0,0,0,0,0,0,0,0,0,0,0,0,0,0,0,0,0,0,0,0,0,0,0,0,0,0,0,0,0,0,0,0,0,0,0,0,0,0,0,0,0,0,0,0,0,0,0,0,0,0,0,0,0,0,0,0,0,0,0,0,0,0,0,0,0,0,0,0,0,0,0,0,0,0,0,0,0,0,0,0,0,0,0,0,0,0,0,0,0,0,0,0,0,0,0,0,0,0,0,0,0,0,0,0,0,0,0,0,0,0,0,
0,0,0,0,0,0,0,0,0,0,0,0,0,0,0,0,0,0,0,0,0,0,0,0,0,0,0,0,0,0,0,0,0,0,0,0,0,0,0,0,0,0,0,0,0,0,0,0,0,0,0,0,0,0,0,0,0,0,0,0,0,0,0,0,0,0,0,0,0,0,0,0,0,0,0,0,0,0,0,0,0,0,0,0,0,0,0,0,0,0,0,0,0,0,0,0,0,0,0,0,0,0,0,0,0,0,0,0,0,0,0,0,0,0,0,0,0,0,0,0,
0,0,0,0,0,0,0,0,0,0,0,0,0,0,0,0,0,0,0,0,0,0,0,0,0,0,0,0,0,0,0,0,0,0,0,0,0,0,0,0,0,0,0,0,0,0,0,0,0,0,0,0,0,0,0,0,0,0,0,0,0,0,0,0,0,0,0,0,0,0,0,0,0,0,0,0,0,0,0,0,0,0,0,0,0,0,0,0,0,0,0,0,0,0,0,0,0,0,0,0,0,0,0,0,0,0,0,0,0,0,0,0,0,0,0,0,0,0,0,0,
0,0,0,0,0,0,0,0,0,0,0,0,0,0,0,0,0,0,0,0,0,0,0,0,0,0,0,0,0,0,0,0,0,0,0,0,0,0,0,0,0,0,0,0,0,0,0,0,0,0,0,0,0,0,0,0,0,0,0,0,0,0,0,0,0,0,0,0,0,0,0,0,0,0,0,0,0,0,0,0,0,0,0,0,0,0,0,0,0,0,0,0,0,0,0,0,0,0,0,0,0,0,0,0,0,0,0,0,0,0,0,0,0,0,0,0,0,0,0,0,
0,0,0,0,0,0,0,0,0,0,0,0,0,0,0,0,0,0,0,0,0,0,0,0,0,0,0,0,0,0,0,0,0,0,0,0,0,0,0,0,0,0,0,0,0,0,0,0,0,0,0,0,0,0,0,0,0,0,0,0,0,0,0,0,0,0,0,0,0,0,0,0,0,0,0,0,0,0,0,0,0,0,0,0,0,0,0,0,0,0,0,0,0,0,0,0,0,0,0,0,0,0,0,0,0,0,0,0,0,0,0,0,0,0,0,0,0,0,0,0,
0,0,0,0,0,0,0,0,0,0,0,0,0,0,0,0,0,0,0,0,0,0,0,0,0,0,0,0,0,0,0,0,0,0,0,0,0,0,0,0,0,0,0,0,0,0,0,0,0,0,0,0,0,0,0,0,0,0,0,0,0,0,0,0,0,0,0,0,0,0,0,0,0,0,0,0,0,0,0,0,0,0,0,0,0,0,0,0,0,0,0,0,0,0,0,0,0,0,0,0,0,0,0,0,0,0,0,0,0,0,0,0,0,0,0,0,0,0,0,0,
0,0,0,0,0,0,0,0,0,0,0,0,0,0,0,0,0,0,0,0,0,0,0,0,0,0,0,0,0,0,0,0,0,0,0,0,0,0,0,0,0,0,0,0,0,0,0,0,0,0,0,0,0,0,0,0,0,0,0,0,0,0,0,0,0,0,0,0,0,0,0,0,0,0,0,0,0,0,0,0,0,0,0,0,0,0,0,0,0,0,0,0,0,0,0,0,0,0,0,0,0,0,0,0,0,0,0,0,0,0,0,0,0,0,0,0,0,0,0,0,
0,0,0,0,0,0,0,0,0,0,0,0,0,0,0,0,0,0,0,0,0,0,0,0,0,0,0,0,0,0,0,0,0,0,0,0,0,0,0,0,0,0,0,0,0,0,0,0,0,0,0,0,0,0,0,0,0,0,0,0,0,0,0,0,0,0,0,0,0,0,0,0,0,0,0,0,0,0,0,0,0,0,0,0,0,0,0,0,0,0,0,0,0,0,0,0,0,0,0,0,0,0,0,0,0,0,0,0,0,0,0,0,0,0,0,0,0,0,0,0,
0,0,0,0,0,0,0,0,0,0,0,0,0,0,0,0,0,0,0,0,0,0,0,0,0,0,0,0,0,0,0,0,0,0,0,0,0,0,0,0,0,0,0,0,79,0,0,0,0,0,0,0,0,0,0,0,0,0,0,0,0,0,0,0,0,0,0,0,0,0,0,0,104,0,0,0,0,0,0,0,0,0,0,0,0,0,0,0,0,0,0,0,0,0,0,0,0,0,0,0,0,0,0,0,0,0,0,0,0,0,0,0,0,0,0,0,0,0,0,0,
0,0,0,0,0,0,0,0,0,0,0,0,0,0,0,0,0,0,0,0,0,0,0,0,0,0,0,0,0,0,0,0,0,0,0,0,0,0,0,0,0,0,0,0,0,0,0,0,0,0,0,0,0,0,0,0,0,0,0,0,0,0,0,0,0,0,0,0,0,0,0,13,0,0,0,0,0,0,0,0,0,0,0,0,0,0,0,0,0,0,0,0,0,0,0,0,0,0,0,0,0,0,0,0,0,0,0,0,0,0,0,0,0,0,0,0,0,0,0,0,
0,0,0,0,0,0,0,0,0,0,0,0,0,0,0,0,0,0,0,0,0,0,0,0,0,0,0,0,0,0,0,0,0,0,0,0,0,0,0,0,0,0,0,0,0,0,0,0,0,0,0,0,0,0,0,0,0,0,0,0,0,0,0,0,0,0,0,0,0,0,0,0,0,0,0,0,0,0,0,0,0,0,0,0,0,0,0,0,0,0,0,0,0,0,0,0,0,0,0,0,0,0,0,0,0,0,0,0,0,0,0,0,0,0,0,0,0,0,0,0,
0,0,0,0,0,0,0,0,0,0,0,0,0,0,0,0,0,0,0,0,0,0,0,0,0,0,0,0,0,0,0,0,0,0,0,0,0,0,0,0,0,0,0,0,0,0,0,0,0,0,0,0,0,0,0,0,0,0,0,0,0,0,0,0,0,0,0,0,0,0,0,0,0,0,0,0,0,0,0,0,0,0,0,0,0,0,0,0,0,0,0,0,0,0,0,0,0,0,0,0,0,0,0,0,0,0,0,0,0,0,0,0,0,0,0,0,0,0,0,0,
0,0,0,0,0,0,0,0,0,0,0,0,0,0,0,0,0,0,0,0,0,0,0,0,0,0,0,0,0,0,0,0,0,0,0,0,0,0,0,0,0,0,0,0,0,0,0,0,0,0,0,0,0,0,0,0,0,0,0,0,0,0,0,0,0,0,0,0,0,0,0,0,0,0,65,0,0,0,0,0,0,0,0,0,0,0,0,0,0,0,0,0,0,0,0,0,0,0,0,0,0,0,0,0,0,0,0,0,0,0,0,0,0,0,0,0,0,0,0,0,
0,0,0,0,0,0,0,0,0,0,0,0,0,0,0,0,0,0,0,0,0,0,0,0,0,0,0,0,0,0,0,0,0,0,0,0,0,0,0,0,0,0,0,0,0,0,0,0,0,0,0,0,0,0,0,0,0,0,0,0,0,0,0,0,0,0,0,0,0,0,0,0,0,0,0,0,0,0,0,0,0,0,0,0,0,0,0,0,0,0,0,0,0,0,0,0,0,0,0,0,0,0,0,0,0,0,0,0,0,0,0,0,0,0,0,0,0,0,0,0,
0,0,0,0,0,0,0,0,0,0,0,0,0,0,0,0,0,0,0,0,0,0,0,0,0,0,0,0,0,0,0,0,0,0,0,0,0,0,0,0,0,0,0,0,0,0,0,0,0,0,0,0,0,0,0,0,112,0,0,0,0,0,0,0,0,0,0,0,0,0,0,0,0,0,0,0,0,0,0,0,0,0,0,0,0,0,0,0,0,0,0,0,0,0,0,0,0,0,0,0,0,0,0,0,0,0,0,0,0,0,0,0,0,0,0,0,0,0,0,0,
0,0,0,0,0,0,0,0,0,0,0,0,0,0,0,0,0,0,0,0,0,0,0,0,0,0,0,0,0,0,0,0,0,0,0,0,0,0,0,0,0,0,0,0,0,0,0,0,0,0,0,0,0,0,0,0,0,0,0,0,0,0,0,0,0,0,0,0,0,0,0,0,0,0,0,0,0,0,0,0,0,0,0,0,0,0,0,0,0,0,0,0,0,0,0,0,0,0,0,0,0,0,0,0,0,0,0,0,0,0,0,0,0,0,0,0,0,0,0,0,
0,0,0,0,0,0,0,0,0,0,0,0,0,0,0,0,0,0,0,0,0,0,0,0,0,0,0,0,0,0,0,0,0,0,0,0,0,0,0,0,0,0,0,0,0,0,0,0,0,0,0,0,0,0,0,0,0,0,0,0,0,0,0,0,0,0,0,0,0,0,0,0,0,0,0,0,0,0,0,0,0,0,0,0,0,0,0,0,0,0,0,0,0,0,0,0,0,0,0,0,0,0,0,0,0,0,0,0,0,0,0,0,0,0,0,0,0,0,0,0,
0,0,0,0,0,0,0,0,0,0,0,0,0,0,0,0,0,0,0,0,0,0,0,0,0,0,0,0,0,0,0,0,0,0,0,0,0,0,0,0,0,0,0,0,0,0,0,0,0,0,0,0,0,0,0,0,0,0,0,0,0,0,0,0,0,0,0,0,0,0,0,0,0,0,0,0,0,0,0,0,0,0,0,0,0,0,0,0,0,0,0,0,0,0,0,0,0,0,0,0,0,0,0,0,0,0,0,0,0,0,0,0,0,0,0,0,0,0,0,0,
0,0,0,0,0,0,0,0,0,0,0,0,0,0,0,0,0,0,0,0,0,0,0,0,0,0,0,0,0,0,0,0,0,0,0,0,0,0,0,0,0,0,0,0,0,0,0,0,0,0,0,0,0,0,0,0,0,0,0,0,0,0,0,0,0,0,0,0,0,0,0,0,0,95,0,0,0,0,0,0,0,0,0,0,0,0,0,0,0,0,0,0,0,0,0,0,0,0,0,0,0,0,0,0,0,0,0,0,0,0,0,0,0,0,0,0,0,0,0,0,
0,0,0,0,0,0,0,0,0,0,0,0,0,0,0,0,0,0,0,0,0,0,0,0,0,0,0,0,0,0,0,0,0,0,0,0,0,0,0,0,0,0,0,0,0,0,0,0,0,0,0,0,0,0,0,0,0,0,0,0,0,0,0,0,0,0,0,0,0,0,0,0,0,0,0,0,0,0,0,0,0,0,0,0,0,0,0,0,0,0,0,0,0,0,0,0,0,0,0,0,0,0,0,0,0,0,0,0,0,0,0,0,0,0,0,0,0,0,0,0,
0,0,0,0,0,0,0,0,0,0,0,0,0,0,0,0,0,0,0,0,0,0,0,0,0,0,0,0,0,0,0,0,0,0,0,0,0,0,0,0,0,0,0,0,0,0,0,0,0,0,0,0,0,0,0,0,0,0,0,0,0,0,0,0,0,0,0,0,0,0,0,0,0,0,0,0,0,0,0,0,0,0,0,0,0,0,0,0,0,0,0,0,0,0,0,0,0,0,0,0,0,0,0,0,0,0,0,0,0,0,0,0,0,0,0,0,0,0,0,0,
0,0,0,0,0,0,0,0,0,0,0,0,0,0,0,0,0,0,0,0,0,0,0,0,0,0,0,0,0,0,0,0,0,0,0,0,0,0,0,0,0,0,0,0,0,0,0,0,0,0,0,0,0,0,0,0,0,0,0,0,0,0,0,0,0,81,0,0,0,0,0,0,0,0,0,0,0,0,0,0,0,0,0,0,0,0,0,0,0,0,0,0,0,0,0,0,0,0,0,0,0,0,0,0,0,0,0,0,0,0,0,0,0,0,0,0,0,0,0,0,
0,0,0,0,0,0,0,0,0,0,0,0,0,0,0,0,0,0,0,0,0,0,0,0,0,0,0,0,0,0,0,0,0,0,0,0,0,0,0,0,0,0,0,0,0,0,0,0,0,0,0,0,0,0,0,0,0,0,0,0,0,0,0,0,0,0,0,0,0,0,0,71,0,0,0,0,0,0,0,0,0,0,0,0,0,0,0,0,0,0,0,0,0,0,0,0,0,0,0,0,0,0,0,0,0,0,0,0,0,0,0,0,0,0,0,0,0,0,0,0,
0,0,0,0,0,0,0,0,0,0,0,0,0,0,0,0,0,0,0,0,0,0,0,0,0,0,0,0,0,0,0,0,0,0,0,0,0,0,0,0,0,0,0,0,0,0,0,0,0,0,0,0,0,0,0,0,0,0,0,0,0,0,0,0,0,0,0,0,0,0,0,0,0,0,0,0,0,0,0,0,0,0,0,0,0,0,0,0,0,0,0,0,0,0,0,0,0,0,0,0,0,0,0,0,0,0,0,0,0,0,0,0,0,0,0,0,0,0,0,0,
0,0,0,0,0,0,0,0,0,0,0,0,0,0,0,0,0,0,0,0,0,0,0,0,0,0,0,0,0,0,0,0,0,0,0,0,0,0,0,0,0,0,0,0,0,0,0,0,0,0,0,0,0,0,0,0,0,0,0,0,0,0,0,0,0,0,0,0,0,0,0,0,0,0,0,0,0,0,0,0,0,0,0,0,0,0,0,0,0,0,0,0,0,0,0,0,0,0,0,0,0,0,0,0,0,0,0,0,0,0,0,0,0,0,0,0,0,0,0,0,
0,0,0,0,0,0,0,0,0,0,0,0,0,0,0,0,0,0,0,0,0,0,0,0,0,0,0,0,0,0,0,0,0,0,0,0,0,0,0,0,0,0,0,0,0,0,0,0,0,0,0,0,0,0,0,0,0,0,0,0,0,0,0,0,0,0,0,0,0,0,0,0,0,0,0,0,0,0,0,0,0,0,0,0,0,0,0,0,0,0,0,0,0,0,0,0,0,0,0,0,0,0,0,0,0,0,0,0,0,0,0,0,0,0,0,0,0,0,0,0,
0,0,0,0,0,0,0,0,0,0,0,0,0,0,0,0,0,0,0,0,0,0,0,0,0,0,0,0,0,0,0,0,0,0,0,0,0,0,0,0,0,0,0,0,0,0,0,0,0,0,0,0,0,0,0,0,0,0,0,0,0,0,0,0,0,0,0,0,0,0,0,0,0,0,0,0,0,0,0,0,0,0,0,0,0,0,0,0,0,0,0,0,0,0,0,0,0,0,0,0,0,0,0,0,0,0,0,0,0,0,0,0,0,0,0,0,0,0,0,0,
0,0,0,0,0,0,0,0,0,0,0,0,0,0,0,122,0,0,0,0,0,0,0,0,0,0,0,0,0,0,0,0,0,0,0,0,0,0,0,0,0,0,0,0,0,0,0,0,0,0,0,0,0,0,0,0,0,0,0,0,0,0,0,50,0,0,0,0,0,0,0,0,0,0,0,0,0,0,0,0,0,0,0,55,0,0,0,0,0,0,0,0,0,0,0,0,0,0,0,0,0,0,0,0,0,0,0,0,0,0,0,0,0,0,0,0,0,0,0,0,
0,0,0,0,0,0,0,0,0,0,0,0,0,0,0,0,0,0,0,0,0,0,0,0,0,0,0,0,0,0,0,0,0,0,0,0,0,0,0,0,0,0,0,0,0,0,0,0,0,0,0,0,0,0,0,0,0,0,0,0,0,0,0,0,0,0,0,0,0,0,0,0,0,0,0,0,0,0,0,0,0,6,0,0,64,0,0,0,0,0,0,0,0,0,0,0,0,0,0,0,0,0,0,0,0,0,0,0,0,0,0,0,0,0,0,0,0,0,0,0,
0,0,0,0,0,0,0,0,0,0,0,0,0,0,0,0,0,0,0,0,0,0,0,0,0,0,0,0,0,0,0,0,0,0,0,0,0,0,0,0,0,0,0,0,0,0,0,0,0,0,0,0,0,0,0,0,0,0,0,0,0,0,0,0,0,0,0,0,0,0,0,0,0,0,0,91,0,0,0,0,0,0,97,0,0,0,0,0,0,0,0,0,0,0,0,0,0,0,0,0,0,0,0,0,0,0,0,0,0,0,0,0,0,0,0,0,0,0,0,0,
0,0,0,0,0,0,0,0,0,0,0,0,0,0,0,0,0,0,0,0,0,0,0,0,0,0,0,0,0,0,0,0,0,0,0,0,0,0,0,0,0,0,0,0,0,0,0,0,0,0,0,0,0,0,0,0,0,0,0,0,0,0,0,0,0,0,0,0,0,0,0,0,0,0,0,0,0,0,0,0,0,0,0,0,0,0,0,0,0,0,0,0,0,0,0,0,0,0,0,0,0,0,0,0,0,0,0,0,0,0,0,0,0,0,0,0,0,0,0,0,
0,0,0,0,0,0,0,0,0,0,0,0,0,0,0,0,0,0,0,0,0,0,0,0,0,0,0,0,0,0,0,0,0,0,0,0,0,0,0,0,0,0,0,0,0,0,0,0,0,0,0,0,0,0,0,0,0,0,0,0,0,0,0,2,0,0,0,0,0,0,0,0,0,0,0,0,0,0,0,0,0,0,0,0,0,0,0,0,0,0,0,0,0,0,0,0,0,0,0,0,0,0,0,0,0,0,0,0,0,0,0,0,0,0,0,0,0,0,0,0,
0,0,0,0,0,0,0,0,0,0,0,0,0,0,0,0,0,0,0,0,0,0,0,0,0,0,0,0,0,0,0,0,0,0,0,0,0,0,0,0,0,0,0,0,0,0,0,0,0,0,0,0,0,0,0,0,0,0,0,0,0,0,0,0,0,0,0,0,0,0,0,0,0,0,0,0,0,0,0,0,0,0,0,0,0,0,0,0,0,0,0,0,0,0,0,0,0,0,0,0,0,0,0,0,0,0,0,0,0,0,0,0,0,0,0,0,0,0,0,0,
0,0,0,0,0,0,0,0,0,0,0,0,0,0,0,0,0,0,0,0,0,0,0,0,0,0,0,0,0,0,0,0,0,0,0,0,0,0,0,0,0,0,0,0,0,0,0,0,0,0,0,0,0,0,0,0,0,0,0,0,0,0,0,0,0,0,0,0,0,0,0,0,0,0,0,0,0,0,0,0,0,0,0,0,0,0,23,0,0,0,0,0,0,0,0,0,0,0,0,0,0,0,0,0,0,0,0,0,0,0,0,0,0,0,0,0,0,0,0,0,
0,0,0,0,0,0,0,0,0,0,0,0,0,0,0,0,0,0,0,0,0,0,0,0,0,0,0,0,0,0,0,0,0,0,0,0,0,0,0,0,0,0,0,0,0,0,0,0,0,0,0,0,0,0,0,0,0,0,0,0,0,0,0,0,0,0,0,0,0,0,0,0,0,0,0,0,0,0,0,0,0,0,0,0,0,0,0,0,0,0,0,0,0,0,0,0,0,0,0,0,0,0,0,0,0,0,0,0,0,0,0,0,0,0,0,0,0,0,0,0,
0,0,0,0,0,0,0,0,0,0,0,0,0,0,0,0,0,0,0,0,0,0,0,0,0,0,0,0,0,0,0,0,0,0,0,0,0,0,0,0,0,0,0,0,0,0,0,0,0,0,0,0,0,0,0,0,0,0,0,0,0,35,0,0,0,0,0,0,0,0,0,0,0,0,0,0,0,0,0,0,0,0,0,0,0,0,0,0,0,0,0,0,0,0,0,0,0,0,0,0,0,0,0,0,0,0,0,0,0,0,0,0,0,0,0,0,0,0,0,0,
0,0,0,0,0,0,0,0,0,0,0,0,0,0,0,0,0,0,0,0,0,0,0,0,0,0,0,0,0,0,0,0,0,0,0,0,0,0,0,0,0,0,0,0,0,0,0,0,0,0,0,0,0,0,0,0,0,0,0,0,38,0,0,0,0,0,0,0,0,0,0,0,113,0,0,0,0,0,0,0,0,0,0,0,0,0,0,0,0,0,0,0,0,0,0,0,0,0,0,0,0,0,0,0,0,0,0,0,0,0,0,0,0,0,0,0,0,0,0,0,
0,0,0,0,0,0,0,0,0,0,0,0,0,0,0,0,0,0,0,0,0,0,0,0,0,0,0,0,0,0,0,0,0,0,0,0,0,0,0,0,0,0,0,0,0,0,0,0,0,0,0,0,0,0,139,0,0,0,0,0,0,0,0,0,0,0,0,0,0,0,0,0,0,0,0,0,0,0,0,0,0,0,0,0,0,0,0,0,0,0,0,0,0,0,0,0,0,0,0,0,0,0,0,0,0,0,0,0,0,0,0,0,0,0,0,0,0,0,0,0,
0,0,0,0,0,0,0,0,0,0,0,0,0,0,0,0,0,0,0,0,0,0,0,0,0,0,0,0,0,0,0,0,0,0,0,0,0,0,0,0,0,0,0,0,0,0,0,0,0,0,0,0,0,0,0,0,0,0,0,0,0,0,0,0,0,0,0,0,0,0,0,0,0,0,0,0,0,0,0,0,0,0,0,0,0,0,0,0,0,0,0,0,0,0,0,0,0,0,0,0,0,0,0,0,0,0,0,0,0,0,0,0,0,0,0,0,0,0,0,0,
0,0,0,0,0,0,0,0,0,0,0,0,0,0,0,0,0,0,0,0,0,0,0,0,0,0,0,0,0,0,0,0,0,0,0,0,0,0,0,0,0,0,0,0,0,0,0,0,0,0,0,0,0,0,0,0,0,0,0,0,0,0,0,0,0,0,0,0,0,0,0,0,0,0,0,0,0,0,0,0,0,0,0,0,0,0,0,0,0,0,0,0,0,0,0,0,0,0,0,0,0,0,0,0,0,0,0,0,0,0,0,0,0,0,0,0,0,0,0,0,
0,0,0,0,0,0,0,0,0,0,0,0,0,0,0,0,0,0,0,0,0,0,0,0,0,0,0,0,0,0,0,0,0,0,0,0,0,0,0,0,0,0,0,0,0,0,0,0,74,0,0,0,0,0,0,0,0,0,0,0,0,0,0,0,0,0,0,0,0,0,0,0,0,0,0,0,0,0,0,0,0,0,0,0,0,0,0,0,0,0,0,0,0,0,0,0,0,0,0,0,0,0,0,0,0,0,0,0,0,0,0,0,0,0,0,0,0,0,0,0,
0,0,0,0,0,0,0,0,0,0,0,0,0,0,0,0,0,0,0,0,0,0,0,0,0,0,0,0,0,0,0,0,0,0,0,0,0,0,0,0,0,0,0,0,0,0,0,0,0,0,0,0,0,0,0,0,0,0,0,0,0,0,0,0,0,0,0,0,0,0,0,0,0,0,0,0,0,0,0,0,0,0,0,0,0,0,0,0,0,0,0,0,0,0,0,0,0,0,0,0,0,0,0,0,0,0,0,0,0,0,0,0,0,0,0,0,0,0,0,0,
0,0,0,0,0,0,0,0,0,0,0,0,0,0,0,0,0,0,0,0,0,0,0,0,0,0,0,0,0,0,0,0,0,0,0,0,0,0,0,0,0,0,0,0,0,0,0,0,0,0,0,0,0,0,0,0,0,0,0,0,0,0,0,0,0,0,0,0,0,0,0,0,0,0,0,0,0,0,0,0,0,0,0,0,0,0,0,0,0,0,0,0,0,0,0,0,0,0,0,0,0,0,0,0,0,0,0,0,0,0,0,0,0,0,0,0,0,0,0,0,
0,0,0,0,0,0,0,0,0,0,0,0,0,0,0,0,0,0,0,0,0,0,0,0,0,0,0,0,0,0,0,0,0,0,0,0,0,0,0,0,0,0,0,0,0,0,0,0,0,0,0,0,0,0,0,0,0,0,0,0,0,0,0,0,0,0,0,0,0,0,0,0,0,0,0,0,0,0,0,0,0,0,0,0,0,0,0,0,0,0,0,0,0,0,0,0,0,0,0,0,0,0,0,0,0,0,0,0,0,0,0,0,0,0,0,0,0,0,0,0,
0,0,0,0,0,0,0,0,0,0,0,0,0,0,0,0,0,0,0,0,0,0,0,0,0,0,0,0,0,0,0,0,0,0,0,0,0,0,0,0,0,0,0,0,0,0,0,0,0,0,0,0,0,0,0,0,0,0,0,0,0,0,0,0,0,0,0,0,0,0,0,0,0,0,0,0,0,0,0,0,0,0,0,0,0,0,0,0,0,0,0,0,0,0,0,0,0,0,0,0,0,0,0,0,0,0,0,0,0,0,0,0,0,0,0,0,0,0,0,0,
0,0,0,0,0,0,0,0,0,0,0,0,0,0,0,0,0,0,0,0,0,0,0,0,0,0,0,0,0,0,0,0,0,0,0,0,0,0,0,0,0,0,0,0,0,0,0,0,0,0,0,0,0,0,0,0,0,0,0,0,0,0,0,0,0,0,0,0,0,0,0,0,0,0,0,0,0,0,0,0,0,0,0,0,0,0,0,0,0,0,0,0,0,0,0,0,0,0,0,0,0,0,0,0,0,0,0,0,0,0,0,0,0,0,0,0,0,0,0,0,
0,0,0,0,0,0,0,0,0,0,0,0,0,0,0,0,0,0,0,0,0,0,0,0,0,0,0,0,0,0,0,0,0,0,0,0,0,0,0,0,0,0,0,0,0,0,0,0,0,0,0,0,0,0,0,0,0,19,0,0,0,0,0,0,0,0,0,0,0,0,0,0,0,0,0,0,0,0,0,0,0,0,0,0,0,0,0,0,0,0,0,0,0,0,0,0,0,0,0,0,0,0,0,0,0,0,0,0,0,0,0,0,0,0,0,0,0,0,0,0,
0,0,0,0,0,0,0,0,0,0,0,0,0,0,0,0,0,0,0,0,0,0,0,0,0,0,0,0,0,0,0,0,0,0,0,0,0,0,0,0,0,0,0,0,0,0,0,0,0,0,0,0,0,0,0,0,0,0,0,0,0,0,0,0,0,0,0,0,0,0,0,0,0,0,0,0,0,0,0,0,0,0,0,0,0,0,0,0,0,0,0,0,0,0,0,0,0,0,0,0,0,0,0,0,0,0,0,0,0,0,0,0,0,0,0,0,0,0,0,0,
0,0,0,0,0,0,0,0,0,0,0,0,0,0,0,0,0,0,0,0,0,0,0,0,0,0,0,0,0,0,0,0,0,0,0,0,0,0,0,0,0,0,0,0,0,0,0,0,0,0,0,0,0,0,0,0,0,0,0,0,0,0,0,0,0,0,0,0,0,0,0,0,0,0,0,0,0,0,0,0,0,0,0,0,0,0,0,0,0,0,0,0,0,0,58,0,0,0,0,0,0,0,107,0,0,0,0,0,0,0,0,0,0,0,0,0,0,0,0,0,
0,0,0,0,0,0,0,0,0,0,0,0,0,0,0,0,0,0,0,0,0,0,0,0,0,0,0,0,0,0,0,0,0,0,0,0,0,0,0,0,0,0,0,0,0,0,0,0,0,0,0,0,0,0,0,0,0,0,0,0,0,0,0,0,0,0,0,0,0,0,0,0,0,0,0,0,0,0,0,0,0,0,0,0,0,0,0,0,0,0,0,0,0,0,0,29,0,0,0,0,0,0,0,120,0,0,0,0,0,0,0,0,0,0,0,0,0,0,0,0,
0,0,0,0,0,0,0,0,0,0,0,0,0,0,0,0,0,0,0,0,0,0,0,0,0,0,0,0,0,0,0,0,0,0,0,0,0,0,0,0,0,0,0,0,0,0,0,0,0,0,0,0,0,0,0,0,0,0,0,0,0,0,0,0,0,0,0,0,0,0,0,0,0,0,0,0,0,0,0,0,0,0,0,0,0,0,0,0,0,0,0,0,0,0,0,0,0,0,0,0,0,0,0,0,0,0,0,0,0,0,0,0,0,0,0,0,0,0,0,0,
0,0,0,0,0,0,0,0,0,0,0,0,0,0,0,0,0,0,0,0,0,0,0,0,0,0,0,0,0,0,0,0,0,0,0,0,0,0,0,0,0,0,0,0,0,0,0,0,0,0,0,0,0,0,0,0,0,0,0,0,0,0,0,0,0,0,0,0,0,0,0,0,0,0,0,0,0,0,0,0,0,0,0,0,0,0,0,0,0,0,0,0,0,0,0,0,0,0,0,0,0,0,0,0,0,0,0,0,0,0,0,0,0,0,0,0,0,0,0,0,
0,0,0,0,0,0,0,0,0,0,0,0,0,0,0,0,0,0,0,0,0,0,0,0,0,0,0,0,0,0,0,0,0,0,0,0,0,0,0,0,0,0,0,0,0,0,0,0,0,0,0,0,0,0,0,0,0,0,0,0,0,0,0,0,0,0,0,0,0,0,0,0,0,0,0,0,0,0,0,0,0,0,0,0,0,0,0,0,0,0,0,0,0,0,0,0,0,0,0,0,0,0,0,0,0,0,0,0,0,0,0,0,0,0,0,0,0,0,0,0,
0,0,0,0,0,0,0,0,0,0,0,0,0,0,0,0,0,0,0,0,0,0,0,0,0,0,0,0,0,0,0,0,0,0,0,0,0,0,0,0,0,0,0,0,0,0,0,0,0,0,0,0,0,0,0,0,0,0,0,0,0,0,0,0,0,0,0,0,0,0,0,0,0,0,0,0,0,0,0,0,0,0,0,0,0,0,0,0,0,0,0,0,0,0,0,0,42,0,28,0,0,0,0,0,0,0,0,0,0,0,0,0,0,0,0,0,0,0,0,0,
0,0,0,0,0,0,0,0,0,0,0,0,0,0,0,0,0,0,0,0,0,0,0,0,0,0,0,0,0,0,0,0,0,0,0,0,0,0,0,0,0,0,0,0,0,0,0,0,0,0,0,0,0,0,0,0,0,0,0,0,0,0,0,0,0,0,0,0,0,0,0,0,0,0,0,0,0,0,0,0,0,0,0,0,0,0,0,0,0,0,0,0,0,0,0,0,0,0,0,0,0,0,88,0,0,0,0,0,0,0,0,0,0,0,0,0,0,0,0,0,
0,0,0,0,0,0,0,0,0,0,0,0,0,0,0,0,0,0,0,0,0,0,0,0,0,0,0,0,0,0,0,0,0,0,0,0,0,0,0,0,0,0,0,0,0,0,0,0,0,0,0,0,0,0,0,0,0,0,0,0,0,0,0,0,0,0,0,0,0,0,0,0,0,0,0,0,0,0,0,0,0,0,0,0,0,0,0,0,0,0,0,0,0,0,0,0,0,0,0,0,0,45,0,0,0,0,0,0,0,0,0,0,0,0,0,0,0,0,0,0,
0,0,0,0,0,0,0,0,0,0,0,0,0,0,0,0,0,0,0,0,0,0,0,0,0,0,0,0,0,0,0,0,0,0,0,0,0,0,0,0,0,0,0,0,0,0,0,0,0,0,0,0,0,0,0,0,0,0,0,0,0,0,0,0,0,0,0,0,0,0,0,0,0,0,0,0,0,0,0,0,0,0,0,0,0,0,0,0,0,0,0,0,0,0,0,0,0,0,0,0,0,0,0,0,0,0,0,0,0,0,0,0,0,0,0,0,0,0,0,0,
0,0,0,0,0,0,0,0,0,0,0,0,0,0,0,0,0,0,0,0,0,0,0,0,0,0,0,0,0,0,0,0,0,0,0,0,0,0,0,0,0,0,0,0,0,0,0,0,0,0,0,0,0,0,0,0,0,0,0,0,0,0,0,0,0,0,0,0,0,0,0,0,0,0,0,0,0,0,0,0,0,0,0,0,0,0,0,0,0,0,0,0,0,0,0,0,0,0,0,0,0,0,0,0,0,0,0,0,0,0,0,0,0,0,0,0,0,0,0,0,
0,0,0,0,0,0,0,0,0,0,0,0,0,0,0,0,0,0,0,0,0,0,0,0,0,0,0,0,0,0,0,0,0,0,0,0,0,0,0,0,0,0,0,0,0,0,0,0,0,0,0,0,0,0,0,0,0,0,0,0,0,0,0,0,0,0,0,0,0,0,0,0,0,0,0,0,0,0,0,0,0,0,0,0,0,0,0,0,0,0,0,0,0,0,0,0,0,0,0,0,0,0,0,0,0,0,0,0,0,0,0,0,0,0,0,0,0,0,0,0,
0,0,0,0,0,0,0,0,0,0,0,0,0,0,0,0,0,0,0,0,0,0,0,0,0,0,0,0,0,0,0,0,0,0,0,0,0,0,0,0,0,0,0,0,0,0,0,0,0,0,0,0,0,0,0,0,0,0,0,0,0,0,0,0,0,0,0,0,0,0,0,0,0,0,0,0,0,0,0,0,0,0,0,0,0,0,0,0,0,0,0,0,0,0,0,0,0,11,0,0,0,0,0,0,0,0,0,0,0,0,0,0,0,0,0,0,0,0,0,0,
0,0,0,0,0,0,0,0,0,0,0,0,0,0,0,0,0,0,0,0,0,0,0,0,0,0,0,0,0,0,0,0,0,0,0,0,0,0,0,0,0,0,0,0,0,0,0,0,0,0,0,0,0,0,0,0,0,0,0,0,0,0,0,0,0,0,0,0,0,0,0,0,0,0,0,0,0,0,0,0,0,0,0,0,0,0,0,0,0,0,0,0,0,0,0,0,0,0,0,0,0,0,0,0,0,0,0,0,0,0,0,0,0,0,0,0,0,0,0,0,
0,0,0,0,0,0,0,0,0,0,0,0,0,0,0,0,0,0,0,0,0,0,0,0,0,0,0,0,0,0,0,0,0,0,0,0,0,0,0,0,0,0,0,0,0,0,0,0,0,0,0,0,0,0,0,0,0,0,0,0,0,0,0,0,0,0,0,0,0,0,0,0,0,0,0,0,0,0,0,0,0,0,0,0,0,0,0,0,0,0,0,0,0,0,0,0,0,0,0,0,0,0,0,0,0,0,0,0,0,0,0,0,0,0,0,0,0,0,0,0,
0,0,0,0,0,0,0,0,0,0,0,0,0,0,0,0,0,0,0,0,0,0,0,0,0,0,0,0,0,0,0,0,0,0,0,0,0,0,0,0,0,0,0,0,0,0,0,0,0,0,0,0,0,0,0,0,0,0,0,0,0,0,0,0,0,0,0,0,0,0,0,0,0,0,0,0,0,0,0,0,0,0,0,0,0,0,0,0,0,0,0,0,0,0,0,0,0,0,0,0,0,0,0,0,0,0,0,0,0,0,0,0,0,0,0,0,0,0,0,0,
0,0,0,0,0,0,0,0,0,0,0,0,0,0,0,0,0,0,0,0,0,0,0,0,0,0,0,0,0,0,0,0,0,0,0,0,0,0,0,0,0,0,0,0,0,0,0,0,0,0,0,0,0,0,0,0,0,0,0,0,0,0,0,0,0,0,0,0,0,0,0,0,0,0,0,0,0,0,0,0,0,0,0,0,0,0,0,0,0,0,0,0,0,0,0,0,0,0,0,0,0,0,0,0,0,0,0,0,0,0,0,0,0,0,0,0,0,0,0,0,
0,0,0,0,0,0,0,0,0,0,0,0,0,0,0,0,0,0,0,0,0,0,0,0,0,0,0,0,0,0,0,0,0,0,0,0,0,0,0,0,0,0,0,0,0,0,0,0,0,0,0,0,0,0,0,0,0,0,0,0,0,0,0,0,0,0,0,0,0,0,0,0,0,0,0,0,0,0,0,0,0,0,0,0,0,0,0,0,0,0,0,0,0,0,0,0,0,0,0,0,0,0,0,0,0,0,0,0,0,0,0,0,0,0,0,0,0,0,0,0,
0,0,0,0,0,0,0,0,0,0,0,0,0,0,0,0,0,0,0,0,0,0,0,0,0,0,0,0,0,0,0,0,0,0,0,0,0,0,0,0,0,0,0,0,0,0,0,0,0,0,0,0,0,0,0,0,0,0,0,0,0,0,0,0,0,0,0,0,0,0,0,0,0,0,0,0,0,0,0,0,0,0,0,0,0,0,0,0,0,0,0,0,0,0,0,0,0,0,0,0,0,0,0,0,0,0,0,0,0,0,0,0,0,0,0,0,0,0,0,0,
0,0,0,0,0,0,0,0,0,0,0,0,0,0,0,0,0,0,0,0,0,0,0,0,0,0,0,0,0,0,0,0,0,0,0,0,0,0,0,0,0,0,0,0,0,0,0,0,0,0,0,0,0,0,0,0,0,0,0,0,0,0,0,0,0,0,0,0,0,0,0,0,0,0,0,0,0,0,0,0,0,0,0,0,0,0,0,0,0,0,0,0,0,0,0,0,0,0,0,0,0,0,0,0,0,0,0,0,0,0,0,0,0,0,0,0,0,0,0,0,
0,0,0,0,0,0,0,0,0,0,0,0,0,0,0,0,0,0,0,0,0,0,0,0,0,0,0,0,0,0,0,0,0,0,0,0,0,0,0,0,0,0,0,0,0,0,0,0,0,0,0,0,0,0,0,0,0,0,0,0,0,0,0,0,0,0,0,0,0,0,0,0,0,0,0,0,0,0,0,0,0,0,0,0,0,0,0,0,0,0,0,0,0,0,0,0,0,0,0,0,0,0,0,0,0,0,0,0,0,0,0,0,0,0,0,0,0,0,0,0,
0,0,0,0,0,0,0,0,0,0,0,0,0,0,0,0,0,0,0,0,0,0,0,0,0,0,0,0,0,0,0,0,0,0,0,0,0,0,0,0,0,0,0,0,0,0,0,0,0,0,0,0,0,0,0,0,0,0,0,0,0,0,0,0,0,0,0,0,0,0,0,0,0,0,0,0,0,0,0,0,0,0,0,0,0,0,0,0,0,0,0,0,0,0,0,0,0,0,0,0,0,0,0,0,0,0,0,0,0,0,0,0,0,0,0,0,0,0,0,0,
0,0,0,0,0,0,0,0,0,0,0,0,0,0,0,0,0,0,0,0,0,0,0,0,0,0,0,0,0,0,0,0,0,0,0,0,0,0,0,0,0,0,0,0,0,0,0,0,0,0,0,0,0,0,0,0,0,0,0,0,0,0,0,0,0,0,0,0,0,0,0,0,0,0,0,0,0,0,0,0,0,0,0,0,0,0,0,0,0,0,0,0,0,0,0,0,0,0,0,0,0,0,0,0,0,0,0,0,0,0,0,0,0,0,0,0,0,0,0,0,
0,0,0,0,0,0,0,0,0,0,0,0,0,0,0,0,0,0,0,0,0,0,0,0,0,0,0,0,0,0,0,0,0,0,0,0,0,0,0,0,0,0,0,0,0,0,0,0,0,0,0,0,0,0,0,0,0,0,0,0,0,0,0,0,0,0,0,0,0,0,0,0,0,0,0,0,0,0,0,0,0,0,0,0,0,0,0,0,0,0,0,0,0,0,0,0,0,0,0,0,0,0,0,0,0,0,0,0,0,0,0,0,0,0,0,0,0,0,0,0,
0,0,0,0,0,0,0,0,0,0,0,0,0,0,0,0,0,0,0,0,0,0,0,0,0,0,0,0,0,0,0,0,0,0,0,0,0,0,0,0,0,0,0,0,0,0,0,0,0,0,0,0,0,0,0,0,0,0,0,0,0,0,0,0,0,0,0,0,0,0,0,0,0,0,0,0,0,0,0,0,0,0,0,0,0,0,0,0,0,0,0,0,0,0,0,0,0,0,0,0,0,0,0,0,0,0,0,0,0,0,0,0,0,0,0,0,0,0,0,0,
0,0,0,0,0,0,0,0,0,0,0,0,0,0,0,0,0,0,0,0,0,0,0,0,0,0,0,0,0,0,0,0,0,0,0,0,0,0,0,0,0,0,0,0,0,0,0,0,0,0,0,0,0,0,0,0,0,0,0,0,0,0,0,0,0,0,0,0,0,0,0,0,0,0,0,0,0,0,0,0,0,0,0,0,0,0,0,0,0,0,0,0,0,0,0,0,0,0,0,0,0,0,0,0,0,0,0,0,0,0,0,0,0,0,0,0,0,0,0,0,
0,0,0,0,0,0,0,0,0,0,0,0,0,0,0,0,0,0,0,0,0,0,0,0,0,0,0,0,0,0,0,0,0,0,0,0,0,0,0,0,0,0,0,0,0,0,0,0,0,0,0,0,0,0,0,0,0,0,0,0,0,0,0,0,0,0,0,0,0,0,0,0,0,0,0,0,0,0,0,0,0,0,0,0,0,0,0,0,0,0,0,0,0,0,0,0,0,0,0,0,0,0,0,0,0,0,0,0,0,0,0,0,0,0,0,0,0,0,0,0,
0,0,0,0,0,0,0,0,0,0,0,0,0,0,0,0,0,0,0,0,0,0,0,0,0,0,0,0,0,0,0,0,0,0,0,0,0,0,0,0,0,0,0,0,0,0,0,0,0,0,0,0,0,0,0,0,0,0,0,0,0,0,0,0,0,0,0,0,0,0,0,0,0,0,0,0,0,0,0,0,0,0,0,0,0,0,0,0,0,0,0,0,0,0,0,0,0,0,0,0,0,0,0,0,0,0,0,0,0,0,0,0,0,0,0,0,0,0,0,0,
0,0,0,0,0,0,0,0,0,0,0,0,0,0,0,0,0,0,0,0,0,0,0,0,0,0,0,0,0,0,0,0,0,0,0,0,0,0,0,0,0,0,0,0,0,0,0,0,0,0,0,0,0,0,0,0,0,0,0,0,0,0,0,0,0,0,0,0,0,0,0,0,0,0,0,0,0,0,0,0,0,0,0,0,0,0,0,0,0,0,0,0,0,0,0,0,0,0,0,0,0,0,0,0,0,0,0,0,0,0,0,0,0,0,0,0,0,0,0,0,
0,0,0,0,0,0,0,0,0,0,0,0,0,0,0,0,0,0,0,0,0,0,0,0,0,0,0,0,0,0,0,0,0,0,0,0,0,0,0,0,0,0,0,0,0,0,0,0,0,0,0,0,0,0,0,0,0,0,0,0,0,0,0,0,0,0,0,0,0,0,0,0,0,0,0,0,0,0,0,0,0,0,0,0,0,0,0,0,0,0,0,0,0,0,0,0,0,0,0,0,0,0,0,0,0,0,0,0,0,0,0,0,0,0,0,0,0,0,0,0,
0,0,0,0,0,0,0,0,0,0,0,0,0,0,0,0,0,0,0,0,0,0,0,0,0,0,0,0,0,0,0,0,0,0,0,0,0,0,0,0,0,0,0,0,0,0,0,0,0,0,0,0,0,0,0,0,0,0,0,0,0,0,0,0,0,0,0,0,0,0,0,0,0,0,0,0,0,0,0,0,0,0,0,0,0,0,0,0,0,0,0,0,0,0,0,0,0,0,0,0,0,0,0,0,0,0,0,0,0,0,0,0,0,0,0,0,0,0,0,0,
0,0,0,0,0,0,0,0,0,0,0,0,0,0,0,0,0,0,0,0,0,0,0,0,0,0,0,0,0,0,0,0,0,0,0,0,0,0,0,0,0,0,0,0,0,0,0,0,0,0,0,0,0,0,0,0,0,0,0,0,0,0,0,0,0,0,0,0,0,0,0,0,0,0,0,0,0,0,0,0,0,0,0,0,0,0,0,0,0,0,0,0,0,0,0,0,0,0,0,0,0,0,0,0,0,0,0,0,0,0,0,0,0,0,0,0,0,0,0,0,
0,0,0,0,0,0,0,0,0,0,0,0,0,0,0,0,0,0,0,0,0,0,0,0,0,0,0,0,0,0,0,0,0,0,0,0,0,0,0,0,0,0,0,0,0,0,0,0,0,0,0,0,0,0,0,0,0,0,0,0,0,0,0,0,0,0,0,0,0,0,0,0,0,0,0,0,0,0,0,0,0,0,0,0,0,0,0,0,0,0,0,0,0,0,0,0,0,0,0,0,0,0,0,0,0,0,0,0,0,0,0,0,0,0,0,0,0,0,0,0,
0,0,0,0,0,0,0,0,0,0,0,0,0,0,0,0,0,0,0,0,0,0,0,0,0,0,0,0,0,0,0,0,0,0,0,0,0,0,0,0,0,0,0,0,0,0,0,0,0,0,0,0,0,0,0,0,0,0,0,0,0,0,0,0,0,0,0,0,0,0,0,0,0,0,0,0,0,0,0,0,0,0,0,0,0,0,0,0,0,0,0,0,0,0,0,0,0,0,0,0,0,0,0,0,0,0,0,0,0,0,0,0,0,0,0,0,0,0,0,0,
0,0,0,0,0,0,0,0,0,0,0,0,0,0,0,0,0,0,0,0,0,0,0,0,0,0,0,0,0,0,0,0,0,0,0,0,0,0,0,0,0,0,0,0,0,0,0,0,0,0,0,0,0,0,0,0,0,0,0,0,0,0,0,0,0,0,0,0,0,0,0,0,0,0,0,0,0,0,0,0,0,0,0,0,0,0,0,0,0,0,0,0,0,0,0,0,0,0,0,0,0,0,0,0,0,0,0,0,0,0,0,0,0,0,0,0,0,0,0,0,
0,0,0,0,0,0,0,0,0,0,0,0,0,0,0,0,0,0,0,0,0,0,0,0,0,0,0,0,0,0,0,0,0,0,0,0,0,0,0,0,0,0,0,0,0,0,0,0,0,0,0,0,0,0,0,0,0,0,0,0,0,0,0,0,0,0,0,0,0,0,0,0,0,0,0,0,0,0,0,0,0,0,0,0,0,0,0,0,0,0,0,0,0,0,0,0,0,0,0,0,0,0,0,0,0,0,0,0,0,0,0,0,0,0,0,0,0,0,0,0,
0,0,0,0,0,0,0,0,0,0,0,0,0,0,0,0,0,0,0,0,0,0,0,0,0,0,0,0,0,0,0,0,0,0,0,0,0,0,0,0,0,0,0,0,0,0,0,0,0,0,0,0,0,0,0,0,0,0,0,0,0,0,0,0,0,0,0,0,0,0,0,0,0,0,0,0,0,0,0,0,0,0,0,0,0,0,0,0,0,0,0,0,0,0,0,0,0,0,0,0,0,0,0,0,0,0,0,0,0,0,0,0,0,0,0,0,0,0,0,0,
0,0,0,0,0,0,0,0,0,0,0,0,0,0,0,0,0,0,0,0,0,0,0,0,0,0,0,0,0,0,0,0,0,0,0,0,0,0,0,0,0,0,0,0,0,0,0,0,0,0,0,0,0,0,0,0,0,0,0,0,0,0,0,0,0,0,0,0,0,0,0,0,0,0,0,0,0,0,0,0,0,0,0,0,0,0,0,0,0,0,0,0,0,0,0,0,0,0,0,0,0,0,0,0,0,0,0,0,0,0,0,0,0,0,0,0,0,0,0,0,
0,0,0,0,0,0,0,0,0,0,0,0,0,0,0,0,0,0,0,0,0,0,0,0,0,0,0,0,0,0,0,0,0,0,0,0,0,0,0,0,0,0,0,0,0,0,0,0,0,0,0,0,0,0,0,0,0,0,0,0,0,0,0,0,0,0,0,0,0,0,0,0,0,0,0,0,0,0,0,0,0,0,0,0,0,0,0,0,0,0,0,0,0,0,0,0,0,0,0,0,0,0,0,0,0,0,0,0,0,0,0,0,0,0,0,0,0,0,0,0,
0,0,0,0,0,0,0,0,0,0,0,0,0,0,0,0,0,0,0,0,0,0,0,0,0,0,0,0,0,0,0,0,0,0,0,0,0,0,0,0,0,0,0,0,0,0,0,0,0,0,0,0,0,0,0,0,0,0,0,0,0,0,0,0,0,0,0,0,0,0,0,0,0,0,0,0,0,0,0,0,0,0,0,0,0,0,0,0,0,0,0,0,0,0,0,0,0,0,0,0,0,0,0,0,0,0,0,0,0,0,0,0,0,0,0,0,0,0,0,0,
0,0,0,0,0,0,0,0,0,0,0,0,0,0,0,0,0,0,0,0,0,0,0,0,0,0,0,0,0,0,0,0,0,0,0,0,0,0,0,0,0,0,0,0,0,0,0,0,0,0,0,0,0,0,0,0,0,0,0,0,0,0,0,0,0,0,0,0,0,0,0,0,0,0,0,0,0,0,0,0,0,0,0,0,0,0,0,0,0,0,0,0,0,0,0,0,0,0,0,0,0,0,0,0,0,0,0,0,0,0,0,0,0,0,0,0,0,0,0,0,
0,0,0,0,0,0,0,0,0,0,0,0,0,0,0,0,0,0,0,0,0,0,0,0,0,0,0,0,0,0,0,0,0,0,0,0,0,0,0,0,0,0,0,0,0,0,0,0,0,0,0,0,0,0,0,0,0,0,0,0,0,0,0,0,0,0,0,0,0,0,0,0,0,0,0,0,0,0,0,0,0,0,0,0,0,0,0,0,0,0,0,0,0,0,0,0,0,0,0,0,0,0,0,0,0,0,0,0,0,0,0,0,0,0,0,0,0,0,0,0,
0,0,0,0,0,0,0,0,0,0,0,0,0,0,0,0,0,0,0,0,0,0,0,0,0,0,0,0,0,0,0,0,0,0,0,0,0,0,0,0,0,0,0,0,0,0,0,0,0,0,0,0,0,0,0,0,0,0,0,0,0,0,0,0,0,0,0,0,0,0,0,0,0,0,0,0,0,0,0,0,0,0,0,0,0,0,0,0,0,0,0,0,0,0,0,0,0,0,0,0,0,0,0,0,0,0,0,0,0,0,0,0,0,0,0,0,0,0,0,0,
0,0,0,0,0,0,0,0,0,0,0,0,0,0,0,0,0,0,0,0,0,0,0,0,0,0,0,0,0,0,0,0,0,0,0,0,0,0,0,0,0,0,0,0,0,0,0,0,0,0,0,0,0,0,0,0,0,0,0,0,0,0,0,0,0,0,0,0,0,0,0,0,0,0,0,0,0,0,0,0,0,0,0,0,0,0,0,0,0,0,0,0,0,0,0,0,0,0,0,0,0,0,0,0,0,0,0,0,0,0,0,0,0,0,0,0,0,0,0,0,
0,0,0,0,0,0,0,0,0,0,0,0,0,0,0,0,0,0,0,0,0,0,0,0,0,0,0,0,0,0,0,0,0,0,0,0,0,0,0,0,0,0,0,0,0,0,0,0,0,0,0,0,0,0,0,0,0,0,0,0,0,0,0,0,0,0,0,0,0,0,0,0,0,0,0,0,0,0,0,0,0,0,0,0,0,0,0,0,0,0,0,0,0,0,0,0,0,0,0,0,0,0,0,0,0,0,0,0,0,0,0,0,0,0,0,0,0,0,0,0,
0,0,0,0,0,0,0,0,0,0,0,0,0,0,0,0,0,0,0,0,0,0,0,0,0,0,0,0,0,0,0,0,0,0,0,0,0,0,0,0,0,0,0,0,0,0,0,0,0,0,0,0,0,0,0,0,0,0,0,0,0,0,0,0,0,0,0,0,0,0,0,0,0,0,0,0,0,0,0,0,0,0,0,0,0,0,0,0,0,0,0,0,0,0,0,0,0,0,0,0,0,0,0,0,0,0,0,0,0,0,0,0,0,0,0,0,0,0,0,0,
0,0,0,0,0,0,0,0,0,0,0,0,0,0,0,0,0,0,0,0,0,0,0,0,0,0,0,0,0,0,0,0,0,0,0,0,0,0,0,0,0,0,0,0,0,0,0,0,0,0,0,0,0,0,0,0,0,0,0,0,0,0,0,0,0,0,0,0,0,0,0,0,0,0,0,0,0,0,0,0,0,0,0,0,0,0,0,0,0,0,0,0,0,0,0,0,0,0,0,0,0,0,0,0,0,0,0,0,0,0,0,0,0,0,0,0,0,0,0,0,
0,0,0,0,0,0,0,0,0,0,0,0,0,0,0,0,0,0,0,0,0,0,0,0,0,0,0,0,0,0,0,0,0,0,0,0,0,0,0,0,0,0,0,0,0,0,0,0,0,0,0,0,0,0,0,0,0,0,0,0,0,0,0,0,0,0,0,0,0,0,0,0,0,0,0,0,0,0,0,0,0,0,0,0,0,0,0,0,0,0,0,0,0,0,0,0,0,0,0,0,0,0,0,0,0,0,0,0,0,0,0,0,0,0,0,0,0,0,0,0,
0,0,0,0,0,0,0,0,0,0,0,0,0,0,0,0,0,0,0,0,0,0,0,0,0,0,0,0,0,0,0,0,0,0,0,0,0,0,0,0,0,0,0,0,0,0,0,0,0,0,0,0,0,0,0,0,0,0,0,0,0,0,0,0,0,0,0,0,0,0,0,0,0,0,0,0,0,0,0,0,0,0,0,0,0,0,0,0,0,0,0,0,0,0,0,0,0,0,0,0,0,0,0,0,0,0,0,0,0,0,0,0,0,0,0,0,0,0,0,0,
0,0,0,0,0,0,0,0,0,0,0,0,0,0,0,0,0,0,0,0,0,0,0,0,0,0,0,0,0,0,0,0,0,0,0,0,0,0,0,0,0,0,0,0,0,0,0,0,0,0,0,0,0,0,0,0,0,0,0,0,0,0,0,0,0,0,0,0,0,0,0,0,0,0,0,0,0,0,0,0,0,0,0,0,0,0,0,0,0,0,0,0,0,0,0,0,0,0,0,0,0,0,0,0,0,0,0,0,0,0,0,0,0,0,0,0,0,0,0,0,
0,0,0,0,0,0,0,0,0,0,0,0,0,0,0,0,0,0,0,0,0,0,0,0,0,0,0,0,0,0,0,0,0,0,0,0,0,0,0,0,0,0,0,0,0,0,0,0,0,0,0,0,0,0,0,0,0,0,0,0,0,0,0,0,0,0,0,0,0,0,0,0,0,0,0,0,0,0,0,0,0,0,0,0,0,0,0,0,0,0,0,0,0,0,0,0,0,0,0,0,0,0,0,0,0,0,0,0,0,0,0,0,0,0,0,0,0,0,0,0,
0,0,0,0,0,0,0,0,0,0,0,0,0,0,0,0,0,0,0,0,0,0,0,0,0,0,0,0,0,0,0,0,0,0,0,0,0,0,0,0,0,0,0,0,0,0,0,0,0,0,0,0,0,0,0,0,0,0,0,0,0,0,0,0,0,0,0,0,0,0,0,0,0,0,0,0,0,0,0,0,0,0,0,0,0,0,0,0,0,0,0,0,0,0,0,0,0,0,0,0,0,0,0,0,0,0,0,0,0,0,0,0,0,0,0,0,0,0,0,0,
0,0,0,0,0,0,0,0,0,0,0,0,0,0,0,0,0,0,0,0,0,0,0,0,0,0,0,0,0,0,0,0,0,0,0,0,0,0,0,0,0,0,0,0,0,0,0,0,0,0,0,0,0,0,0,0,0,0,0,0,0,0,0,0,0,0,0,0,0,0,0,0,0,0,0,0,0,0,0,0,0,0,0,0,0,0,0,0,0,0,0,0,0,0,0,0,0,0,0,0,0,0,0,0,0,0,0,0,0,0,0,0,0,0,0,0,0,0,0,0,
0,0,0,0,0,0,0,0,0,0,0,0,0,0,0,0,0,0,0,0,0,0,0,0,0,0,0,0,0,0,0,0,0,0,0,0,0,0,0,0,0,0,0,0,0,0,0,0,0,0,0,0,0,0,0,0,0,0,0,0,0,0,0,0,0,0,0,0,0,0,0,0,0,0,0,0,0,0,0,0,0,0,0,0,0,0,0,0,0,0,0,0,0,0,0,0,0,0,0,0,0,0,0,0,0,0,0,0,0,0,0,0,0,0,0,0,0,0,0,0,
0,0,0,0,0,0,0,0,0,0,0,0,0,0,0,0,0,0,0,0,0,0,0,0,0,0,0,0,0,0,0,0,0,0,0,0,0,0,0,0,0,0,0,0,0,0,0,0,0,0,0,0,0,0,0,0,0,0,0,0,0,0,0,0,0,0,0,0,0,0,0,0,0,0,0,0,0,0,0,0,0,0,0,0,0,0,0,0,0,0,0,0,0,0,0,0,0,0,0,0,0,0,0,0,0,0,0,0,0,0,0,0,0,0,0,0,0,0,0,0,
0,0,0,0,0,0,0,0,0,0,0,0,0,0,0,0,0,0,0,0,0,0,0,0,0,0,0,0,0,0,0,0,0,0,0,0,0,0,0,0,0,0,0,0,0,0,0,0,0,0,0,0,0,0,0,0,0,0,0,0,0,0,0,0,0,0,0,0,0,0,0,0,0,0,0,0,0,0,0,0,0,0,0,0,0,0,0,0,0,0,0,0,0,0,0,0,0,0,0,0,0,0,0,0,0,0,0,0,0,0,0,0,0,0,0,0,0,0,0,0,
0,0,0,0,0,0,0,0,0,0,0,0,0,0,0,0,0,0,0,0,0,0,0,0,0,0,0,0,0,0,0,0,0,0,0,0,0,0,0,0,0,0,0,0,0,0,0,0,0,0,0,0,0,0,0,0,0,0,0,0,0,0,0,0,0,0,0,0,0,0,0,0,0,0,0,0,0,0,0,0,0,0,0,0,0,0,0,0,0,0,0,0,0,0,0,0,0,0,0,0,0,0,0,0,0,0,0,0,0,0,0,0,0,0,0,0,0,0,0,0,
0,0,0,0,0,0,0,0,0,0,0,0,0,0,0,0,0,0,0,0,0,0,0,0,0,0,0,0,0,0,0,0,0,0,0,0,0,0,0,0,0,0,0,0,0,0,0,0,0,0,0,0,0,0,0,0,0,0,0,0,0,0,0,0,0,0,0,0,0,0,0,0,0,0,0,0,0,0,0,0,0,0,0,0,0,0,0,0,0,0,0,0,0,0,0,0,0,0,0,0,0,0,0,0,0,0,0,0,0,0,0,0,0,0,0,0,0,0,0,0,
0,0,0,0,0,0,0,0,0,0,0,0,0,0,0,0,0,0,0,0,0,0,0,0,0,0,0,0,0,0,0,0,0,0,0,0,0,0,0,0,0,0,0,0,0,0,0,0,0,0,0,0,0,0,0,0,0,0,0,0,0,0,0,0,0,0,0,0,0,0,0,0,0,0,0,0,0,0,0,0,0,0,0,0,0,0,0,0,0,0,0,0,0,0,0,0,0,0,0,0,0,0,0,0,0,0,0,0,0,0,0,0,0,0,0,0,0,0,0,0,
0,0,0,0,0,0,0,0,0,0,0,0,0,0,0,0,0,0,0,0,0,0,0,0,0,0,0,0,0,0,0,0,0,0,0,0,0,0,0,0,0,0,0,0,0,0,0,0,0,0,0,0,0,0,0,0,0,0,0,0,0,0,0,0,0,0,0,0,0,0,0,0,0,0,0,0,0,0,0,0,0,0,0,0,0,0,0,0,0,0,0,0,0,0,0,0,0,0,0,0,0,0,0,0,0,0,0,0,0,0,0,0,0,0,0,0,0,0,0,0,
0,0,0,0,0,0,0,0,0,0,0,0,0,0,0,0,0,0,0,0,0,0,0,0,0,0,0,0,0,0,0,0,0,0,0,0,0,0,0,0,0,0,0,0,0,0,0,0,0,0,0,0,0,0,0,0,0,0,0,0,0,0,0,0,0,0,0,0,0,0,0,0,0,0,0,0,0,0,0,0,0,0,0,0,0,0,0,0,0,0,0,0,0,0,0,0,0,0,0,0,0,0,0,0,0,0,0,0,0,0,0,0,0,0,0,0,0,0,0,0,
0,0,0,0,0,0,0,0,0,0,0,0,0,0,0,0,0,0,0,0,0,0,0,0,0,0,0,0,0,0,0,0,0,0,0,0,0,0,0,0,0,0,0,0,0,0,0,0,0,0,0,0,0,0,0,0,0,0,0,0,0,0,0,0,0,0,0,0,0,0,0,0,0,0,0,0,0,0,0,0,0,0,0,0,0,0,0,0,0,0,0,0,0,0,0,0,0,0,0,0,0,0,0,0,0,0,0,0,0,0,0,0,0,0,0,0,0,0,0,0,
0,0,0,0,0,0,0,0,0,0,0,0,0,0,0,0,0,0,0,0,0,0,0,0,0,0,0,0,0,0,0,0,0,0,0,0,0,0,0,0,0,0,0,0,0,0,0,0,0,0,0,0,0,0,0,0,0,0,0,0,0,0,0,0,0,0,0,0,0,0,0,0,0,0,0,0,0,0,0,0,0,0,0,0,0,0,0,0,0,0,0,0,0,0,0,0,0,0,0,0,0,0,0,0,0,0,0,0,0,0,0,0,0,0,0,0,0,0,0,0,
0,0,0,0,0,0,0,0,0,0,0,0,0,0,0,0,0,0,0,0,0,0,0,0,0,0,0,0,0,0,0,0,0,0,0,0,0,0,0,0,0,0,0,0,0,0,0,0,0,0,0,0,0,0,0,0,0,0,0,0,0,0,0,0,0,0,0,0,0,0,0,0,0,0,0,0,0,0,0,0,0,0,0,0,0,0,0,0,0,0,0,0,0,0,0,0,0,0,0,0,0,0,0,0,0,0,0,0,0,0,0,0,0,0,0,0,0,0,0,0,
0,0,0,0,0,0,0,0,0,0,0,0,0,0,0,0,0,0,0,0,0,0,0,0,0,0,0,0,0,0,0,0,0,0,0,0,0,0,0,0,0,0,0,0,0,0,0,0,0,0,0,0,0,0,0,0,0,0,0,0,0,0,0,0,0,0,0,0,0,0,0,0,0,0,0,0,0,0,0,0,0,0,0,0,0,0,0,0,0,0,0,0,0,0,0,0,0,0,0,0,0,0,0,0,0,0,0,0,0,0,0,0,0,0,0,0,0,0,0,0,
0,0,0,0,0,0,0,0,0,0,0,0,0,0,0,0,0,0,0,0,0,0,0,0,0,0,0,0,0,0,0,0,0,0,0,0,0,0,0,0,0,0,0,0,0,0,0,0,0,0,0,0,0,0,0,0,0,0,0,0,0,0,0,0,0,0,0,0,0,0,0,0,0,0,0,0,0,0,0,0,0,0,0,0,0,0,0,0,0,0,0,0,0,0,0,0,0,0,0,0,0,0,0,0,0,0,0,0,0,0,0,0,0,0,0,0,0,0,0,0
</data>
 </layer>
 <layer id="11" name="Main-Event" width="120" height="120">
  <data encoding="csv">
0,0,0,0,0,0,0,0,0,0,0,0,0,0,0,0,0,0,0,0,0,0,0,0,0,0,0,0,0,0,0,0,0,0,0,0,0,0,0,0,0,0,0,0,0,0,0,0,0,0,0,0,0,0,0,0,0,0,0,0,0,0,0,0,0,0,0,0,0,0,0,0,0,0,0,0,0,0,0,0,0,0,0,0,0,0,0,0,0,0,0,0,0,0,0,0,0,0,0,0,0,0,0,0,0,0,0,0,0,0,0,0,0,0,0,0,0,0,0,0,
0,0,0,0,0,0,0,0,0,0,0,0,0,0,0,0,0,0,0,0,0,0,0,0,0,0,0,0,0,0,0,0,0,0,0,0,0,0,0,0,0,0,0,0,0,0,0,0,0,0,0,0,0,0,0,0,0,0,0,0,0,0,0,0,0,0,0,0,0,0,0,0,0,0,0,0,0,0,0,0,0,0,0,0,0,0,0,0,0,0,0,0,0,0,0,0,0,0,0,0,0,0,0,0,0,0,0,0,0,0,0,0,0,0,0,0,0,0,0,0,
0,0,0,0,0,0,0,0,0,0,0,0,0,0,0,0,0,0,0,0,0,0,0,0,0,0,0,0,0,0,0,0,0,0,0,0,0,0,0,0,0,0,0,0,0,0,0,0,0,0,0,0,0,0,0,0,0,0,0,0,0,0,0,0,0,0,0,0,0,0,0,0,0,0,0,0,0,0,0,0,0,0,0,0,0,0,0,0,0,0,0,0,0,0,0,0,0,0,0,0,0,0,0,0,0,0,0,0,0,0,0,0,0,0,0,0,0,0,0,0,
0,0,0,0,0,0,0,0,0,0,0,0,0,0,0,0,0,0,0,0,0,0,0,0,0,0,0,0,0,0,0,0,0,0,0,0,0,0,0,0,0,0,0,0,0,0,0,0,0,0,0,0,0,0,0,0,0,0,0,0,0,0,0,0,0,0,0,0,0,0,0,0,0,0,0,0,0,0,0,0,0,0,0,0,0,0,0,0,0,0,0,0,0,0,0,0,0,0,0,0,0,0,0,0,0,0,0,0,0,0,0,0,0,0,0,0,0,0,0,0,
0,0,0,0,0,0,0,0,0,0,0,0,0,0,0,0,0,0,0,0,0,0,0,0,0,0,0,0,0,0,0,0,0,0,0,0,0,0,0,0,0,0,0,0,0,0,0,0,0,0,0,0,0,0,0,0,0,0,0,0,0,0,0,0,0,0,0,0,0,0,0,0,0,0,0,0,0,0,0,0,0,0,0,0,0,0,0,0,0,0,0,0,0,0,0,0,0,0,0,0,0,0,0,0,0,0,0,0,0,0,0,0,0,0,0,0,0,0,0,0,
0,0,0,0,0,0,0,0,0,0,0,0,0,0,0,0,0,0,0,0,0,0,0,0,0,0,0,0,0,0,0,0,0,0,0,0,0,0,0,0,0,0,0,0,0,0,0,0,0,0,0,0,0,0,0,0,0,0,0,0,0,0,0,0,0,0,0,0,0,0,0,0,0,0,0,0,0,0,0,0,0,0,0,0,0,0,0,0,0,0,0,0,0,0,0,0,0,0,0,0,0,0,0,0,0,0,0,0,0,0,0,0,0,0,0,0,0,0,0,0,
0,0,0,0,0,0,0,0,0,0,0,0,0,0,0,0,0,0,0,0,0,0,0,0,0,0,0,0,0,0,0,0,0,0,0,0,0,0,0,0,0,0,0,0,0,0,0,0,0,0,0,0,0,0,0,0,0,0,0,0,0,0,0,0,0,0,0,0,0,0,0,0,0,0,0,0,0,0,0,0,0,0,0,0,0,0,0,0,0,0,0,0,0,0,0,0,0,0,0,0,0,0,0,0,0,0,0,0,0,0,0,0,0,0,0,0,0,0,0,0,
0,0,0,0,0,0,0,0,0,0,0,0,0,0,0,0,0,0,0,0,0,0,0,0,0,0,0,0,0,0,0,0,0,0,0,0,0,0,0,0,0,0,0,0,0,0,0,0,0,0,0,0,0,0,0,0,0,0,0,0,0,0,0,0,0,0,0,0,0,0,0,0,0,0,0,0,0,0,0,0,0,0,0,0,0,0,0,0,0,0,0,0,0,0,0,0,0,0,0,0,0,0,0,0,0,0,0,0,0,0,0,0,0,0,0,0,0,0,0,0,
0,0,0,0,0,0,0,0,0,0,0,0,0,0,0,0,0,0,0,0,0,0,0,0,0,0,0,0,0,0,0,0,0,0,0,0,0,0,0,0,0,0,0,0,0,0,0,0,0,0,0,0,0,0,0,0,0,0,0,0,0,0,0,0,0,0,0,0,0,0,0,0,0,0,0,0,0,0,0,0,0,0,0,0,0,0,0,0,0,0,0,0,0,0,0,0,0,0,0,0,0,0,0,0,0,0,0,0,0,0,0,0,0,0,0,0,0,0,0,0,
0,0,0,0,0,0,0,0,0,0,0,0,0,0,0,0,0,0,0,0,0,0,0,0,0,0,0,0,0,0,0,0,0,0,0,0,0,0,0,0,0,0,0,0,0,0,0,0,0,0,0,0,0,0,0,0,0,0,0,0,0,0,0,0,0,0,0,0,0,0,0,0,0,0,0,0,0,0,0,0,0,0,0,0,0,0,0,0,0,0,0,0,0,0,0,0,0,0,0,0,0,0,0,0,0,0,0,0,0,0,0,0,0,0,0,0,0,0,0,0,
0,0,0,0,0,0,0,0,0,0,0,0,0,0,0,0,0,0,0,0,0,0,0,0,0,0,0,0,0,0,0,0,0,0,0,0,0,0,0,0,0,0,0,0,0,0,0,0,0,0,0,0,0,0,0,0,0,0,0,0,0,0,0,0,0,0,0,0,0,0,0,0,0,0,0,0,0,0,0,0,0,0,0,0,0,0,0,0,0,0,0,0,0,0,0,0,0,0,0,0,0,0,0,0,0,0,0,0,0,0,0,0,0,0,0,0,0,0,0,0,
0,0,0,0,0,0,0,0,0,0,0,0,0,0,0,0,0,0,0,0,0,0,0,0,0,0,0,0,0,0,0,0,0,0,0,0,0,0,0,0,0,0,0,0,0,0,0,0,0,0,0,0,0,0,0,0,0,0,0,0,0,0,0,0,0,0,0,0,0,0,0,0,0,0,0,0,0,0,0,0,0,0,0,0,0,0,0,0,0,0,0,0,0,0,0,0,0,0,0,0,0,0,0,0,0,0,0,0,0,0,0,0,0,0,0,0,0,0,0,0,
0,0,0,0,0,0,0,0,0,0,0,0,0,0,0,0,0,0,0,0,0,0,0,0,0,0,0,0,0,0,0,0,0,0,0,0,0,0,0,0,0,0,0,0,0,0,0,0,0,0,0,0,0,0,0,0,0,0,0,0,0,0,0,0,0,0,0,0,0,0,0,0,0,0,0,0,0,0,0,0,0,0,0,0,0,0,0,0,0,0,0,0,0,0,0,0,0,0,0,0,0,0,0,0,0,0,0,0,0,0,0,0,0,0,0,0,0,0,0,0,
0,0,0,0,0,0,0,0,0,0,0,0,0,0,0,0,0,0,0,0,0,0,0,0,0,0,0,0,0,0,0,0,0,0,0,0,0,0,0,0,0,0,0,0,0,0,0,0,0,0,0,0,0,0,0,0,0,0,0,0,0,0,0,0,0,0,0,0,0,0,0,0,0,0,0,0,0,0,0,0,0,0,0,0,0,0,0,0,0,0,0,0,0,0,0,0,0,0,0,0,0,0,0,0,0,0,0,0,0,0,0,0,0,0,0,0,0,0,0,0,
0,0,0,0,0,0,0,0,0,0,0,0,0,0,0,0,0,0,0,0,0,0,0,0,0,0,0,0,0,0,0,0,0,0,0,0,0,0,0,0,0,0,0,0,0,0,0,0,0,0,0,0,0,0,0,0,0,0,0,0,0,0,0,0,0,0,0,0,0,0,0,0,0,0,0,0,0,0,0,0,0,0,0,0,0,0,0,0,0,0,0,0,0,0,0,0,0,0,0,0,0,0,0,0,0,0,0,0,0,0,0,0,0,0,0,0,0,0,0,0,
0,0,0,0,0,0,0,0,0,0,0,0,0,0,0,0,0,0,0,0,0,0,0,0,0,0,0,0,0,0,0,0,0,0,0,0,0,0,0,0,0,0,0,0,0,0,0,0,0,0,0,0,0,0,0,0,0,0,0,0,0,0,0,0,0,0,0,0,0,0,0,0,0,0,0,0,0,0,0,0,0,0,0,0,0,0,0,0,0,0,0,0,0,0,0,0,0,0,0,0,0,0,0,0,0,0,0,0,0,0,0,0,0,0,0,0,0,0,0,0,
0,0,0,0,0,0,0,0,0,0,0,0,0,0,0,0,0,0,0,0,0,0,0,0,0,0,0,0,0,0,0,0,0,0,0,0,0,0,0,0,0,0,0,0,0,0,0,0,0,0,0,0,0,0,0,0,0,0,0,0,0,0,0,0,0,0,0,0,0,0,0,0,0,0,0,0,0,0,0,0,0,0,0,0,0,0,0,0,0,0,0,0,0,0,0,0,0,0,0,0,0,0,0,0,0,0,0,0,0,0,0,0,0,0,0,0,0,0,0,0,
0,0,0,0,0,0,0,0,0,0,0,0,0,0,0,0,0,0,0,0,0,0,0,0,0,0,0,0,0,0,0,0,0,0,0,0,0,0,0,0,0,0,0,0,0,0,0,0,0,0,0,0,0,0,0,0,0,0,0,0,0,0,0,0,0,0,0,0,0,0,0,0,0,0,0,0,0,0,0,0,0,0,0,0,0,0,0,0,0,0,0,0,0,0,0,0,0,0,0,0,0,0,0,0,0,0,0,0,0,0,0,0,0,0,0,0,0,0,0,0,
0,0,0,0,0,0,0,0,0,0,0,0,0,0,0,0,0,0,0,0,0,0,0,0,0,0,0,0,0,0,0,0,0,0,0,0,0,0,0,0,0,0,0,0,0,0,0,0,0,0,0,0,0,0,0,0,0,0,0,0,0,0,0,0,0,0,0,0,0,0,0,0,0,0,0,0,0,0,0,0,0,0,0,0,0,0,0,0,0,0,0,0,0,0,0,0,0,0,0,0,0,0,0,0,0,0,0,0,0,0,0,0,0,0,0,0,0,0,0,0,
0,0,0,0,0,0,0,0,0,0,0,0,0,0,0,0,0,0,0,0,0,0,0,0,0,0,0,0,0,0,0,0,0,0,0,0,0,0,0,0,0,0,0,0,0,0,0,0,0,0,0,0,0,0,0,0,0,0,0,0,0,0,0,0,0,0,0,0,0,0,0,0,0,0,0,0,0,0,0,0,0,0,0,0,0,0,0,0,0,0,0,0,0,0,0,0,0,0,0,0,0,0,0,0,0,0,0,0,0,0,0,0,0,0,0,0,0,0,0,0,
0,0,0,0,0,0,0,0,0,0,0,0,0,0,0,0,0,0,0,0,0,0,0,0,0,0,0,0,0,0,0,0,0,0,0,0,0,0,0,0,0,0,0,0,0,0,0,0,0,0,0,0,0,0,0,0,0,0,0,0,0,0,0,0,0,0,0,0,0,0,0,0,0,0,0,0,0,0,0,0,0,0,0,0,0,0,0,0,0,0,0,0,0,0,0,0,0,0,0,0,0,0,0,0,0,0,0,0,0,0,0,0,0,0,0,0,0,0,0,0,
0,0,0,0,0,0,0,0,0,0,0,0,0,0,0,0,0,0,0,0,0,0,0,0,0,0,0,0,0,0,0,0,0,0,0,0,0,0,0,0,0,0,0,0,0,0,0,0,0,0,0,0,0,0,0,0,0,0,0,0,0,0,0,0,0,0,0,0,0,0,0,0,0,0,0,0,0,0,0,0,0,0,0,0,0,0,0,0,0,0,0,0,0,0,0,0,0,0,0,0,0,0,0,0,0,0,0,0,0,0,0,0,0,0,0,0,0,0,0,0,
0,0,0,0,0,0,0,0,0,0,0,0,0,0,0,0,0,0,0,0,0,0,0,0,0,0,0,0,0,0,0,0,0,0,0,0,0,0,0,0,0,0,0,0,0,0,0,0,0,0,0,0,0,0,0,0,0,0,0,0,0,0,0,0,0,0,0,0,0,0,0,0,0,0,0,0,0,0,0,0,0,0,0,0,0,0,0,0,0,0,0,0,0,0,0,0,0,0,0,0,0,0,0,0,0,0,0,0,0,0,0,0,0,0,0,0,0,0,0,0,
0,0,0,0,0,0,0,0,0,0,0,0,0,0,0,0,0,0,0,0,0,0,0,0,0,0,0,0,0,0,0,0,0,0,0,0,0,0,0,0,0,0,0,0,0,0,0,0,0,0,0,0,0,0,0,0,0,0,0,0,0,0,0,0,0,0,0,0,0,0,0,0,0,0,0,0,0,0,0,0,0,0,0,0,0,0,0,0,0,0,0,0,0,0,0,0,0,0,0,0,0,0,0,0,0,0,0,0,0,0,0,0,0,0,0,0,0,0,0,0,
0,0,0,0,0,0,0,0,0,0,0,0,0,0,0,0,0,0,0,0,0,0,0,0,0,0,0,0,0,0,0,0,0,0,0,0,0,0,0,0,0,0,0,0,0,0,0,0,0,0,0,0,0,0,0,0,0,0,0,0,0,0,0,0,0,0,0,0,0,0,0,0,0,0,0,0,0,0,0,0,0,0,0,0,0,0,0,0,0,0,0,0,0,0,0,0,0,0,0,0,0,0,0,0,0,0,0,0,0,0,0,0,0,0,0,0,0,0,0,0,
0,0,0,0,0,0,0,0,0,0,0,0,0,0,0,0,0,0,0,0,0,0,0,0,0,0,0,0,0,0,0,0,0,0,0,0,0,0,0,0,0,0,0,0,0,0,0,0,0,0,0,0,0,0,0,0,0,0,0,0,0,0,0,0,0,0,0,0,0,0,0,0,0,0,0,0,0,0,0,0,0,0,0,0,0,0,0,0,0,0,0,0,0,0,0,0,0,0,0,0,0,0,0,0,0,0,0,0,0,0,0,0,0,0,0,0,0,0,0,0,
0,0,0,0,0,0,0,0,0,0,0,0,0,0,0,0,0,0,0,0,0,0,0,0,0,0,0,0,0,0,0,0,0,0,0,0,0,0,0,0,0,0,0,0,0,0,0,0,0,0,0,0,0,0,0,0,0,0,0,0,0,0,0,0,0,0,0,0,0,0,107,0,0,55,63,0,0,0,0,0,0,0,0,0,0,0,0,0,0,0,0,0,0,0,0,0,0,0,0,0,0,0,0,0,0,0,0,0,0,0,0,0,0,0,0,0,0,0,0,0,
0,0,0,0,0,0,0,0,0,0,0,0,0,0,0,0,0,0,0,0,0,0,0,0,0,0,0,0,0,0,0,0,0,0,0,0,0,0,0,0,0,0,0,0,0,0,0,0,0,0,0,0,0,0,0,0,0,0,0,0,0,0,0,0,0,0,0,103,111,0,0,0,119,0,0,0,0,0,0,0,0,0,0,0,0,0,0,0,0,0,0,0,0,0,0,0,0,0,0,0,0,0,0,0,0,0,0,0,0,0,0,0,0,0,0,0,0,0,0,0,
0,0,0,0,0,0,0,0,0,0,0,0,0,0,0,0,0,0,0,0,0,0,0,0,0,0,0,0,0,0,0,0,0,0,0,0,0,0,0,0,0,0,0,0,0,0,0,0,0,0,0,0,0,0,0,0,0,0,0,0,0,0,0,0,0,0,15,0,0,0,0,0,0,0,0,0,59,0,0,0,0,0,0,0,0,0,0,0,0,0,0,0,0,0,0,0,0,0,0,0,0,0,0,0,0,0,0,0,0,0,0,0,0,0,0,0,0,0,0,0,
0,0,0,0,0,0,0,0,0,0,0,0,0,0,0,0,0,0,0,0,0,0,0,0,0,0,0,0,0,0,0,0,0,0,0,0,0,0,0,0,0,0,0,0,0,0,0,0,0,0,0,0,0,0,0,0,0,0,0,0,0,0,0,0,0,0,0,0,0,0,0,0,0,0,0,0,0,0,0,0,0,0,0,0,0,0,0,0,0,0,0,0,0,0,0,0,0,0,0,0,0,0,0,0,0,0,0,0,0,0,0,0,0,0,0,0,0,0,0,0,
0,0,0,0,0,0,0,0,0,0,0,0,0,0,0,0,0,0,0,0,0,0,0,0,0,0,0,0,0,0,0,0,0,0,0,0,0,0,0,0,0,0,0,0,0,0,0,0,0,0,0,0,0,0,0,0,0,0,0,0,0,0,0,0,0,98,0,0,0,0,0,0,0,0,0,0,0,44,0,0,0,0,0,0,0,0,0,0,0,0,0,0,0,0,0,0,0,0,0,0,0,0,0,0,0,0,0,0,0,0,0,0,0,0,0,0,0,0,0,0,
0,0,0,0,0,0,0,0,0,0,0,0,0,0,0,0,0,0,0,0,0,0,0,0,0,0,0,0,0,0,0,0,0,0,0,0,0,0,0,0,0,0,0,0,0,0,0,0,0,0,0,0,0,0,0,0,0,0,0,0,0,0,0,0,0,0,0,0,0,0,0,0,0,0,0,0,0,0,0,32,0,0,0,0,0,0,0,0,0,0,0,0,0,0,0,0,0,0,0,0,0,0,0,0,0,0,0,0,0,0,0,0,0,0,0,0,0,0,0,0,
0,0,0,0,0,0,0,0,0,0,0,0,0,0,0,0,0,0,0,0,0,0,0,0,0,0,0,0,0,0,0,0,0,0,0,0,0,0,0,0,0,0,0,0,0,0,0,0,0,0,0,0,0,0,0,0,0,0,0,0,0,0,0,0,2,0,0,0,0,0,0,71,0,0,0,0,0,0,0,36,0,0,0,0,0,0,0,0,0,0,0,0,0,0,0,0,0,0,0,0,0,0,0,0,0,0,0,0,0,0,0,0,0,0,0,0,0,0,0,0,
0,0,0,0,0,0,0,0,0,0,0,0,0,0,0,0,0,0,0,0,0,0,0,0,0,0,0,0,0,0,0,0,0,0,0,0,0,0,0,0,0,0,0,0,0,0,0,0,0,0,0,0,0,0,0,0,0,0,0,0,0,0,0,6,0,0,0,0,0,0,0,0,0,0,0,0,0,0,0,0,0,0,0,0,0,0,0,0,0,0,0,0,0,0,0,0,0,0,0,0,0,0,0,0,0,0,0,0,0,0,0,0,0,0,0,0,0,0,0,0,
0,0,0,0,0,0,0,0,0,0,0,0,0,0,0,122,0,0,0,0,0,0,0,0,0,0,0,0,0,0,0,0,0,0,0,0,0,0,0,0,0,0,0,0,0,0,0,0,0,0,0,0,0,0,0,0,0,0,0,0,0,0,0,0,0,0,0,0,0,0,0,0,0,0,0,0,0,0,0,40,0,0,0,0,0,0,0,0,0,0,0,0,0,0,0,0,0,0,0,0,0,0,0,0,0,0,0,0,0,0,0,0,0,0,0,0,0,0,0,0,
0,0,0,0,0,0,0,0,0,0,0,0,0,0,0,0,0,0,0,0,0,0,0,0,0,0,0,0,0,0,0,0,0,0,0,0,0,0,0,0,0,0,0,0,0,0,0,0,0,0,0,0,0,0,0,0,0,0,0,0,0,0,0,0,0,22,0,0,0,0,0,0,0,0,0,0,0,0,0,0,0,0,0,0,0,0,0,0,0,0,0,0,0,0,0,0,0,0,0,0,0,0,0,0,0,0,0,0,0,0,0,0,0,0,0,0,0,0,0,0,
0,0,0,0,0,0,0,0,0,0,0,0,0,0,0,0,0,0,0,0,0,0,0,0,0,0,0,0,0,0,0,0,0,0,0,0,0,0,0,0,0,0,0,0,0,0,0,0,0,0,0,0,0,0,0,0,0,0,0,0,0,0,0,66,0,0,0,0,0,0,0,0,0,0,0,19,0,0,88,0,0,0,0,0,0,0,0,0,0,0,0,0,0,0,0,0,0,0,0,0,0,0,0,0,0,0,0,0,0,0,0,0,0,0,0,0,0,0,0,0,
0,0,0,0,0,0,0,0,0,0,0,0,0,0,0,0,0,0,0,0,0,0,0,0,0,0,0,0,0,0,0,0,0,0,0,0,0,0,0,0,0,0,0,0,0,0,0,0,0,0,0,0,0,0,0,0,0,0,0,0,0,0,0,0,0,0,0,0,0,0,0,0,0,0,0,0,0,0,48,0,0,0,0,0,0,0,0,0,0,0,0,0,0,0,0,0,0,0,0,0,0,0,0,0,0,0,0,0,0,0,0,0,0,0,0,0,0,0,0,0,
0,0,0,0,0,0,0,0,0,0,0,0,0,0,0,0,0,0,0,0,0,0,0,0,0,0,0,0,0,0,0,0,0,0,0,0,0,0,0,0,0,0,0,0,0,0,0,0,0,0,0,0,0,0,0,0,0,0,0,0,0,0,0,0,82,0,0,0,0,0,0,91,0,0,0,0,0,0,0,0,0,0,0,0,0,0,0,0,0,0,0,0,0,0,0,0,0,0,0,0,0,0,0,0,0,0,0,0,0,0,0,0,0,0,0,0,0,0,0,0,
0,0,0,0,0,0,0,0,0,0,0,0,0,0,0,0,0,0,0,0,0,0,0,0,0,0,0,0,0,0,0,0,0,0,0,0,0,0,0,0,0,0,0,0,0,0,0,0,0,0,0,0,0,0,0,0,0,0,0,0,0,0,0,0,114,0,0,0,0,0,0,0,0,0,0,0,0,0,0,0,0,0,0,0,0,0,0,0,0,0,0,0,0,0,0,0,0,0,0,0,0,0,0,0,0,0,0,0,0,0,0,0,0,0,0,0,0,0,0,0,
0,0,0,0,0,0,0,0,0,0,0,0,0,0,0,0,0,0,0,0,0,0,0,0,0,0,0,0,0,0,0,0,0,0,0,0,0,0,0,0,0,0,0,0,0,0,0,0,0,0,0,0,0,0,0,0,0,0,0,0,0,0,0,0,0,50,0,0,0,0,0,0,0,0,0,0,0,0,0,0,0,0,0,0,0,0,0,0,0,0,0,0,0,0,0,0,0,0,0,0,0,0,0,0,0,0,0,0,0,0,0,0,0,0,0,0,0,0,0,0,
0,0,0,0,0,0,0,0,0,0,0,0,0,0,0,0,0,0,0,0,0,0,0,0,0,0,0,0,0,0,0,0,0,0,0,0,0,0,0,0,0,0,0,0,0,0,0,0,0,0,0,0,0,0,0,0,0,0,0,0,0,0,0,0,0,0,0,0,0,0,0,0,0,0,0,0,25,0,0,0,0,0,0,0,0,0,0,0,0,0,0,0,0,0,0,0,0,0,0,0,0,0,0,0,0,0,0,0,0,0,0,0,0,0,0,0,0,0,0,0,
0,0,0,0,0,0,0,0,0,0,0,0,0,0,0,0,0,0,0,0,0,0,0,0,0,0,0,0,0,0,0,0,0,0,0,0,0,0,0,0,0,0,0,0,0,0,0,0,0,0,0,0,0,0,0,0,0,0,0,0,0,0,0,0,0,0,0,0,0,0,0,93,0,0,9,0,0,0,0,0,0,0,0,0,0,0,0,0,0,0,0,0,0,0,0,0,0,0,0,0,0,0,0,0,0,0,0,0,0,0,0,0,0,0,0,0,0,0,0,0,
0,0,0,0,0,0,0,0,0,0,0,0,0,0,0,0,0,0,0,0,0,0,0,0,0,0,0,0,0,0,0,0,0,0,0,0,0,0,0,0,0,0,0,0,0,0,0,0,0,0,0,0,0,0,0,0,0,0,0,0,0,0,0,0,0,0,0,0,137,73,0,0,0,0,0,0,0,0,0,0,0,0,0,0,0,0,0,0,0,0,0,0,0,0,0,0,0,0,0,0,0,0,0,0,0,0,0,0,0,0,0,0,0,0,0,0,0,0,0,0,
0,0,0,0,0,0,0,0,0,0,0,0,0,0,0,0,0,0,0,0,0,0,0,0,0,0,0,0,0,0,0,0,0,0,0,0,0,0,0,0,0,0,0,0,0,0,0,0,0,0,0,0,0,0,0,0,0,0,0,0,0,0,0,0,0,0,0,0,0,0,0,0,0,0,0,0,0,0,0,0,0,0,0,0,0,0,0,0,0,0,0,0,0,0,0,0,0,0,0,0,0,0,0,0,0,0,0,0,0,0,0,0,0,0,0,0,0,0,0,0,
0,0,0,0,0,0,0,0,0,0,0,0,0,0,0,0,0,0,0,0,0,0,0,0,0,0,0,0,0,0,0,0,0,0,0,0,0,0,0,0,0,0,0,0,0,0,0,0,0,0,0,0,0,0,0,0,0,0,0,0,0,0,0,0,0,0,0,0,0,0,0,0,0,0,0,0,0,0,0,0,0,0,0,0,0,0,0,0,0,0,0,0,0,0,0,0,0,0,0,0,0,0,0,0,0,0,0,0,0,0,0,0,0,0,0,0,0,0,0,0,
0,0,0,0,0,0,0,0,0,0,0,0,0,0,0,0,0,0,0,0,0,0,0,0,0,0,0,0,0,0,0,0,0,0,0,0,0,0,0,0,0,0,0,0,0,0,0,0,0,0,0,0,0,0,0,0,0,0,0,0,0,0,0,0,0,0,0,0,0,0,0,0,0,0,0,0,0,0,0,0,0,0,0,0,0,0,0,0,0,0,0,0,0,0,0,0,0,0,0,0,0,0,0,0,0,0,0,0,0,0,0,0,0,0,0,0,0,0,0,0,
0,0,0,0,0,0,0,0,0,0,0,0,0,0,0,0,0,0,0,0,0,0,0,0,0,0,0,0,0,0,0,0,0,0,0,0,0,0,0,0,0,0,0,0,0,0,0,0,0,0,0,0,0,0,0,0,0,0,0,0,0,0,0,0,0,0,0,0,0,0,0,0,0,0,0,0,0,0,0,0,0,0,0,0,0,0,0,0,0,0,0,0,0,0,0,0,0,0,0,0,0,0,0,0,0,0,0,0,0,0,0,0,0,0,0,0,0,0,0,0,
0,0,0,0,0,0,0,0,0,0,0,0,0,0,0,0,0,0,0,0,0,0,0,0,0,0,0,0,0,0,0,0,0,0,0,0,0,0,0,0,0,0,0,0,0,0,0,0,0,0,0,0,0,0,0,0,0,0,0,0,0,0,0,0,0,0,0,0,0,0,0,0,0,0,0,0,0,0,0,0,0,0,0,0,0,0,0,0,0,0,0,0,0,0,0,0,0,0,0,0,0,0,0,0,0,0,0,0,0,0,0,0,0,0,0,0,0,0,0,0,
0,0,0,0,0,0,0,0,0,0,0,0,0,0,0,0,0,0,0,0,0,0,0,0,0,0,0,0,0,0,0,0,0,0,0,0,0,0,0,0,0,0,0,0,0,0,0,0,0,0,0,0,0,0,0,0,0,0,0,0,0,0,0,0,0,0,0,0,0,0,0,0,0,0,0,0,0,0,0,0,0,0,0,0,0,0,0,0,0,0,0,0,0,0,0,0,0,0,0,0,0,0,0,0,0,0,0,0,0,0,0,0,0,0,0,0,0,0,0,0,
0,0,0,0,0,0,0,0,0,0,0,0,0,0,0,0,0,0,0,0,0,0,0,0,0,0,0,0,0,0,0,0,0,0,0,0,0,0,0,0,0,0,0,0,0,0,0,0,0,0,0,0,0,0,0,0,0,0,0,0,0,0,0,0,0,0,0,0,0,0,0,0,0,0,0,79,0,0,0,0,0,0,0,0,0,0,0,0,0,0,0,0,0,0,0,0,0,0,0,0,0,0,0,0,0,0,0,0,0,0,0,0,0,0,0,0,0,0,0,0,
0,0,0,0,0,0,0,0,0,0,0,0,0,0,0,0,0,0,0,0,0,0,0,0,0,0,0,0,0,0,0,0,0,0,0,0,0,0,0,0,0,0,0,0,0,0,0,0,0,0,0,0,0,0,0,0,0,0,0,0,0,0,0,0,0,0,0,0,0,0,0,0,0,0,0,0,0,0,0,0,0,0,0,0,0,0,0,0,0,0,0,0,0,0,0,0,0,0,0,0,0,0,0,0,0,0,0,0,0,0,0,0,0,0,0,0,0,0,0,0,
0,0,0,0,0,0,0,0,0,0,0,0,0,0,0,0,0,0,0,0,0,0,0,0,0,0,0,0,0,0,0,0,0,0,0,0,0,0,0,0,0,0,0,0,0,0,0,0,0,0,0,0,0,0,0,0,0,0,0,0,0,0,0,0,0,0,0,0,0,0,0,0,0,0,0,0,0,0,0,0,0,0,0,0,0,0,0,0,0,0,0,0,0,0,0,0,0,0,0,0,0,0,0,0,0,0,0,0,0,0,0,0,0,0,0,0,0,0,0,0,
0,0,0,0,0,0,0,0,0,0,0,0,0,0,0,0,0,0,0,0,0,0,0,0,0,0,0,0,0,0,0,0,0,0,0,0,0,0,0,0,0,0,0,0,0,0,0,0,0,0,0,0,0,0,0,0,0,0,0,0,0,0,0,0,0,0,0,0,0,0,0,0,0,0,0,0,0,0,0,0,0,0,0,0,0,0,0,0,0,0,0,0,0,0,0,0,0,0,0,0,0,0,0,0,0,0,0,0,0,0,0,0,0,0,0,0,0,0,0,0,
0,0,0,0,0,0,0,0,0,0,0,0,0,0,0,0,0,0,0,0,0,0,0,0,0,0,0,0,0,0,0,0,0,0,0,0,0,0,0,0,0,0,0,0,0,0,0,0,0,0,0,0,0,0,0,0,0,0,0,0,0,0,0,0,0,0,0,0,0,0,0,0,0,0,0,0,0,0,0,0,0,0,0,0,0,0,0,0,0,0,0,0,0,0,0,0,0,0,0,0,0,0,0,0,0,0,0,0,0,0,0,0,0,0,0,0,0,0,0,0,
0,0,0,0,0,0,0,0,0,0,0,0,0,0,0,0,0,0,0,0,0,0,0,0,0,0,0,0,0,0,0,0,0,0,0,0,0,0,0,0,0,0,0,0,0,0,0,0,0,0,0,0,0,0,0,0,0,0,0,0,0,0,0,0,0,0,0,0,0,0,0,0,0,0,0,0,0,0,0,0,0,0,0,0,0,0,0,0,0,0,0,0,0,0,0,0,0,0,0,0,0,0,0,0,0,0,0,0,0,0,0,0,0,0,0,0,0,0,0,0,
0,0,0,0,0,0,0,0,0,0,0,0,0,0,0,0,0,0,0,0,0,0,0,0,0,0,0,0,0,0,0,0,0,0,0,0,0,0,0,0,0,0,0,0,0,0,0,0,0,0,0,0,0,0,0,0,0,0,0,0,0,0,0,0,0,0,0,0,0,0,0,0,0,0,0,0,0,0,0,0,0,0,0,0,0,0,0,0,0,0,0,0,0,0,0,0,0,0,0,0,0,0,0,0,0,0,0,0,0,0,0,0,0,0,0,0,0,0,0,0,
0,0,0,0,0,0,0,0,0,0,0,0,0,0,0,0,0,0,0,0,0,0,0,0,0,0,0,0,0,0,0,0,0,0,0,0,0,0,0,0,0,0,0,0,0,0,0,0,0,0,0,0,0,0,0,0,0,0,0,0,0,0,0,0,0,0,0,0,0,0,0,0,0,0,0,0,0,0,0,0,0,0,0,0,0,0,0,0,0,0,0,0,0,0,0,0,0,0,0,0,0,0,0,0,0,0,0,0,0,0,0,0,0,0,0,0,0,0,0,0,
0,0,0,0,0,0,0,0,0,0,0,0,0,0,0,0,0,0,0,0,0,0,0,0,0,0,0,0,0,0,0,0,0,0,0,0,0,0,0,0,0,0,0,0,0,0,0,0,0,0,0,0,0,0,0,0,0,0,0,0,0,0,0,0,0,0,0,0,0,0,0,0,0,0,0,0,0,0,0,0,0,0,0,0,0,0,0,0,0,0,0,0,0,0,0,0,0,0,0,0,0,0,0,0,0,0,0,0,0,0,0,0,0,0,0,0,0,0,0,0,
0,0,0,0,0,0,0,0,0,0,0,0,0,0,0,0,0,0,0,0,0,0,0,0,0,0,0,0,0,0,0,0,0,0,0,0,0,0,0,0,0,0,0,0,0,0,0,0,0,0,0,0,0,0,0,0,0,0,0,0,0,0,0,0,0,0,0,0,0,0,0,0,0,0,0,0,0,0,0,0,0,0,0,0,0,0,0,0,0,0,0,0,0,0,0,0,0,0,0,0,0,0,0,0,0,0,0,0,0,0,0,0,0,0,0,0,0,0,0,0,
0,0,0,0,0,0,0,0,0,0,0,0,0,0,0,0,0,0,0,0,0,0,0,0,0,0,0,0,0,0,0,0,0,0,0,0,0,0,0,0,0,0,0,0,0,0,0,0,0,0,0,0,0,0,0,0,0,0,0,0,0,0,0,0,0,0,0,0,0,0,0,0,0,0,0,0,0,0,0,0,0,0,0,0,0,0,0,0,0,0,0,0,0,0,0,0,0,0,0,0,0,0,0,0,0,0,0,0,0,0,0,0,0,0,0,0,0,0,0,0,
0,0,0,0,0,0,0,0,0,0,0,0,0,0,0,0,0,0,0,0,0,0,0,0,0,0,0,0,0,0,0,0,0,0,0,0,0,0,0,0,0,0,0,0,0,0,0,0,0,0,0,0,0,0,0,0,0,0,0,0,0,0,0,0,0,0,0,0,0,0,0,0,0,0,0,0,0,0,0,0,0,0,0,0,0,0,0,0,0,0,0,0,0,0,0,0,0,0,0,0,0,0,0,0,0,0,0,0,0,0,0,0,0,0,0,0,0,0,0,0,
0,0,0,0,0,0,0,0,0,0,0,0,0,0,0,0,0,0,0,0,0,0,0,0,0,0,0,0,0,0,0,0,0,0,0,0,0,0,0,0,0,0,0,0,0,0,0,0,0,0,0,0,0,0,0,0,0,0,0,0,0,0,0,0,0,0,0,0,0,0,0,0,0,0,0,0,0,0,0,0,0,0,0,0,0,0,0,0,0,0,0,0,0,0,0,0,0,0,0,0,0,0,0,0,0,0,0,0,0,0,0,0,0,0,0,0,0,0,0,0,
0,0,0,0,0,0,0,0,0,0,0,0,0,0,0,0,0,0,0,0,0,0,0,0,0,0,0,0,0,0,0,0,0,0,0,0,0,0,0,0,0,0,0,0,0,0,0,0,0,0,0,0,0,0,0,0,0,0,0,0,0,0,0,0,0,0,0,0,0,0,0,0,0,0,0,0,0,0,0,0,0,0,0,0,0,0,0,0,0,0,0,0,0,0,0,0,0,0,0,0,0,0,0,0,0,0,0,0,0,0,0,0,0,0,0,0,0,0,0,0,
0,0,0,0,0,0,0,0,0,0,0,0,0,0,0,0,0,0,0,0,0,0,0,0,0,0,0,0,0,0,0,0,0,0,0,0,0,0,0,0,0,0,0,0,0,0,0,0,0,0,0,0,0,0,0,0,0,0,0,0,0,0,0,0,0,0,0,0,0,0,0,0,0,0,0,0,0,0,0,0,0,0,0,0,0,0,0,0,0,0,0,0,0,0,0,0,0,0,0,0,0,0,0,0,0,0,0,0,0,0,0,0,0,0,0,0,0,0,0,0,
0,0,0,0,0,0,0,0,0,0,0,0,0,0,0,0,0,0,0,0,0,0,0,0,0,0,0,0,0,0,0,0,0,0,0,0,0,0,0,0,0,0,0,0,0,0,0,0,0,0,0,0,0,0,0,0,0,0,0,0,0,0,0,0,0,0,0,0,0,0,0,0,0,0,0,0,0,0,0,0,0,0,0,0,0,0,0,0,0,0,0,0,0,0,0,0,0,0,0,0,0,0,0,0,0,0,0,0,0,0,0,0,0,0,0,0,0,0,0,0,
0,0,0,0,0,0,0,0,0,0,0,0,0,0,0,0,0,0,0,0,0,0,0,0,0,0,0,0,0,0,0,0,0,0,0,0,0,0,0,0,0,0,0,0,0,0,0,0,0,0,0,0,0,0,0,0,0,0,0,0,0,0,0,0,0,0,0,0,0,0,0,0,0,0,0,0,0,0,0,0,0,0,0,0,0,0,0,0,0,0,0,0,0,0,0,0,0,0,0,0,0,0,0,0,0,0,0,0,0,0,0,0,0,0,0,0,0,0,0,0,
0,0,0,0,0,0,0,0,0,0,0,0,0,0,0,0,0,0,0,0,0,0,0,0,0,0,0,0,0,0,0,0,0,0,0,0,0,0,0,0,0,0,0,0,0,0,0,0,0,0,0,0,0,0,0,0,0,0,0,0,0,0,0,0,0,0,0,0,0,0,0,0,0,0,0,0,0,0,0,0,0,0,0,0,0,0,0,0,0,0,0,0,0,0,0,0,0,0,0,0,0,0,0,0,0,0,0,0,0,0,0,0,0,0,0,0,0,0,0,0,
0,0,0,0,0,0,0,0,0,0,0,0,0,0,0,0,0,0,0,0,0,0,0,0,0,0,0,0,0,0,0,0,0,0,0,0,0,0,0,0,0,0,0,0,0,0,0,0,0,0,0,0,0,0,0,0,0,0,0,0,0,0,0,0,0,0,0,0,0,0,0,0,0,0,0,0,0,0,0,0,0,0,0,0,0,0,0,0,0,0,0,0,0,0,0,0,0,0,0,0,0,0,0,0,0,0,0,0,0,0,0,0,0,0,0,0,0,0,0,0,
0,0,0,0,0,0,0,0,0,0,0,0,0,0,0,0,0,0,0,0,0,0,0,0,0,0,0,0,0,0,0,0,0,0,0,0,0,0,0,0,0,0,0,0,0,0,0,0,0,0,0,0,0,0,0,0,0,0,0,0,0,0,0,0,0,0,0,0,0,0,0,0,0,0,0,0,0,0,0,0,0,0,0,0,0,0,0,0,0,0,0,0,0,0,0,0,0,0,0,0,0,0,0,0,0,0,0,0,0,0,0,0,0,0,0,0,0,0,0,0,
0,0,0,0,0,0,0,0,0,0,0,0,0,0,0,0,0,0,0,0,0,0,0,0,0,0,0,0,0,0,0,0,0,0,0,0,0,0,0,0,0,0,0,0,0,0,0,0,0,0,0,0,0,0,0,0,0,0,0,0,0,0,0,0,0,0,0,0,0,0,0,0,0,0,0,0,0,0,0,0,0,0,0,0,0,0,0,0,0,0,0,0,0,0,0,0,0,0,0,0,0,0,0,0,0,0,0,0,0,0,0,0,0,0,0,0,0,0,0,0,
0,0,0,0,0,0,0,0,0,0,0,0,0,0,0,0,0,0,0,0,0,0,0,0,0,0,0,0,0,0,0,0,0,0,0,0,0,0,0,0,0,0,0,0,0,0,0,0,0,0,0,0,0,0,0,0,0,0,0,0,0,0,0,0,0,0,0,0,0,0,0,0,0,0,0,0,0,0,0,0,0,0,0,0,0,0,0,0,0,0,0,0,0,0,0,0,0,0,0,0,0,0,0,0,0,0,0,0,0,0,0,0,0,0,0,0,0,0,0,0,
0,0,0,0,0,0,0,0,0,0,0,0,0,0,0,0,0,0,0,0,0,0,0,0,0,0,0,0,0,0,0,0,0,0,0,0,0,0,0,0,0,0,0,0,0,0,0,0,0,0,0,0,0,0,0,0,0,0,0,0,0,0,0,0,0,0,0,0,0,0,0,0,0,0,0,0,0,0,0,0,0,0,0,0,0,0,0,0,0,0,0,0,0,0,0,0,0,0,0,0,0,0,0,0,0,0,0,0,0,0,0,0,0,0,0,0,0,0,0,0,
0,0,0,0,0,0,0,0,0,0,0,0,0,0,0,0,0,0,0,0,0,0,0,0,0,0,0,0,0,0,0,0,0,0,0,0,0,0,0,0,0,0,0,0,0,0,0,0,0,0,0,0,0,0,0,0,0,0,0,0,0,0,0,0,0,0,0,0,0,0,0,0,0,0,0,0,0,0,0,0,0,0,0,0,0,0,0,0,0,0,0,0,0,0,0,0,0,0,0,0,0,0,0,0,0,0,0,0,0,0,0,0,0,0,0,0,0,0,0,0,
0,0,0,0,0,0,0,0,0,0,0,0,0,0,0,0,0,0,0,0,0,0,0,0,0,0,0,0,0,0,0,0,0,0,0,0,0,0,0,0,0,0,0,0,0,0,0,0,0,0,0,0,0,0,0,0,0,0,0,0,0,0,0,0,0,0,0,0,0,0,0,0,0,0,0,0,0,0,0,0,0,0,0,0,0,0,0,0,0,0,0,0,0,0,0,0,0,0,0,0,0,0,0,0,0,0,0,0,0,0,0,0,0,0,0,0,0,0,0,0,
0,0,0,0,0,0,0,0,0,0,0,0,0,0,0,0,0,0,0,0,0,0,0,0,0,0,0,0,0,0,0,0,0,0,0,0,0,0,0,0,0,0,0,0,0,0,0,0,0,0,0,0,0,0,0,0,0,0,0,0,0,0,0,0,0,0,0,0,0,0,0,0,0,0,0,0,0,0,0,0,0,0,0,0,0,0,0,0,0,0,0,0,0,0,0,0,0,0,0,0,0,0,0,0,0,0,0,0,0,0,0,0,0,0,0,0,0,0,0,0,
0,0,0,0,0,0,0,0,0,0,0,0,0,0,0,0,0,0,0,0,0,0,0,0,0,0,0,0,0,0,0,0,0,0,0,0,0,0,0,0,0,0,0,0,0,0,0,0,0,0,0,0,0,0,0,0,0,0,0,0,0,0,0,0,0,0,0,0,0,0,0,0,0,0,0,0,0,0,0,0,0,0,0,0,0,0,0,0,0,0,0,0,0,0,0,0,0,0,0,0,0,0,0,0,0,0,0,0,0,0,0,0,0,0,0,0,0,0,0,0,
0,0,0,0,0,0,0,0,0,0,0,0,0,0,0,0,0,0,0,0,0,0,0,0,0,0,0,0,0,0,0,0,0,0,0,0,0,0,0,0,0,0,0,0,0,0,0,0,0,0,0,0,0,0,0,0,0,0,0,0,0,0,0,0,0,0,0,0,0,0,0,0,0,0,0,0,0,0,0,0,0,0,0,0,0,0,0,0,0,0,0,0,0,0,0,0,0,0,0,0,0,0,0,0,0,0,0,0,0,0,0,0,0,0,0,0,0,0,0,0,
0,0,0,0,0,0,0,0,0,0,0,0,0,0,0,0,0,0,0,0,0,0,0,0,0,0,0,0,0,0,0,0,0,0,0,0,0,0,0,0,0,0,0,0,0,0,0,0,0,0,0,0,0,0,0,0,0,0,0,0,0,0,0,0,0,0,0,0,0,0,0,0,0,0,0,0,0,0,0,0,0,0,0,0,0,0,0,0,0,0,0,0,0,0,0,0,0,0,0,0,0,0,0,0,0,0,0,0,0,0,0,0,0,0,0,0,0,0,0,0,
0,0,0,0,0,0,0,0,0,0,0,0,0,0,0,0,0,0,0,0,0,0,0,0,0,0,0,0,0,0,0,0,0,0,0,0,0,0,0,0,0,0,0,0,0,0,0,0,0,0,0,0,0,0,0,0,0,0,0,0,0,0,0,0,0,0,0,0,0,0,0,0,0,0,0,0,0,0,0,0,0,0,0,0,0,0,0,0,0,0,0,0,0,0,0,0,0,0,0,0,0,0,0,0,0,0,0,0,0,0,0,0,0,0,0,0,0,0,0,0,
0,0,0,0,0,0,0,0,0,0,0,0,0,0,0,0,0,0,0,0,0,0,0,0,0,0,0,0,0,0,0,0,0,0,0,0,0,0,0,0,0,0,0,0,0,0,0,0,0,0,0,0,0,0,0,0,0,0,0,0,0,0,0,0,0,0,0,0,0,0,0,0,0,0,0,0,0,0,0,0,0,0,0,0,0,0,0,0,0,0,0,0,0,0,0,0,0,0,0,0,0,0,0,0,0,0,0,0,0,0,0,0,0,0,0,0,0,0,0,0,
0,0,0,0,0,0,0,0,0,0,0,0,0,0,0,0,0,0,0,0,0,0,0,0,0,0,0,0,0,0,0,0,0,0,0,0,0,0,0,0,0,0,0,0,0,0,0,0,0,0,0,0,0,0,0,0,0,0,0,0,0,0,0,0,0,0,0,0,0,0,0,0,0,0,0,0,0,0,0,0,0,0,0,0,0,0,0,0,0,0,0,0,0,0,0,0,0,0,0,0,0,0,0,0,0,0,0,0,0,0,0,0,0,0,0,0,0,0,0,0,
0,0,0,0,0,0,0,0,0,0,0,0,0,0,0,0,0,0,0,0,0,0,0,0,0,0,0,0,0,0,0,0,0,0,0,0,0,0,0,0,0,0,0,0,0,0,0,0,0,0,0,0,0,0,0,0,0,0,0,0,0,0,0,0,0,0,0,0,0,0,0,0,0,0,0,0,0,0,0,0,0,0,0,0,0,0,0,0,0,0,0,0,0,0,0,0,0,0,0,0,0,0,0,0,0,0,0,0,0,0,0,0,0,0,0,0,0,0,0,0,
0,0,0,0,0,0,0,0,0,0,0,0,0,0,0,0,0,0,0,0,0,0,0,0,0,0,0,0,0,0,0,0,0,0,0,0,0,0,0,0,0,0,0,0,0,0,0,0,0,0,0,0,0,0,0,0,0,0,0,0,0,0,0,0,0,0,0,0,0,0,0,0,0,0,0,0,0,0,0,0,0,0,0,0,0,0,0,0,0,0,0,0,0,0,0,0,0,0,0,0,0,0,0,0,0,0,0,0,0,0,0,0,0,0,0,0,0,0,0,0,
0,0,0,0,0,0,0,0,0,0,0,0,0,0,0,0,0,0,0,0,0,0,0,0,0,0,0,0,0,0,0,0,0,0,0,0,0,0,0,0,0,0,0,0,0,0,0,0,0,0,0,0,0,0,0,0,0,0,0,0,0,0,0,0,0,0,0,0,0,0,0,0,0,0,0,0,0,0,0,0,0,0,0,0,0,0,0,0,0,0,0,0,0,0,0,0,0,0,0,0,0,0,0,0,0,0,0,0,0,0,0,0,0,0,0,0,0,0,0,0,
0,0,0,0,0,0,0,0,0,0,0,0,0,0,0,0,0,0,0,0,0,0,0,0,0,0,0,0,0,0,0,0,0,0,0,0,0,0,0,0,0,0,0,0,0,0,0,0,0,0,0,0,0,0,0,0,0,0,0,0,0,0,0,0,0,0,0,0,0,0,0,0,0,0,0,0,0,0,0,0,0,0,0,0,0,0,0,0,0,0,0,0,0,0,0,0,0,0,0,0,0,0,0,0,0,0,0,0,0,0,0,0,0,0,0,0,0,0,0,0,
0,0,0,0,0,0,0,0,0,0,0,0,0,0,0,0,0,0,0,0,0,0,0,0,0,0,0,0,0,0,0,0,0,0,0,0,0,0,0,0,0,0,0,0,0,0,0,0,0,0,0,0,0,0,0,0,0,0,0,0,0,0,0,0,0,0,0,0,0,0,0,0,0,0,0,0,0,0,0,0,0,0,0,0,0,0,0,0,0,0,0,0,0,0,0,0,0,0,0,0,0,0,0,0,0,0,0,0,0,0,0,0,0,0,0,0,0,0,0,0,
0,0,0,0,0,0,0,0,0,0,0,0,0,0,0,0,0,0,0,0,0,0,0,0,0,0,0,0,0,0,0,0,0,0,0,0,0,0,0,0,0,0,0,0,0,0,0,0,0,0,0,0,0,0,0,0,0,0,0,0,0,0,0,0,0,0,0,0,0,0,0,0,0,0,0,0,0,0,0,0,0,0,0,0,0,0,0,0,0,0,0,0,0,0,0,0,0,0,0,0,0,0,0,0,0,0,0,0,0,0,0,0,0,0,0,0,0,0,0,0,
0,0,0,0,0,0,0,0,0,0,0,0,0,0,0,0,0,0,0,0,0,0,0,0,0,0,0,0,0,0,0,0,0,0,0,0,0,0,0,0,0,0,0,0,0,0,0,0,0,0,0,0,0,0,0,0,0,0,0,0,0,0,0,0,0,0,0,0,0,0,0,0,0,0,0,0,0,0,0,0,0,0,0,0,0,0,0,0,0,0,0,0,0,0,0,0,0,0,0,0,0,0,0,0,0,0,0,0,0,0,0,0,0,0,0,0,0,0,0,0,
0,0,0,0,0,0,0,0,0,0,0,0,0,0,0,0,0,0,0,0,0,0,0,0,0,0,0,0,0,0,0,0,0,0,0,0,0,0,0,0,0,0,0,0,0,0,0,0,0,0,0,0,0,0,0,0,0,0,0,0,0,0,0,0,0,0,0,0,0,0,0,0,0,0,0,0,0,0,0,0,0,0,0,0,0,0,0,0,0,0,0,0,0,0,0,0,0,0,0,0,0,0,0,0,0,0,0,0,0,0,0,0,0,0,0,0,0,0,0,0,
0,0,0,0,0,0,0,0,0,0,0,0,0,0,0,0,0,0,0,0,0,0,0,0,0,0,0,0,0,0,0,0,0,0,0,0,0,0,0,0,0,0,0,0,0,0,0,0,0,0,0,0,0,0,0,0,0,0,0,0,0,0,0,0,0,0,0,0,0,0,0,0,0,0,0,0,0,0,0,0,0,0,0,0,0,0,0,0,0,0,0,0,0,0,0,0,0,0,0,0,0,0,0,0,0,0,0,0,0,0,0,0,0,0,0,0,0,0,0,0,
0,0,0,0,0,0,0,0,0,0,0,0,0,0,0,0,0,0,0,0,0,0,0,0,0,0,0,0,0,0,0,0,0,0,0,0,0,0,0,0,0,0,0,0,0,0,0,0,0,0,0,0,0,0,0,0,0,0,0,0,0,0,0,0,0,0,0,0,0,0,0,0,0,0,0,0,0,0,0,0,0,0,0,0,0,0,0,0,0,0,0,0,0,0,0,0,0,0,0,0,0,0,0,0,0,0,0,0,0,0,0,0,0,0,0,0,0,0,0,0,
0,0,0,0,0,0,0,0,0,0,0,0,0,0,0,0,0,0,0,0,0,0,0,0,0,0,0,0,0,0,0,0,0,0,0,0,0,0,0,0,0,0,0,0,0,0,0,0,0,0,0,0,0,0,0,0,0,0,0,0,0,0,0,0,0,0,0,0,0,0,0,0,0,0,0,0,0,0,0,0,0,0,0,0,0,0,0,0,0,0,0,0,0,0,0,0,0,0,0,0,0,0,0,0,0,0,0,0,0,0,0,0,0,0,0,0,0,0,0,0,
0,0,0,0,0,0,0,0,0,0,0,0,0,0,0,0,0,0,0,0,0,0,0,0,0,0,0,0,0,0,0,0,0,0,0,0,0,0,0,0,0,0,0,0,0,0,0,0,0,0,0,0,0,0,0,0,0,0,0,0,0,0,0,0,0,0,0,0,0,0,0,0,0,0,0,0,0,0,0,0,0,0,0,0,0,0,0,0,0,0,0,0,0,0,0,0,0,0,0,0,0,0,0,0,0,0,0,0,0,0,0,0,0,0,0,0,0,0,0,0,
0,0,0,0,0,0,0,0,0,0,0,0,0,0,0,0,0,0,0,0,0,0,0,0,0,0,0,0,0,0,0,0,0,0,0,0,0,0,0,0,0,0,0,0,0,0,0,0,0,0,0,0,0,0,0,0,0,0,0,0,0,0,0,0,0,0,0,0,0,0,0,0,0,0,0,0,0,0,0,0,0,0,0,0,0,0,0,0,0,0,0,0,0,0,0,0,0,0,0,0,0,0,0,0,0,0,0,0,0,0,0,0,0,0,0,0,0,0,0,0,
0,0,0,0,0,0,0,0,0,0,0,0,0,0,0,0,0,0,0,0,0,0,0,0,0,0,0,0,0,0,0,0,0,0,0,0,0,0,0,0,0,0,0,0,0,0,0,0,0,0,0,0,0,0,0,0,0,0,0,0,0,0,0,0,0,0,0,0,0,0,0,0,0,0,0,0,0,0,0,0,0,0,0,0,0,0,0,0,0,0,0,0,0,0,0,0,0,0,0,0,0,0,0,0,0,0,0,0,0,0,0,0,0,0,0,0,0,0,0,0,
0,0,0,0,0,0,0,0,0,0,0,0,0,0,0,0,0,0,0,0,0,0,0,0,0,0,0,0,0,0,0,0,0,0,0,0,0,0,0,0,0,0,0,0,0,0,0,0,0,0,0,0,0,0,0,0,0,0,0,0,0,0,0,0,0,0,0,0,0,0,0,0,0,0,0,0,0,0,0,0,0,0,0,0,0,0,0,0,0,0,0,0,0,0,0,0,0,0,0,0,0,0,0,0,0,0,0,0,0,0,0,0,0,0,0,0,0,0,0,0,
0,0,0,0,0,0,0,0,0,0,0,0,0,0,0,0,0,0,0,0,0,0,0,0,0,0,0,0,0,0,0,0,0,0,0,0,0,0,0,0,0,0,0,0,0,0,0,0,0,0,0,0,0,0,0,0,0,0,0,0,0,0,0,0,0,0,0,0,0,0,0,0,0,0,0,0,0,0,0,0,0,0,0,0,0,0,0,0,0,0,0,0,0,0,0,0,0,0,0,0,0,0,0,0,0,0,0,0,0,0,0,0,0,0,0,0,0,0,0,0,
0,0,0,0,0,0,0,0,0,0,0,0,0,0,0,0,0,0,0,0,0,0,0,0,0,0,0,0,0,0,0,0,0,0,0,0,0,0,0,0,0,0,0,0,0,0,0,0,0,0,0,0,0,0,0,0,0,0,0,0,0,0,0,0,0,0,0,0,0,0,0,0,0,0,0,0,0,0,0,0,0,0,0,0,0,0,0,0,0,0,0,0,0,0,0,0,0,0,0,0,0,0,0,0,0,0,0,0,0,0,0,0,0,0,0,0,0,0,0,0,
0,0,0,0,0,0,0,0,0,0,0,0,0,0,0,0,0,0,0,0,0,0,0,0,0,0,0,0,0,0,0,0,0,0,0,0,0,0,0,0,0,0,0,0,0,0,0,0,0,0,0,0,0,0,0,0,0,0,0,0,0,0,0,0,0,0,0,0,0,0,0,0,0,0,0,0,0,0,0,0,0,0,0,0,0,0,0,0,0,0,0,0,0,0,0,0,0,0,0,0,0,0,0,0,0,0,0,0,0,0,0,0,0,0,0,0,0,0,0,0,
0,0,0,0,0,0,0,0,0,0,0,0,0,0,0,0,0,0,0,0,0,0,0,0,0,0,0,0,0,0,0,0,0,0,0,0,0,0,0,0,0,0,0,0,0,0,0,0,0,0,0,0,0,0,0,0,0,0,0,0,0,0,0,0,0,0,0,0,0,0,0,0,0,0,0,0,0,0,0,0,0,0,0,0,0,0,0,0,0,0,0,0,0,0,0,0,0,0,0,0,0,0,0,0,0,0,0,0,0,0,0,0,0,0,0,0,0,0,0,0,
0,0,0,0,0,0,0,0,0,0,0,0,0,0,0,0,0,0,0,0,0,0,0,0,0,0,0,0,0,0,0,0,0,0,0,0,0,0,0,0,0,0,0,0,0,0,0,0,0,0,0,0,0,0,0,0,0,0,0,0,0,0,0,0,0,0,0,0,0,0,0,0,0,0,0,0,0,0,0,0,0,0,0,0,0,0,0,0,0,0,0,0,0,0,0,0,0,0,0,0,0,0,0,0,0,0,0,0,0,0,0,0,0,0,0,0,0,0,0,0,
0,0,0,0,0,0,0,0,0,0,0,0,0,0,0,0,0,0,0,0,0,0,0,0,0,0,0,0,0,0,0,0,0,0,0,0,0,0,0,0,0,0,0,0,0,0,0,0,0,0,0,0,0,0,0,0,0,0,0,0,0,0,0,0,0,0,0,0,0,0,0,0,0,0,0,0,0,0,0,0,0,0,0,0,0,0,0,0,0,0,0,0,0,0,0,0,0,0,0,0,0,0,0,0,0,0,0,0,0,0,0,0,0,0,0,0,0,0,0,0,
0,0,0,0,0,0,0,0,0,0,0,0,0,0,0,0,0,0,0,0,0,0,0,0,0,0,0,0,0,0,0,0,0,0,0,0,0,0,0,0,0,0,0,0,0,0,0,0,0,0,0,0,0,0,0,0,0,0,0,0,0,0,0,0,0,0,0,0,0,0,0,0,0,0,0,0,0,0,0,0,0,0,0,0,0,0,0,0,0,0,0,0,0,0,0,0,0,0,0,0,0,0,0,0,0,0,0,0,0,0,0,0,0,0,0,0,0,0,0,0,
0,0,0,0,0,0,0,0,0,0,0,0,0,0,0,0,0,0,0,0,0,0,0,0,0,0,0,0,0,0,0,0,0,0,0,0,0,0,0,0,0,0,0,0,0,0,0,0,0,0,0,0,0,0,0,0,0,0,0,0,0,0,0,0,0,0,0,0,0,0,0,0,0,0,0,0,0,0,0,0,0,0,0,0,0,0,0,0,0,0,0,0,0,0,0,0,0,0,0,0,0,0,0,0,0,0,0,0,0,0,0,0,0,0,0,0,0,0,0,0,
0,0,0,0,0,0,0,0,0,0,0,0,0,0,0,0,0,0,0,0,0,0,0,0,0,0,0,0,0,0,0,0,0,0,0,0,0,0,0,0,0,0,0,0,0,0,0,0,0,0,0,0,0,0,0,0,0,0,0,0,0,0,0,0,0,0,0,0,0,0,0,0,0,0,0,0,0,0,0,0,0,0,0,0,0,0,0,0,0,0,0,0,0,0,0,0,0,0,0,0,0,0,0,0,0,0,0,0,0,0,0,0,0,0,0,0,0,0,0,0,
0,0,0,0,0,0,0,0,0,0,0,0,0,0,0,0,0,0,0,0,0,0,0,0,0,0,0,0,0,0,0,0,0,0,0,0,0,0,0,0,0,0,0,0,0,0,0,0,0,0,0,0,0,0,0,0,0,0,0,0,0,0,0,0,0,0,0,0,0,0,0,0,0,0,0,0,0,0,0,0,0,0,0,0,0,0,0,0,0,0,0,0,0,0,0,0,0,0,0,0,0,0,0,0,0,0,0,0,0,0,0,0,0,0,0,0,0,0,0,0,
0,0,0,0,0,0,0,0,0,0,0,0,0,0,0,0,0,0,0,0,0,0,0,0,0,0,0,0,0,0,0,0,0,0,0,0,0,0,0,0,0,0,0,0,0,0,0,0,0,0,0,0,0,0,0,0,0,0,0,0,0,0,0,0,0,0,0,0,0,0,0,0,0,0,0,0,0,0,0,0,0,0,0,0,0,0,0,0,0,0,0,0,0,0,0,0,0,0,0,0,0,0,0,0,0,0,0,0,0,0,0,0,0,0,0,0,0,0,0,0,
0,0,0,0,0,0,0,0,0,0,0,0,0,0,0,0,0,0,0,0,0,0,0,0,0,0,0,0,0,0,0,0,0,0,0,0,0,0,0,0,0,0,0,0,0,0,0,0,0,0,0,0,0,0,0,0,0,0,0,0,0,0,0,0,0,0,0,0,0,0,0,0,0,0,0,0,0,0,0,0,0,0,0,0,0,0,0,0,0,0,0,0,0,0,0,0,0,0,0,0,0,0,0,0,0,0,0,0,0,0,0,0,0,0,0,0,0,0,0,0,
0,0,0,0,0,0,0,0,0,0,0,0,0,0,0,0,0,0,0,0,0,0,0,0,0,0,0,0,0,0,0,0,0,0,0,0,0,0,0,0,0,0,0,0,0,0,0,0,0,0,0,0,0,0,0,0,0,0,0,0,0,0,0,0,0,0,0,0,0,0,0,0,0,0,0,0,0,0,0,0,0,0,0,0,0,0,0,0,0,0,0,0,0,0,0,0,0,0,0,0,0,0,0,0,0,0,0,0,0,0,0,0,0,0,0,0,0,0,0,0,
0,0,0,0,0,0,0,0,0,0,0,0,0,0,0,0,0,0,0,0,0,0,0,0,0,0,0,0,0,0,0,0,0,0,0,0,0,0,0,0,0,0,0,0,0,0,0,0,0,0,0,0,0,0,0,0,0,0,0,0,0,0,0,0,0,0,0,0,0,0,0,0,0,0,0,0,0,0,0,0,0,0,0,0,0,0,0,0,0,0,0,0,0,0,0,0,0,0,0,0,0,0,0,0,0,0,0,0,0,0,0,0,0,0,0,0,0,0,0,0,
0,0,0,0,0,0,0,0,0,0,0,0,0,0,0,0,0,0,0,0,0,0,0,0,0,0,0,0,0,0,0,0,0,0,0,0,0,0,0,0,0,0,0,0,0,0,0,0,0,0,0,0,0,0,0,0,0,0,0,0,0,0,0,0,0,0,0,0,0,0,0,0,0,0,0,0,0,0,0,0,0,0,0,0,0,0,0,0,0,0,0,0,0,0,0,0,0,0,0,0,0,0,0,0,0,0,0,0,0,0,0,0,0,0,0,0,0,0,0,0,
0,0,0,0,0,0,0,0,0,0,0,0,0,0,0,0,0,0,0,0,0,0,0,0,0,0,0,0,0,0,0,0,0,0,0,0,0,0,0,0,0,0,0,0,0,0,0,0,0,0,0,0,0,0,0,0,0,0,0,0,0,0,0,0,0,0,0,0,0,0,0,0,0,0,0,0,0,0,0,0,0,0,0,0,0,0,0,0,0,0,0,0,0,0,0,0,0,0,0,0,0,0,0,0,0,0,0,0,0,0,0,0,0,0,0,0,0,0,0,0,
0,0,0,0,0,0,0,0,0,0,0,0,0,0,0,0,0,0,0,0,0,0,0,0,0,0,0,0,0,0,0,0,0,0,0,0,0,0,0,0,0,0,0,0,0,0,0,0,0,0,0,0,0,0,0,0,0,0,0,0,0,0,0,0,0,0,0,0,0,0,0,0,0,0,0,0,0,0,0,0,0,0,0,0,0,0,0,0,0,0,0,0,0,0,0,0,0,0,0,0,0,0,0,0,0,0,0,0,0,0,0,0,0,0,0,0,0,0,0,0,
0,0,0,0,0,0,0,0,0,0,0,0,0,0,0,0,0,0,0,0,0,0,0,0,0,0,0,0,0,0,0,0,0,0,0,0,0,0,0,0,0,0,0,0,0,0,0,0,0,0,0,0,0,0,0,0,0,0,0,0,0,0,0,0,0,0,0,0,0,0,0,0,0,0,0,0,0,0,0,0,0,0,0,0,0,0,0,0,0,0,0,0,0,0,0,0,0,0,0,0,0,0,0,0,0,0,0,0,0,0,0,0,0,0,0,0,0,0,0,0,
0,0,0,0,0,0,0,0,0,0,0,0,0,0,0,0,0,0,0,0,0,0,0,0,0,0,0,0,0,0,0,0,0,0,0,0,0,0,0,0,0,0,0,0,0,0,0,0,0,0,0,0,0,0,0,0,0,0,0,0,0,0,0,0,0,0,0,0,0,0,0,0,0,0,0,0,0,0,0,0,0,0,0,0,0,0,0,0,0,0,0,0,0,0,0,0,0,0,0,0,0,0,0,0,0,0,0,0,0,0,0,0,0,0,0,0,0,0,0,0,
0,0,0,0,0,0,0,0,0,0,0,0,0,0,0,0,0,0,0,0,0,0,0,0,0,0,0,0,0,0,0,0,0,0,0,0,0,0,0,0,0,0,0,0,0,0,0,0,0,0,0,0,0,0,0,0,0,0,0,0,0,0,0,0,0,0,0,0,0,0,0,0,0,0,0,0,0,0,0,0,0,0,0,0,0,0,0,0,0,0,0,0,0,0,0,0,0,0,0,0,0,0,0,0,0,0,0,0,0,0,0,0,0,0,0,0,0,0,0,0,
0,0,0,0,0,0,0,0,0,0,0,0,0,0,0,0,0,0,0,0,0,0,0,0,0,0,0,0,0,0,0,0,0,0,0,0,0,0,0,0,0,0,0,0,0,0,0,0,0,0,0,0,0,0,0,0,0,0,0,0,0,0,0,0,0,0,0,0,0,0,0,0,0,0,0,0,0,0,0,0,0,0,0,0,0,0,0,0,0,0,0,0,0,0,0,0,0,0,0,0,0,0,0,0,0,0,0,0,0,0,0,0,0,0,0,0,0,0,0,0,
0,0,0,0,0,0,0,0,0,0,0,0,0,0,0,0,0,0,0,0,0,0,0,0,0,0,0,0,0,0,0,0,0,0,0,0,0,0,0,0,0,0,0,0,0,0,0,0,0,0,0,0,0,0,0,0,0,0,0,0,0,0,0,0,0,0,0,0,0,0,0,0,0,0,0,0,0,0,0,0,0,0,0,0,0,0,0,0,0,0,0,0,0,0,0,0,0,0,0,0,0,0,0,0,0,0,0,0,0,0,0,0,0,0,0,0,0,0,0,0,
0,0,0,0,0,0,0,0,0,0,0,0,0,0,0,0,0,0,0,0,0,0,0,0,0,0,0,0,0,0,0,0,0,0,0,0,0,0,0,0,0,0,0,0,0,0,0,0,0,0,0,0,0,0,0,0,0,0,0,0,0,0,0,0,0,0,0,0,0,0,0,0,0,0,0,0,0,0,0,0,0,0,0,0,0,0,0,0,0,0,0,0,0,0,0,0,0,0,0,0,0,0,0,0,0,0,0,0,0,0,0,0,0,0,0,0,0,0,0,0
</data>
 </layer>
 <objectgroup id="12" name="Back">
  <object id="1" name="TileData" x="1632" y="96" width="16" height="16">
   <properties>
    <property name="Spawnable" value="F"/>
   </properties>
  </object>
  <object id="2" name="TileData" x="1680" y="96" width="16" height="16">
   <properties>
    <property name="Spawnable" value="F"/>
   </properties>
  </object>
  <object id="3" name="TileData" x="1744" y="144" width="16" height="16">
   <properties>
    <property name="Spawnable" value="F"/>
   </properties>
  </object>
  <object id="4" name="TileData" x="1744" y="160" width="16" height="16">
   <properties>
    <property name="Spawnable" value="F"/>
   </properties>
  </object>
  <object id="5" name="TileData" x="1728" y="176" width="16" height="16">
   <properties>
    <property name="Spawnable" value="F"/>
   </properties>
  </object>
  <object id="6" name="TileData" x="1744" y="176" width="16" height="16">
   <properties>
    <property name="Spawnable" value="F"/>
   </properties>
  </object>
  <object id="7" name="TileData" x="1728" y="192" width="16" height="16">
   <properties>
    <property name="Spawnable" value="F"/>
   </properties>
  </object>
  <object id="8" name="TileData" x="1744" y="192" width="16" height="16">
   <properties>
    <property name="Spawnable" value="F"/>
   </properties>
  </object>
  <object id="9" name="TileData" x="1680" y="208" width="16" height="16">
   <properties>
    <property name="Spawnable" value="F"/>
   </properties>
  </object>
  <object id="10" name="TileData" x="1712" y="224" width="16" height="16">
   <properties>
    <property name="Spawnable" value="F"/>
   </properties>
  </object>
  <object id="11" name="TileData" x="1680" y="240" width="16" height="16">
   <properties>
    <property name="Spawnable" value="F"/>
   </properties>
  </object>
  <object id="12" name="TileData" x="1696" y="240" width="16" height="16">
   <properties>
    <property name="Spawnable" value="F"/>
   </properties>
  </object>
  <object id="13" name="TileData" x="1712" y="240" width="16" height="16">
   <properties>
    <property name="Spawnable" value="F"/>
   </properties>
  </object>
  <object id="14" name="TileData" x="1424" y="256" width="16" height="16">
   <properties>
    <property name="Type" value="Stone"/>
   </properties>
  </object>
  <object id="15" name="TileData" x="1440" y="256" width="16" height="16">
   <properties>
    <property name="Type" value="Stone"/>
   </properties>
  </object>
  <object id="16" name="TileData" x="1648" y="256" width="16" height="16">
   <properties>
    <property name="Spawnable" value="F"/>
   </properties>
  </object>
  <object id="17" name="TileData" x="1728" y="256" width="16" height="16">
   <properties>
    <property name="Spawnable" value="F"/>
   </properties>
  </object>
  <object id="18" name="TileData" x="1712" y="272" width="16" height="16">
   <properties>
    <property name="Spawnable" value="F"/>
   </properties>
  </object>
  <object id="19" name="TileData" x="1728" y="272" width="16" height="16">
   <properties>
    <property name="Spawnable" value="F"/>
   </properties>
  </object>
  <object id="20" name="TileData" x="1712" y="288" width="16" height="16">
   <properties>
    <property name="Spawnable" value="F"/>
   </properties>
  </object>
  <object id="21" name="TileData" x="1728" y="288" width="16" height="16">
   <properties>
    <property name="Spawnable" value="F"/>
   </properties>
  </object>
  <object id="22" name="TileData" x="1744" y="288" width="16" height="16">
   <properties>
    <property name="Spawnable" value="F"/>
   </properties>
  </object>
  <object id="23" name="TileData" x="1760" y="288" width="16" height="16">
   <properties>
    <property name="Spawnable" value="F"/>
   </properties>
  </object>
  <object id="24" name="TileData" x="1728" y="304" width="16" height="16">
   <properties>
    <property name="Spawnable" value="F"/>
   </properties>
  </object>
  <object id="25" name="TileData" x="1744" y="304" width="16" height="16">
   <properties>
    <property name="Spawnable" value="F"/>
   </properties>
  </object>
  <object id="26" name="TileData" x="1760" y="304" width="16" height="16">
   <properties>
    <property name="Spawnable" value="F"/>
   </properties>
  </object>
  <object id="27" name="TileData" x="1696" y="320" width="16" height="16">
   <properties>
    <property name="Spawnable" value="F"/>
   </properties>
  </object>
  <object id="28" name="TileData" x="1712" y="320" width="16" height="16">
   <properties>
    <property name="Spawnable" value="F"/>
   </properties>
  </object>
  <object id="29" name="TileData" x="1728" y="320" width="16" height="16">
   <properties>
    <property name="Spawnable" value="F"/>
   </properties>
  </object>
 </objectgroup>
 <objectgroup id="13" name="Back2"/>
 <objectgroup id="14" name="Back3"/>
 <objectgroup id="15" name="Buildings">
  <object id="30" name="TileData" x="896" y="96" width="16" height="16">
   <properties>
    <property name="Action" value="FixRaccoonStump"/>
   </properties>
  </object>
  <object id="31" name="TileData" x="1040" y="176" width="16" height="16">
   <properties>
    <property name="Action" value="Message &quot;Forest.1&quot;"/>
   </properties>
  </object>
  <object id="32" name="TileData" x="1680" y="192" width="16" height="16">
   <properties>
    <property name="Spawnable" value="F"/>
   </properties>
  </object>
  <object id="33" name="TileData" x="1440" y="240" width="16" height="16">
   <properties>
    <property name="Action" value="LockedDoorWarp 13 19 AnimalShop 900 1800"/>
   </properties>
  </object>
  <object id="34" name="TileData" x="1696" y="384" width="16" height="16">
   <properties>
    <property name="Action" value="Message &quot;Forest.2&quot;"/>
   </properties>
  </object>
  <object id="35" name="TileData" x="80" y="416" width="16" height="16">
   <properties>
    <property name="Action" value="LockedDoorWarp 8 24 WizardHouse 600 2300"/>
   </properties>
  </object>
  <object id="36" name="TileData" x="992" y="416" width="16" height="16">
   <properties>
    <property name="Action" value="Shop Festival_FestivalOfIce_TravelingMerchant"/>
   </properties>
  </object>
  <object id="37" name="TileData" x="1008" y="416" width="16" height="16">
   <properties>
    <property name="Action" value="Shop Festival_FestivalOfIce_TravelingMerchant"/>
   </properties>
  </object>
  <object id="38" name="TileData" x="1664" y="512" width="16" height="16">
   <properties>
    <property name="Action" value="LockedDoorWarp 7 9 LeahHouse 1000 1800 Leah 500"/>
   </properties>
  </object>
  <object id="39" name="TileData" x="1616" y="1136" width="16" height="16">
   <properties>
    <property name="Action" value="MasteryRoom"/>
   </properties>
  </object>
  <object id="40" name="TileData" x="1616" y="1152" width="16" height="16">
   <properties>
    <property name="Action" value="MasteryRoom"/>
   </properties>
  </object>
 </objectgroup>
 <objectgroup id="16" name="Buildings2"/>
 <objectgroup id="17" name="Paths"/>
 <objectgroup id="18" name="Front"/>
 <objectgroup id="19" name="AlwaysFront"/>
 <objectgroup id="20" name="AlwaysFront2"/>
 <objectgroup id="21" name="Set-Up"/>
 <objectgroup id="22" name="Main-Event"/>
</map>
