<?xml version="1.0" encoding="UTF-8"?>
<map version="1.10" tiledversion="1.11.2" orientation="orthogonal" renderorder="right-down" compressionlevel="0" width="104" height="50" tilewidth="16" tileheight="16" infinite="0" nextlayerid="15" nextobjectid="6">
 <properties>
  <property name="DayTiles" value="Front 44 31 369 Front 90 35 369"/>
  <property name="Fall_Objects" value="372 .9 382 .6"/>
  <property name="Light" value="44 31 4 90 35 4 44 32 6 90 36 6"/>
  <property name="Music" value="ocean"/>
  <property name="MusicIgnoreInRain" value="t"/>
  <property name="NightTiles" value="Front 44 31 368 Front 90 35 368"/>
  <property name="Outdoors" value="T"/>
  <property name="Spring_Objects" value="372 .9"/>
  <property name="Summer_Objects" value="372 .9 394 .5"/>
  <property name="Warp" value="38 -1 Town 54 108 39 -1 Town 54 108 40 -1 Town 54 108 67 -1 Town 94 109"/>
  <property name="Winter_Objects" value="392 .8"/>
 </properties>
 <tileset firstgid="1" name="Paths" tilewidth="16" tileheight="16" tilecount="64" columns="4">
  <image source=".paths.png" width="64" height="256"/>
  <tile id="0">
   <properties>
    <property name="PathType" value="NE"/>
   </properties>
  </tile>
  <tile id="1">
   <properties>
    <property name="PathType" value="SE"/>
   </properties>
  </tile>
  <tile id="2">
   <properties>
    <property name="PathType" value="WS"/>
   </properties>
  </tile>
  <tile id="3">
   <properties>
    <property name="PathType" value="WN"/>
   </properties>
  </tile>
  <tile id="4">
   <properties>
    <property name="PathType" value="Crossroad"/>
   </properties>
  </tile>
  <tile id="7">
   <properties>
    <property name="PathType" value="End"/>
   </properties>
  </tile>
 </tileset>
 <tileset firstgid="65" name="untitled tile sheet" tilewidth="16" tileheight="16" tilecount="527" columns="17">
  <image source=".spring_beach.png" width="272" height="496"/>
  <tile id="7">
   <properties>
    <property name="Water" value="T"/>
   </properties>
  </tile>
  <tile id="8">
   <properties>
    <property name="Water" value="T"/>
   </properties>
  </tile>
  <tile id="18">
   <properties>
    <property name="Diggable" value="T"/>
    <property name="Type" value="Dirt"/>
   </properties>
  </tile>
  <tile id="19">
   <properties>
    <property name="Diggable" value="T"/>
    <property name="Type" value="Dirt"/>
   </properties>
  </tile>
  <tile id="20">
   <properties>
    <property name="Diggable" value="T"/>
    <property name="Type" value="Dirt"/>
   </properties>
  </tile>
  <tile id="21">
   <properties>
    <property name="Type" value="Dirt"/>
   </properties>
  </tile>
  <tile id="22">
   <properties>
    <property name="Diggable" value="T"/>
    <property name="Type" value="Dirt"/>
   </properties>
  </tile>
  <tile id="23">
   <properties>
    <property name="Type" value="Dirt"/>
   </properties>
  </tile>
  <tile id="24">
   <properties>
    <property name="Type" value="Dirt"/>
   </properties>
  </tile>
  <tile id="25">
   <properties>
    <property name="Diggable" value="T"/>
    <property name="Type" value="Dirt"/>
   </properties>
  </tile>
  <tile id="26">
   <properties>
    <property name="Diggable" value="T"/>
    <property name="Type" value="Dirt"/>
   </properties>
  </tile>
  <tile id="41">
   <properties>
    <property name="Diggable" value="T"/>
    <property name="Type" value="Dirt"/>
   </properties>
  </tile>
  <tile id="42">
   <properties>
    <property name="Diggable" value="T"/>
    <property name="Spawnable" value="T"/>
    <property name="Type" value="Dirt"/>
   </properties>
  </tile>
  <tile id="43">
   <properties>
    <property name="Diggable" value="T"/>
   </properties>
  </tile>
  <tile id="51">
   <properties>
    <property name="Type" value="Dirt"/>
   </properties>
  </tile>
  <tile id="52">
   <properties>
    <property name="Type" value="Dirt"/>
   </properties>
  </tile>
  <tile id="53">
   <properties>
    <property name="Type" value="Dirt"/>
   </properties>
  </tile>
  <tile id="54">
   <properties>
    <property name="Type" value="Dirt"/>
   </properties>
  </tile>
  <tile id="56">
   <properties>
    <property name="Type" value="Stone"/>
   </properties>
  </tile>
  <tile id="58">
   <properties>
    <property name="Type" value="Dirt"/>
   </properties>
  </tile>
  <tile id="59">
   <properties>
    <property name="Diggable" value="T"/>
    <property name="Type" value="Dirt"/>
   </properties>
  </tile>
  <tile id="68">
   <properties>
    <property name="Type" value="Dirt"/>
   </properties>
  </tile>
  <tile id="69">
   <properties>
    <property name="Diggable" value="T"/>
    <property name="Type" value="Dirt"/>
   </properties>
  </tile>
  <tile id="70">
   <properties>
    <property name="Diggable" value="T"/>
    <property name="Type" value="Dirt"/>
   </properties>
  </tile>
  <tile id="71">
   <properties>
    <property name="Type" value="Dirt"/>
   </properties>
  </tile>
  <tile id="75">
   <properties>
    <property name="Water" value="T"/>
   </properties>
  </tile>
  <tile id="80">
   <animation>
    <frame tileid="80" duration="600"/>
    <frame tileid="337" duration="600"/>
    <frame tileid="338" duration="600"/>
    <frame tileid="337" duration="600"/>
   </animation>
  </tile>
  <tile id="81">
   <properties>
    <property name="Type" value="Grass"/>
   </properties>
  </tile>
  <tile id="82">
   <properties>
    <property name="Type" value="Grass"/>
   </properties>
  </tile>
  <tile id="85">
   <properties>
    <property name="Type" value="Dirt"/>
   </properties>
  </tile>
  <tile id="86">
   <properties>
    <property name="Diggable" value="T"/>
    <property name="Type" value="Dirt"/>
   </properties>
  </tile>
  <tile id="87">
   <properties>
    <property name="Diggable" value="T"/>
    <property name="Type" value="Dirt"/>
   </properties>
  </tile>
  <tile id="88">
   <properties>
    <property name="Type" value="Dirt"/>
   </properties>
  </tile>
  <tile id="89">
   <properties>
    <property name="Water" value="T"/>
   </properties>
  </tile>
  <tile id="90">
   <properties>
    <property name="Water" value="T"/>
   </properties>
  </tile>
  <tile id="91">
   <properties>
    <property name="Water" value="T"/>
   </properties>
  </tile>
  <tile id="92">
   <properties>
    <property name="Water" value="T"/>
   </properties>
  </tile>
  <tile id="93">
   <properties>
    <property name="Water" value="T"/>
   </properties>
  </tile>
  <tile id="100">
   <properties>
    <property name="Type" value="Grass"/>
   </properties>
  </tile>
  <tile id="101">
   <properties>
    <property name="Type" value="Grass"/>
   </properties>
  </tile>
  <tile id="107">
   <properties>
    <property name="Type" value="Dirt"/>
    <property name="Water" value="T"/>
   </properties>
  </tile>
  <tile id="108">
   <properties>
    <property name="Water" value="T"/>
   </properties>
  </tile>
  <tile id="109">
   <properties>
    <property name="Water" value="T"/>
   </properties>
  </tile>
  <tile id="110">
   <properties>
    <property name="Water" value="T"/>
   </properties>
  </tile>
  <tile id="111">
   <properties>
    <property name="Type" value="Stone"/>
   </properties>
  </tile>
  <tile id="112">
   <properties>
    <property name="Type" value="Stone"/>
   </properties>
  </tile>
  <tile id="113">
   <properties>
    <property name="Type" value="Stone"/>
   </properties>
  </tile>
  <tile id="117">
   <properties>
    <property name="Type" value="Grass"/>
   </properties>
  </tile>
  <tile id="118">
   <properties>
    <property name="Type" value="Grass"/>
   </properties>
  </tile>
  <tile id="124">
   <properties>
    <property name="Water" value="T"/>
   </properties>
  </tile>
  <tile id="125">
   <properties>
    <property name="Water" value="T"/>
   </properties>
  </tile>
  <tile id="126">
   <properties>
    <property name="Water" value="T"/>
   </properties>
  </tile>
  <tile id="127">
   <properties>
    <property name="Water" value="T"/>
   </properties>
  </tile>
  <tile id="128">
   <properties>
    <property name="Passable" value="T"/>
    <property name="Type" value="Dirt"/>
   </properties>
  </tile>
  <tile id="129">
   <properties>
    <property name="Water" value="T"/>
   </properties>
  </tile>
  <tile id="130">
   <properties>
    <property name="Water" value="T"/>
   </properties>
  </tile>
  <tile id="131">
   <properties>
    <property name="Passable" value="F"/>
    <property name="Water" value="T"/>
   </properties>
  </tile>
  <tile id="141">
   <properties>
    <property name="Passable" value="T"/>
    <property name="Type" value="Dirt"/>
   </properties>
   <animation>
    <frame tileid="141" duration="250"/>
    <frame tileid="142" duration="250"/>
    <frame tileid="143" duration="250"/>
    <frame tileid="144" duration="250"/>
    <frame tileid="144" duration="250"/>
    <frame tileid="145" duration="250"/>
    <frame tileid="146" duration="250"/>
    <frame tileid="147" duration="250"/>
    <frame tileid="141" duration="250"/>
    <frame tileid="141" duration="250"/>
    <frame tileid="141" duration="250"/>
   </animation>
  </tile>
  <tile id="142">
   <properties>
    <property name="Passable" value="T"/>
    <property name="Type" value="Dirt"/>
   </properties>
  </tile>
  <tile id="143">
   <properties>
    <property name="Passable" value="T"/>
    <property name="Type" value="Dirt"/>
   </properties>
  </tile>
  <tile id="144">
   <properties>
    <property name="Passable" value="T"/>
    <property name="Type" value="Dirt"/>
   </properties>
  </tile>
  <tile id="145">
   <properties>
    <property name="Passable" value="T"/>
    <property name="Type" value="Dirt"/>
   </properties>
  </tile>
  <tile id="146">
   <properties>
    <property name="Passable" value="T"/>
    <property name="Type" value="Dirt"/>
   </properties>
  </tile>
  <tile id="147">
   <properties>
    <property name="Passable" value="T"/>
    <property name="Type" value="Dirt"/>
   </properties>
  </tile>
  <tile id="148">
   <properties>
    <property name="Water" value="T"/>
   </properties>
  </tile>
  <tile id="158">
   <properties>
    <property name="Passable" value="T"/>
    <property name="Type" value="Dirt"/>
   </properties>
   <animation>
    <frame tileid="158" duration="250"/>
    <frame tileid="159" duration="250"/>
    <frame tileid="160" duration="250"/>
    <frame tileid="161" duration="250"/>
    <frame tileid="161" duration="250"/>
    <frame tileid="162" duration="250"/>
    <frame tileid="163" duration="250"/>
    <frame tileid="164" duration="250"/>
    <frame tileid="158" duration="250"/>
    <frame tileid="158" duration="250"/>
    <frame tileid="158" duration="250"/>
   </animation>
  </tile>
  <tile id="159">
   <properties>
    <property name="Passable" value="T"/>
    <property name="Type" value="Dirt"/>
   </properties>
  </tile>
  <tile id="160">
   <properties>
    <property name="Passable" value="T"/>
    <property name="Type" value="Dirt"/>
   </properties>
  </tile>
  <tile id="161">
   <properties>
    <property name="Passable" value="T"/>
    <property name="Type" value="Dirt"/>
   </properties>
  </tile>
  <tile id="162">
   <properties>
    <property name="Passable" value="T"/>
    <property name="Type" value="Dirt"/>
   </properties>
  </tile>
  <tile id="163">
   <properties>
    <property name="Passable" value="T"/>
    <property name="Type" value="Dirt"/>
   </properties>
  </tile>
  <tile id="164">
   <properties>
    <property name="Passable" value="T"/>
    <property name="Type" value="Dirt"/>
   </properties>
  </tile>
  <tile id="165">
   <properties>
    <property name="Passable" value="F"/>
    <property name="Water" value="T"/>
   </properties>
  </tile>
  <tile id="175">
   <properties>
    <property name="Passable" value="T"/>
    <property name="Type" value="Dirt"/>
   </properties>
   <animation>
    <frame tileid="175" duration="250"/>
    <frame tileid="176" duration="250"/>
    <frame tileid="177" duration="250"/>
    <frame tileid="178" duration="250"/>
    <frame tileid="178" duration="250"/>
    <frame tileid="179" duration="250"/>
    <frame tileid="180" duration="250"/>
    <frame tileid="181" duration="250"/>
    <frame tileid="175" duration="250"/>
    <frame tileid="175" duration="250"/>
    <frame tileid="175" duration="250"/>
   </animation>
  </tile>
  <tile id="176">
   <properties>
    <property name="Passable" value="T"/>
    <property name="Type" value="Dirt"/>
   </properties>
  </tile>
  <tile id="177">
   <properties>
    <property name="Passable" value="T"/>
    <property name="Type" value="Dirt"/>
   </properties>
  </tile>
  <tile id="178">
   <properties>
    <property name="Passable" value="T"/>
    <property name="Type" value="Dirt"/>
   </properties>
  </tile>
  <tile id="179">
   <properties>
    <property name="Passable" value="T"/>
    <property name="Type" value="Dirt"/>
   </properties>
  </tile>
  <tile id="180">
   <properties>
    <property name="Passable" value="T"/>
    <property name="Type" value="Dirt"/>
   </properties>
  </tile>
  <tile id="181">
   <properties>
    <property name="Passable" value="T"/>
    <property name="Type" value="Dirt"/>
   </properties>
  </tile>
  <tile id="185">
   <properties>
    <property name="Water" value="T"/>
   </properties>
  </tile>
  <tile id="192">
   <properties>
    <property name="Passable" value="T"/>
    <property name="Type" value="Dirt"/>
   </properties>
   <animation>
    <frame tileid="192" duration="250"/>
    <frame tileid="193" duration="250"/>
    <frame tileid="194" duration="250"/>
    <frame tileid="195" duration="250"/>
    <frame tileid="195" duration="250"/>
    <frame tileid="196" duration="250"/>
    <frame tileid="197" duration="250"/>
    <frame tileid="198" duration="250"/>
    <frame tileid="192" duration="250"/>
    <frame tileid="192" duration="250"/>
    <frame tileid="192" duration="250"/>
   </animation>
  </tile>
  <tile id="193">
   <properties>
    <property name="Passable" value="T"/>
    <property name="Type" value="Dirt"/>
   </properties>
  </tile>
  <tile id="194">
   <properties>
    <property name="Passable" value="T"/>
    <property name="Type" value="Dirt"/>
   </properties>
  </tile>
  <tile id="195">
   <properties>
    <property name="Passable" value="T"/>
    <property name="Type" value="Dirt"/>
   </properties>
  </tile>
  <tile id="196">
   <properties>
    <property name="Passable" value="T"/>
    <property name="Type" value="Dirt"/>
   </properties>
  </tile>
  <tile id="197">
   <properties>
    <property name="Passable" value="T"/>
    <property name="Type" value="Dirt"/>
   </properties>
  </tile>
  <tile id="198">
   <properties>
    <property name="Passable" value="T"/>
    <property name="Type" value="Dirt"/>
   </properties>
  </tile>
  <tile id="202">
   <properties>
    <property name="Diggable" value="T"/>
   </properties>
  </tile>
  <tile id="203">
   <properties>
    <property name="Water" value="T"/>
   </properties>
  </tile>
  <tile id="209">
   <properties>
    <property name="Passable" value="T"/>
    <property name="Type" value="Dirt"/>
   </properties>
   <animation>
    <frame tileid="209" duration="250"/>
    <frame tileid="210" duration="250"/>
    <frame tileid="211" duration="250"/>
    <frame tileid="212" duration="250"/>
    <frame tileid="212" duration="250"/>
    <frame tileid="213" duration="250"/>
    <frame tileid="214" duration="250"/>
    <frame tileid="215" duration="250"/>
    <frame tileid="209" duration="250"/>
    <frame tileid="209" duration="250"/>
    <frame tileid="209" duration="250"/>
   </animation>
  </tile>
  <tile id="210">
   <properties>
    <property name="Passable" value="T"/>
    <property name="Type" value="Dirt"/>
   </properties>
  </tile>
  <tile id="211">
   <properties>
    <property name="Passable" value="T"/>
    <property name="Type" value="Dirt"/>
   </properties>
  </tile>
  <tile id="212">
   <properties>
    <property name="Passable" value="T"/>
    <property name="Type" value="Dirt"/>
   </properties>
  </tile>
  <tile id="213">
   <properties>
    <property name="Passable" value="T"/>
    <property name="Type" value="Dirt"/>
   </properties>
  </tile>
  <tile id="214">
   <properties>
    <property name="Passable" value="T"/>
    <property name="Type" value="Dirt"/>
   </properties>
  </tile>
  <tile id="215">
   <properties>
    <property name="Passable" value="T"/>
    <property name="Type" value="Dirt"/>
   </properties>
  </tile>
  <tile id="216">
   <animation>
    <frame tileid="216" duration="1000"/>
    <frame tileid="267" duration="1000"/>
   </animation>
  </tile>
  <tile id="217">
   <animation>
    <frame tileid="217" duration="1000"/>
    <frame tileid="268" duration="1000"/>
   </animation>
  </tile>
  <tile id="218">
   <animation>
    <frame tileid="218" duration="1000"/>
    <frame tileid="269" duration="1000"/>
   </animation>
  </tile>
  <tile id="226">
   <properties>
    <property name="Passable" value="T"/>
    <property name="Type" value="Dirt"/>
   </properties>
   <animation>
    <frame tileid="226" duration="250"/>
    <frame tileid="227" duration="250"/>
    <frame tileid="228" duration="250"/>
    <frame tileid="229" duration="250"/>
    <frame tileid="229" duration="250"/>
    <frame tileid="230" duration="250"/>
    <frame tileid="231" duration="250"/>
    <frame tileid="232" duration="250"/>
    <frame tileid="226" duration="250"/>
    <frame tileid="226" duration="250"/>
    <frame tileid="226" duration="250"/>
   </animation>
  </tile>
  <tile id="227">
   <properties>
    <property name="Passable" value="T"/>
    <property name="Type" value="Dirt"/>
   </properties>
  </tile>
  <tile id="228">
   <properties>
    <property name="Passable" value="T"/>
    <property name="Type" value="Dirt"/>
   </properties>
  </tile>
  <tile id="229">
   <properties>
    <property name="Passable" value="T"/>
    <property name="Type" value="Dirt"/>
   </properties>
  </tile>
  <tile id="230">
   <properties>
    <property name="Passable" value="T"/>
    <property name="Type" value="Dirt"/>
   </properties>
  </tile>
  <tile id="231">
   <properties>
    <property name="Passable" value="T"/>
    <property name="Type" value="Dirt"/>
   </properties>
  </tile>
  <tile id="232">
   <properties>
    <property name="Passable" value="T"/>
    <property name="Type" value="Dirt"/>
   </properties>
  </tile>
  <tile id="233">
   <properties>
    <property name="Water" value="T"/>
   </properties>
  </tile>
  <tile id="234">
   <properties>
    <property name="Water" value="T"/>
   </properties>
  </tile>
  <tile id="235">
   <properties>
    <property name="Water" value="T"/>
   </properties>
  </tile>
  <tile id="243">
   <properties>
    <property name="Passable" value="T"/>
    <property name="Type" value="Dirt"/>
   </properties>
   <animation>
    <frame tileid="243" duration="250"/>
    <frame tileid="244" duration="250"/>
    <frame tileid="245" duration="250"/>
    <frame tileid="246" duration="250"/>
    <frame tileid="246" duration="250"/>
    <frame tileid="247" duration="250"/>
    <frame tileid="248" duration="250"/>
    <frame tileid="249" duration="250"/>
    <frame tileid="243" duration="250"/>
    <frame tileid="243" duration="250"/>
    <frame tileid="243" duration="250"/>
   </animation>
  </tile>
  <tile id="244">
   <properties>
    <property name="Passable" value="T"/>
    <property name="Type" value="Dirt"/>
   </properties>
  </tile>
  <tile id="245">
   <properties>
    <property name="Passable" value="T"/>
    <property name="Type" value="Dirt"/>
   </properties>
  </tile>
  <tile id="246">
   <properties>
    <property name="Passable" value="T"/>
    <property name="Type" value="Dirt"/>
   </properties>
  </tile>
  <tile id="247">
   <properties>
    <property name="Passable" value="T"/>
    <property name="Type" value="Dirt"/>
   </properties>
  </tile>
  <tile id="248">
   <properties>
    <property name="Passable" value="T"/>
    <property name="Type" value="Dirt"/>
   </properties>
  </tile>
  <tile id="249">
   <properties>
    <property name="Passable" value="T"/>
    <property name="Type" value="Dirt"/>
   </properties>
  </tile>
  <tile id="250">
   <properties>
    <property name="Water" value="T"/>
   </properties>
  </tile>
  <tile id="251">
   <properties>
    <property name="Water" value="T"/>
   </properties>
  </tile>
  <tile id="252">
   <properties>
    <property name="Water" value="T"/>
   </properties>
  </tile>
  <tile id="260">
   <properties>
    <property name="Passable" value="T"/>
    <property name="Type" value="Dirt"/>
   </properties>
   <animation>
    <frame tileid="260" duration="250"/>
    <frame tileid="261" duration="250"/>
    <frame tileid="262" duration="250"/>
    <frame tileid="263" duration="250"/>
    <frame tileid="263" duration="250"/>
    <frame tileid="264" duration="250"/>
    <frame tileid="265" duration="250"/>
    <frame tileid="266" duration="250"/>
    <frame tileid="260" duration="250"/>
    <frame tileid="260" duration="250"/>
    <frame tileid="260" duration="250"/>
   </animation>
  </tile>
  <tile id="261">
   <properties>
    <property name="Passable" value="T"/>
    <property name="Type" value="Dirt"/>
   </properties>
  </tile>
  <tile id="262">
   <properties>
    <property name="Passable" value="T"/>
    <property name="Type" value="Dirt"/>
   </properties>
  </tile>
  <tile id="263">
   <properties>
    <property name="Passable" value="T"/>
    <property name="Type" value="Dirt"/>
   </properties>
  </tile>
  <tile id="264">
   <properties>
    <property name="Passable" value="T"/>
    <property name="Type" value="Dirt"/>
   </properties>
  </tile>
  <tile id="265">
   <properties>
    <property name="Passable" value="T"/>
    <property name="Type" value="Dirt"/>
   </properties>
  </tile>
  <tile id="266">
   <properties>
    <property name="Passable" value="T"/>
    <property name="Type" value="Dirt"/>
   </properties>
  </tile>
  <tile id="277">
   <properties>
    <property name="Type" value="Wood"/>
   </properties>
  </tile>
  <tile id="278">
   <properties>
    <property name="Type" value="Wood"/>
   </properties>
  </tile>
  <tile id="279">
   <properties>
    <property name="Type" value="Wood"/>
   </properties>
  </tile>
  <tile id="280">
   <properties>
    <property name="Type" value="Dirt"/>
   </properties>
  </tile>
  <tile id="297">
   <properties>
    <property name="Type" value="Wood"/>
   </properties>
  </tile>
  <tile id="298">
   <properties>
    <property name="Type" value="Wood"/>
   </properties>
  </tile>
  <tile id="299">
   <properties>
    <property name="Type" value="Wood"/>
   </properties>
  </tile>
  <tile id="300">
   <properties>
    <property name="Type" value="Wood"/>
   </properties>
  </tile>
  <tile id="301">
   <properties>
    <property name="Passable" value="T"/>
    <property name="Type" value="Wood"/>
   </properties>
  </tile>
  <tile id="302">
   <properties>
    <property name="Type" value="Wood"/>
   </properties>
  </tile>
  <tile id="334">
   <properties>
    <property name="Water" value="T"/>
   </properties>
  </tile>
  <tile id="335">
   <properties>
    <property name="Water" value="T"/>
   </properties>
  </tile>
  <tile id="336">
   <properties>
    <property name="Water" value="T"/>
   </properties>
  </tile>
  <tile id="339">
   <properties>
    <property name="Passable" value="F"/>
    <property name="Water" value="T"/>
   </properties>
  </tile>
  <tile id="373">
   <properties>
    <property name="Water" value="T"/>
   </properties>
  </tile>
  <tile id="419">
   <properties>
    <property name="Type" value="Wood"/>
   </properties>
  </tile>
  <tile id="420">
   <properties>
    <property name="Type" value="Wood"/>
   </properties>
  </tile>
  <tile id="421">
   <properties>
    <property name="Type" value="Wood"/>
   </properties>
  </tile>
  <tile id="423">
   <properties>
    <property name="Water" value="T"/>
   </properties>
  </tile>
  <tile id="424">
   <properties>
    <property name="Water" value="T"/>
   </properties>
  </tile>
  <tile id="435">
   <properties>
    <property name="Type" value="Wood"/>
   </properties>
  </tile>
  <tile id="440">
   <properties>
    <property name="Water" value="T"/>
   </properties>
  </tile>
  <tile id="441">
   <properties>
    <property name="Water" value="T"/>
   </properties>
  </tile>
  <tile id="453">
   <properties>
    <property name="Type" value="Wood"/>
   </properties>
  </tile>
  <tile id="454">
   <properties>
    <property name="Type" value="Wood"/>
   </properties>
  </tile>
  <tile id="455">
   <properties>
    <property name="Type" value="Wood"/>
   </properties>
  </tile>
  <tile id="458">
   <properties>
    <property name="Water" value="T"/>
   </properties>
  </tile>
  <tile id="470">
   <properties>
    <property name="Type" value="Wood"/>
   </properties>
  </tile>
  <tile id="471">
   <properties>
    <property name="Type" value="Wood"/>
   </properties>
  </tile>
  <tile id="472">
   <properties>
    <property name="Type" value="Wood"/>
   </properties>
  </tile>
  <tile id="475">
   <properties>
    <property name="Water" value="T"/>
   </properties>
  </tile>
  <tile id="487">
   <properties>
    <property name="Type" value="Wood"/>
   </properties>
  </tile>
  <tile id="488">
   <properties>
    <property name="Type" value="Wood"/>
   </properties>
  </tile>
  <tile id="489">
   <properties>
    <property name="Type" value="Wood"/>
   </properties>
  </tile>
  <tile id="491">
   <properties>
    <property name="Type" value="Wood"/>
   </properties>
  </tile>
  <tile id="504">
   <properties>
    <property name="Type" value="Wood"/>
   </properties>
  </tile>
  <tile id="505">
   <properties>
    <property name="Type" value="Wood"/>
   </properties>
  </tile>
  <tile id="506">
   <properties>
    <property name="Type" value="Wood"/>
   </properties>
  </tile>
  <tile id="508">
   <properties>
    <property name="Type" value="Wood"/>
   </properties>
  </tile>
 </tileset>
 <tileset firstgid="592" name="v16_Shadows" tilewidth="16" tileheight="16" tilecount="475" columns="19">
  <image source=".spring_Shadows.png" width="304" height="400"/>
 </tileset>
 <tileset firstgid="1067" name="v16_Waterfalls" tilewidth="16" tileheight="16" tilecount="900" columns="36">
  <image source=".spring_Waterfalls.png" width="576" height="400"/>
  <tile id="0"/>
  <tile id="1"/>
  <tile id="2"/>
  <tile id="3"/>
  <tile id="4"/>
  <tile id="5"/>
  <tile id="6"/>
  <tile id="7"/>
  <tile id="8"/>
  <tile id="9"/>
  <tile id="10"/>
  <tile id="11"/>
  <tile id="12"/>
  <tile id="13"/>
  <tile id="14"/>
  <tile id="15"/>
  <tile id="16"/>
  <tile id="17"/>
  <tile id="18"/>
  <tile id="19"/>
  <tile id="20"/>
  <tile id="21"/>
  <tile id="22"/>
  <tile id="23"/>
  <tile id="24"/>
  <tile id="25"/>
  <tile id="26"/>
  <tile id="27"/>
  <tile id="28"/>
  <tile id="29"/>
  <tile id="30"/>
  <tile id="31"/>
  <tile id="32"/>
  <tile id="33"/>
  <tile id="34"/>
  <tile id="35"/>
  <tile id="36"/>
  <tile id="37"/>
  <tile id="38"/>
  <tile id="39"/>
  <tile id="40"/>
  <tile id="41"/>
  <tile id="42"/>
  <tile id="43"/>
  <tile id="44"/>
  <tile id="45"/>
  <tile id="46"/>
  <tile id="47"/>
  <tile id="48"/>
  <tile id="49"/>
  <tile id="50"/>
  <tile id="51"/>
  <tile id="52"/>
  <tile id="53"/>
  <tile id="54"/>
  <tile id="55"/>
  <tile id="56"/>
  <tile id="57"/>
  <tile id="58"/>
  <tile id="59"/>
  <tile id="60"/>
  <tile id="61"/>
  <tile id="62"/>
  <tile id="63"/>
  <tile id="64"/>
  <tile id="65"/>
  <tile id="66"/>
  <tile id="67"/>
  <tile id="68"/>
  <tile id="69"/>
  <tile id="70"/>
  <tile id="71"/>
  <tile id="72"/>
  <tile id="73"/>
  <tile id="74"/>
  <tile id="75"/>
  <tile id="76"/>
  <tile id="77"/>
  <tile id="78"/>
  <tile id="79"/>
  <tile id="80"/>
  <tile id="81"/>
  <tile id="82"/>
  <tile id="83"/>
  <tile id="84"/>
  <tile id="85"/>
  <tile id="86"/>
  <tile id="87"/>
  <tile id="88"/>
  <tile id="89"/>
  <tile id="90"/>
  <tile id="91"/>
  <tile id="92"/>
  <tile id="93"/>
  <tile id="94"/>
  <tile id="95"/>
  <tile id="96"/>
  <tile id="97"/>
  <tile id="98"/>
  <tile id="99"/>
  <tile id="100"/>
  <tile id="101"/>
  <tile id="102"/>
  <tile id="103"/>
  <tile id="104"/>
  <tile id="105"/>
  <tile id="106"/>
  <tile id="107"/>
  <tile id="108"/>
  <tile id="109"/>
  <tile id="110"/>
  <tile id="111"/>
  <tile id="112"/>
  <tile id="113"/>
  <tile id="114"/>
  <tile id="115"/>
  <tile id="116"/>
  <tile id="117"/>
  <tile id="118"/>
  <tile id="119"/>
  <tile id="120"/>
  <tile id="121"/>
  <tile id="122"/>
  <tile id="123"/>
  <tile id="124"/>
  <tile id="125"/>
  <tile id="126"/>
  <tile id="127"/>
  <tile id="128"/>
  <tile id="129"/>
  <tile id="130"/>
  <tile id="131"/>
  <tile id="132"/>
  <tile id="133"/>
  <tile id="134"/>
  <tile id="135"/>
  <tile id="136"/>
  <tile id="137"/>
  <tile id="138"/>
  <tile id="139"/>
  <tile id="140"/>
  <tile id="141"/>
  <tile id="142"/>
  <tile id="143"/>
  <tile id="144"/>
  <tile id="288">
   <animation>
    <frame tileid="288" duration="100"/>
    <frame tileid="294" duration="100"/>
    <frame tileid="300" duration="100"/>
    <frame tileid="306" duration="100"/>
    <frame tileid="312" duration="100"/>
    <frame tileid="318" duration="100"/>
    <frame tileid="540" duration="100"/>
    <frame tileid="546" duration="100"/>
    <frame tileid="552" duration="100"/>
    <frame tileid="558" duration="100"/>
    <frame tileid="564" duration="100"/>
    <frame tileid="570" duration="100"/>
    <frame tileid="792" duration="100"/>
    <frame tileid="798" duration="100"/>
    <frame tileid="804" duration="100"/>
    <frame tileid="810" duration="100"/>
    <frame tileid="816" duration="100"/>
   </animation>
  </tile>
  <tile id="289">
   <animation>
    <frame tileid="289" duration="100"/>
    <frame tileid="295" duration="100"/>
    <frame tileid="301" duration="100"/>
    <frame tileid="307" duration="100"/>
    <frame tileid="313" duration="100"/>
    <frame tileid="319" duration="100"/>
    <frame tileid="541" duration="100"/>
    <frame tileid="547" duration="100"/>
    <frame tileid="553" duration="100"/>
    <frame tileid="559" duration="100"/>
    <frame tileid="565" duration="100"/>
    <frame tileid="571" duration="100"/>
    <frame tileid="793" duration="100"/>
    <frame tileid="799" duration="100"/>
    <frame tileid="805" duration="100"/>
    <frame tileid="811" duration="100"/>
    <frame tileid="817" duration="100"/>
   </animation>
  </tile>
  <tile id="290">
   <animation>
    <frame tileid="290" duration="100"/>
    <frame tileid="296" duration="100"/>
    <frame tileid="302" duration="100"/>
    <frame tileid="308" duration="100"/>
    <frame tileid="314" duration="100"/>
    <frame tileid="320" duration="100"/>
    <frame tileid="542" duration="100"/>
    <frame tileid="548" duration="100"/>
    <frame tileid="554" duration="100"/>
    <frame tileid="560" duration="100"/>
    <frame tileid="566" duration="100"/>
    <frame tileid="572" duration="100"/>
    <frame tileid="794" duration="100"/>
    <frame tileid="800" duration="100"/>
    <frame tileid="806" duration="100"/>
    <frame tileid="812" duration="100"/>
    <frame tileid="818" duration="100"/>
   </animation>
  </tile>
  <tile id="291">
   <animation>
    <frame tileid="291" duration="100"/>
    <frame tileid="297" duration="100"/>
    <frame tileid="303" duration="100"/>
    <frame tileid="309" duration="100"/>
    <frame tileid="315" duration="100"/>
    <frame tileid="321" duration="100"/>
    <frame tileid="543" duration="100"/>
    <frame tileid="549" duration="100"/>
    <frame tileid="555" duration="100"/>
    <frame tileid="561" duration="100"/>
    <frame tileid="567" duration="100"/>
    <frame tileid="573" duration="100"/>
    <frame tileid="795" duration="100"/>
    <frame tileid="801" duration="100"/>
    <frame tileid="807" duration="100"/>
    <frame tileid="813" duration="100"/>
    <frame tileid="819" duration="100"/>
   </animation>
  </tile>
  <tile id="149"/>
  <tile id="150"/>
  <tile id="151"/>
  <tile id="152"/>
  <tile id="153"/>
  <tile id="154"/>
  <tile id="155"/>
  <tile id="156"/>
  <tile id="157"/>
  <tile id="158"/>
  <tile id="159"/>
  <tile id="160"/>
  <tile id="161"/>
  <tile id="162"/>
  <tile id="163"/>
  <tile id="164"/>
  <tile id="165"/>
  <tile id="166"/>
  <tile id="167"/>
  <tile id="168"/>
  <tile id="169"/>
  <tile id="170"/>
  <tile id="171"/>
  <tile id="172"/>
  <tile id="173"/>
  <tile id="174"/>
  <tile id="175"/>
  <tile id="176"/>
  <tile id="177"/>
  <tile id="178"/>
  <tile id="179"/>
  <tile id="180"/>
  <tile id="292">
   <animation>
    <frame tileid="292" duration="100"/>
    <frame tileid="298" duration="100"/>
    <frame tileid="304" duration="100"/>
    <frame tileid="310" duration="100"/>
    <frame tileid="316" duration="100"/>
    <frame tileid="322" duration="100"/>
    <frame tileid="544" duration="100"/>
    <frame tileid="550" duration="100"/>
    <frame tileid="556" duration="100"/>
    <frame tileid="562" duration="100"/>
    <frame tileid="568" duration="100"/>
    <frame tileid="574" duration="100"/>
    <frame tileid="796" duration="100"/>
    <frame tileid="802" duration="100"/>
    <frame tileid="808" duration="100"/>
    <frame tileid="814" duration="100"/>
    <frame tileid="820" duration="100"/>
   </animation>
  </tile>
  <tile id="293">
   <animation>
    <frame tileid="293" duration="100"/>
    <frame tileid="299" duration="100"/>
    <frame tileid="305" duration="100"/>
    <frame tileid="311" duration="100"/>
    <frame tileid="317" duration="100"/>
    <frame tileid="323" duration="100"/>
    <frame tileid="545" duration="100"/>
    <frame tileid="551" duration="100"/>
    <frame tileid="557" duration="100"/>
    <frame tileid="563" duration="100"/>
    <frame tileid="569" duration="100"/>
    <frame tileid="575" duration="100"/>
    <frame tileid="797" duration="100"/>
    <frame tileid="803" duration="100"/>
    <frame tileid="809" duration="100"/>
    <frame tileid="815" duration="100"/>
    <frame tileid="821" duration="100"/>
   </animation>
  </tile>
  <tile id="324">
   <animation>
    <frame tileid="324" duration="100"/>
    <frame tileid="330" duration="100"/>
    <frame tileid="336" duration="100"/>
    <frame tileid="342" duration="100"/>
    <frame tileid="348" duration="100"/>
    <frame tileid="354" duration="100"/>
    <frame tileid="576" duration="100"/>
    <frame tileid="582" duration="100"/>
    <frame tileid="588" duration="100"/>
    <frame tileid="594" duration="100"/>
    <frame tileid="600" duration="100"/>
    <frame tileid="606" duration="100"/>
    <frame tileid="828" duration="100"/>
    <frame tileid="834" duration="100"/>
    <frame tileid="840" duration="100"/>
    <frame tileid="846" duration="100"/>
    <frame tileid="852" duration="100"/>
   </animation>
  </tile>
  <tile id="325">
   <animation>
    <frame tileid="325" duration="100"/>
    <frame tileid="331" duration="100"/>
    <frame tileid="337" duration="100"/>
    <frame tileid="343" duration="100"/>
    <frame tileid="349" duration="100"/>
    <frame tileid="355" duration="100"/>
    <frame tileid="577" duration="100"/>
    <frame tileid="583" duration="100"/>
    <frame tileid="589" duration="100"/>
    <frame tileid="595" duration="100"/>
    <frame tileid="601" duration="100"/>
    <frame tileid="607" duration="100"/>
    <frame tileid="829" duration="100"/>
    <frame tileid="835" duration="100"/>
    <frame tileid="841" duration="100"/>
    <frame tileid="847" duration="100"/>
    <frame tileid="853" duration="100"/>
   </animation>
  </tile>
  <tile id="185"/>
  <tile id="186"/>
  <tile id="187"/>
  <tile id="188"/>
  <tile id="189"/>
  <tile id="190"/>
  <tile id="191"/>
  <tile id="192"/>
  <tile id="193"/>
  <tile id="194"/>
  <tile id="195"/>
  <tile id="196"/>
  <tile id="197"/>
  <tile id="198"/>
  <tile id="199"/>
  <tile id="200"/>
  <tile id="201"/>
  <tile id="202"/>
  <tile id="203"/>
  <tile id="204"/>
  <tile id="205"/>
  <tile id="206"/>
  <tile id="207"/>
  <tile id="208"/>
  <tile id="209"/>
  <tile id="210"/>
  <tile id="211"/>
  <tile id="212"/>
  <tile id="213"/>
  <tile id="214"/>
  <tile id="215"/>
  <tile id="216"/>
  <tile id="326">
   <animation>
    <frame tileid="326" duration="100"/>
    <frame tileid="332" duration="100"/>
    <frame tileid="338" duration="100"/>
    <frame tileid="344" duration="100"/>
    <frame tileid="350" duration="100"/>
    <frame tileid="356" duration="100"/>
    <frame tileid="578" duration="100"/>
    <frame tileid="584" duration="100"/>
    <frame tileid="590" duration="100"/>
    <frame tileid="596" duration="100"/>
    <frame tileid="602" duration="100"/>
    <frame tileid="608" duration="100"/>
    <frame tileid="830" duration="100"/>
    <frame tileid="836" duration="100"/>
    <frame tileid="842" duration="100"/>
    <frame tileid="848" duration="100"/>
    <frame tileid="854" duration="100"/>
   </animation>
  </tile>
  <tile id="327">
   <animation>
    <frame tileid="327" duration="100"/>
    <frame tileid="333" duration="100"/>
    <frame tileid="339" duration="100"/>
    <frame tileid="345" duration="100"/>
    <frame tileid="351" duration="100"/>
    <frame tileid="357" duration="100"/>
    <frame tileid="579" duration="100"/>
    <frame tileid="585" duration="100"/>
    <frame tileid="591" duration="100"/>
    <frame tileid="597" duration="100"/>
    <frame tileid="603" duration="100"/>
    <frame tileid="609" duration="100"/>
    <frame tileid="831" duration="100"/>
    <frame tileid="837" duration="100"/>
    <frame tileid="843" duration="100"/>
    <frame tileid="849" duration="100"/>
    <frame tileid="855" duration="100"/>
   </animation>
  </tile>
  <tile id="328">
   <animation>
    <frame tileid="328" duration="100"/>
    <frame tileid="334" duration="100"/>
    <frame tileid="340" duration="100"/>
    <frame tileid="346" duration="100"/>
    <frame tileid="352" duration="100"/>
    <frame tileid="358" duration="100"/>
    <frame tileid="580" duration="100"/>
    <frame tileid="586" duration="100"/>
    <frame tileid="592" duration="100"/>
    <frame tileid="598" duration="100"/>
    <frame tileid="604" duration="100"/>
    <frame tileid="610" duration="100"/>
    <frame tileid="832" duration="100"/>
    <frame tileid="838" duration="100"/>
    <frame tileid="844" duration="100"/>
    <frame tileid="850" duration="100"/>
    <frame tileid="856" duration="100"/>
   </animation>
  </tile>
  <tile id="329">
   <animation>
    <frame tileid="329" duration="100"/>
    <frame tileid="335" duration="100"/>
    <frame tileid="341" duration="100"/>
    <frame tileid="347" duration="100"/>
    <frame tileid="353" duration="100"/>
    <frame tileid="359" duration="100"/>
    <frame tileid="581" duration="100"/>
    <frame tileid="587" duration="100"/>
    <frame tileid="593" duration="100"/>
    <frame tileid="599" duration="100"/>
    <frame tileid="605" duration="100"/>
    <frame tileid="611" duration="100"/>
    <frame tileid="833" duration="100"/>
    <frame tileid="839" duration="100"/>
    <frame tileid="845" duration="100"/>
    <frame tileid="851" duration="100"/>
    <frame tileid="857" duration="100"/>
   </animation>
  </tile>
  <tile id="221"/>
  <tile id="222"/>
  <tile id="223"/>
  <tile id="224"/>
  <tile id="225"/>
  <tile id="226"/>
  <tile id="227"/>
  <tile id="228"/>
  <tile id="229"/>
  <tile id="230"/>
  <tile id="231"/>
  <tile id="232"/>
  <tile id="233"/>
  <tile id="234"/>
  <tile id="235"/>
  <tile id="236"/>
  <tile id="237"/>
  <tile id="238"/>
  <tile id="239"/>
  <tile id="240"/>
  <tile id="241"/>
  <tile id="242"/>
  <tile id="243"/>
  <tile id="244"/>
  <tile id="245"/>
  <tile id="246"/>
  <tile id="247"/>
  <tile id="248"/>
  <tile id="249"/>
  <tile id="250"/>
  <tile id="251"/>
  <tile id="252"/>
  <tile id="360">
   <animation>
    <frame tileid="360" duration="100"/>
    <frame tileid="366" duration="100"/>
    <frame tileid="372" duration="100"/>
    <frame tileid="378" duration="100"/>
    <frame tileid="384" duration="100"/>
    <frame tileid="390" duration="100"/>
    <frame tileid="612" duration="100"/>
    <frame tileid="618" duration="100"/>
    <frame tileid="624" duration="100"/>
    <frame tileid="630" duration="100"/>
    <frame tileid="636" duration="100"/>
    <frame tileid="642" duration="100"/>
    <frame tileid="864" duration="100"/>
    <frame tileid="870" duration="100"/>
    <frame tileid="876" duration="100"/>
    <frame tileid="882" duration="100"/>
    <frame tileid="888" duration="100"/>
   </animation>
  </tile>
  <tile id="361">
   <animation>
    <frame tileid="361" duration="100"/>
    <frame tileid="367" duration="100"/>
    <frame tileid="373" duration="100"/>
    <frame tileid="379" duration="100"/>
    <frame tileid="385" duration="100"/>
    <frame tileid="391" duration="100"/>
    <frame tileid="613" duration="100"/>
    <frame tileid="619" duration="100"/>
    <frame tileid="625" duration="100"/>
    <frame tileid="631" duration="100"/>
    <frame tileid="637" duration="100"/>
    <frame tileid="643" duration="100"/>
    <frame tileid="865" duration="100"/>
    <frame tileid="871" duration="100"/>
    <frame tileid="877" duration="100"/>
    <frame tileid="883" duration="100"/>
    <frame tileid="889" duration="100"/>
   </animation>
  </tile>
  <tile id="362">
   <animation>
    <frame tileid="362" duration="100"/>
    <frame tileid="368" duration="100"/>
    <frame tileid="374" duration="100"/>
    <frame tileid="380" duration="100"/>
    <frame tileid="386" duration="100"/>
    <frame tileid="392" duration="100"/>
    <frame tileid="614" duration="100"/>
    <frame tileid="620" duration="100"/>
    <frame tileid="626" duration="100"/>
    <frame tileid="632" duration="100"/>
    <frame tileid="638" duration="100"/>
    <frame tileid="644" duration="100"/>
    <frame tileid="866" duration="100"/>
    <frame tileid="872" duration="100"/>
    <frame tileid="878" duration="100"/>
    <frame tileid="884" duration="100"/>
    <frame tileid="890" duration="100"/>
   </animation>
  </tile>
  <tile id="363">
   <animation>
    <frame tileid="363" duration="100"/>
    <frame tileid="369" duration="100"/>
    <frame tileid="375" duration="100"/>
    <frame tileid="381" duration="100"/>
    <frame tileid="387" duration="100"/>
    <frame tileid="393" duration="100"/>
    <frame tileid="615" duration="100"/>
    <frame tileid="621" duration="100"/>
    <frame tileid="627" duration="100"/>
    <frame tileid="633" duration="100"/>
    <frame tileid="639" duration="100"/>
    <frame tileid="645" duration="100"/>
    <frame tileid="867" duration="100"/>
    <frame tileid="873" duration="100"/>
    <frame tileid="879" duration="100"/>
    <frame tileid="885" duration="100"/>
    <frame tileid="891" duration="100"/>
   </animation>
  </tile>
  <tile id="257"/>
  <tile id="258"/>
  <tile id="259"/>
  <tile id="260"/>
  <tile id="261"/>
  <tile id="262"/>
  <tile id="263"/>
  <tile id="264"/>
  <tile id="265"/>
  <tile id="266"/>
  <tile id="267"/>
  <tile id="268"/>
  <tile id="269"/>
  <tile id="270"/>
  <tile id="271"/>
  <tile id="272"/>
  <tile id="273"/>
  <tile id="274"/>
  <tile id="275"/>
  <tile id="276"/>
  <tile id="277"/>
  <tile id="278"/>
  <tile id="279"/>
  <tile id="280"/>
  <tile id="281"/>
  <tile id="282"/>
  <tile id="283"/>
  <tile id="284"/>
  <tile id="285"/>
  <tile id="286"/>
  <tile id="287"/>
  <tile id="364">
   <animation>
    <frame tileid="364" duration="100"/>
    <frame tileid="370" duration="100"/>
    <frame tileid="376" duration="100"/>
    <frame tileid="382" duration="100"/>
    <frame tileid="388" duration="100"/>
    <frame tileid="394" duration="100"/>
    <frame tileid="616" duration="100"/>
    <frame tileid="622" duration="100"/>
    <frame tileid="628" duration="100"/>
    <frame tileid="634" duration="100"/>
    <frame tileid="640" duration="100"/>
    <frame tileid="646" duration="100"/>
    <frame tileid="868" duration="100"/>
    <frame tileid="874" duration="100"/>
    <frame tileid="880" duration="100"/>
    <frame tileid="886" duration="100"/>
    <frame tileid="892" duration="100"/>
   </animation>
  </tile>
  <tile id="365">
   <animation>
    <frame tileid="365" duration="100"/>
    <frame tileid="371" duration="100"/>
    <frame tileid="377" duration="100"/>
    <frame tileid="383" duration="100"/>
    <frame tileid="389" duration="100"/>
    <frame tileid="395" duration="100"/>
    <frame tileid="617" duration="100"/>
    <frame tileid="623" duration="100"/>
    <frame tileid="629" duration="100"/>
    <frame tileid="635" duration="100"/>
    <frame tileid="641" duration="100"/>
    <frame tileid="647" duration="100"/>
    <frame tileid="869" duration="100"/>
    <frame tileid="875" duration="100"/>
    <frame tileid="881" duration="100"/>
    <frame tileid="887" duration="100"/>
    <frame tileid="893" duration="100"/>
   </animation>
  </tile>
  <tile id="145">
   <animation>
    <frame tileid="145" duration="100"/>
    <frame tileid="151" duration="100"/>
    <frame tileid="157" duration="100"/>
    <frame tileid="163" duration="100"/>
    <frame tileid="169" duration="100"/>
    <frame tileid="175" duration="100"/>
    <frame tileid="397" duration="100"/>
    <frame tileid="403" duration="100"/>
    <frame tileid="409" duration="100"/>
    <frame tileid="415" duration="100"/>
    <frame tileid="421" duration="100"/>
    <frame tileid="427" duration="100"/>
    <frame tileid="649" duration="100"/>
    <frame tileid="655" duration="100"/>
    <frame tileid="661" duration="100"/>
    <frame tileid="667" duration="100"/>
    <frame tileid="673" duration="100"/>
   </animation>
  </tile>
  <tile id="146">
   <animation>
    <frame tileid="146" duration="100"/>
    <frame tileid="152" duration="100"/>
    <frame tileid="158" duration="100"/>
    <frame tileid="164" duration="100"/>
    <frame tileid="170" duration="100"/>
    <frame tileid="176" duration="100"/>
    <frame tileid="398" duration="100"/>
    <frame tileid="404" duration="100"/>
    <frame tileid="410" duration="100"/>
    <frame tileid="416" duration="100"/>
    <frame tileid="422" duration="100"/>
    <frame tileid="428" duration="100"/>
    <frame tileid="650" duration="100"/>
    <frame tileid="656" duration="100"/>
    <frame tileid="662" duration="100"/>
    <frame tileid="668" duration="100"/>
    <frame tileid="674" duration="100"/>
   </animation>
  </tile>
  <tile id="147">
   <animation>
    <frame tileid="147" duration="100"/>
    <frame tileid="153" duration="100"/>
    <frame tileid="159" duration="100"/>
    <frame tileid="165" duration="100"/>
    <frame tileid="171" duration="100"/>
    <frame tileid="177" duration="100"/>
    <frame tileid="399" duration="100"/>
    <frame tileid="405" duration="100"/>
    <frame tileid="411" duration="100"/>
    <frame tileid="417" duration="100"/>
    <frame tileid="423" duration="100"/>
    <frame tileid="429" duration="100"/>
    <frame tileid="651" duration="100"/>
    <frame tileid="657" duration="100"/>
    <frame tileid="663" duration="100"/>
    <frame tileid="669" duration="100"/>
    <frame tileid="675" duration="100"/>
   </animation>
  </tile>
  <tile id="148">
   <animation>
    <frame tileid="148" duration="100"/>
    <frame tileid="154" duration="100"/>
    <frame tileid="160" duration="100"/>
    <frame tileid="166" duration="100"/>
    <frame tileid="172" duration="100"/>
    <frame tileid="178" duration="100"/>
    <frame tileid="400" duration="100"/>
    <frame tileid="406" duration="100"/>
    <frame tileid="412" duration="100"/>
    <frame tileid="418" duration="100"/>
    <frame tileid="424" duration="100"/>
    <frame tileid="430" duration="100"/>
    <frame tileid="652" duration="100"/>
    <frame tileid="658" duration="100"/>
    <frame tileid="664" duration="100"/>
    <frame tileid="670" duration="100"/>
    <frame tileid="676" duration="100"/>
   </animation>
  </tile>
  <tile id="294"/>
  <tile id="295"/>
  <tile id="296"/>
  <tile id="297"/>
  <tile id="298"/>
  <tile id="299"/>
  <tile id="300"/>
  <tile id="301"/>
  <tile id="302"/>
  <tile id="303"/>
  <tile id="304"/>
  <tile id="305"/>
  <tile id="306"/>
  <tile id="307"/>
  <tile id="308"/>
  <tile id="309"/>
  <tile id="310"/>
  <tile id="311"/>
  <tile id="312"/>
  <tile id="313"/>
  <tile id="314"/>
  <tile id="315"/>
  <tile id="316"/>
  <tile id="317"/>
  <tile id="318"/>
  <tile id="319"/>
  <tile id="320"/>
  <tile id="321"/>
  <tile id="322"/>
  <tile id="323"/>
  <tile id="181">
   <animation>
    <frame tileid="181" duration="100"/>
    <frame tileid="187" duration="100"/>
    <frame tileid="193" duration="100"/>
    <frame tileid="199" duration="100"/>
    <frame tileid="205" duration="100"/>
    <frame tileid="211" duration="100"/>
    <frame tileid="433" duration="100"/>
    <frame tileid="439" duration="100"/>
    <frame tileid="445" duration="100"/>
    <frame tileid="451" duration="100"/>
    <frame tileid="457" duration="100"/>
    <frame tileid="463" duration="100"/>
    <frame tileid="685" duration="100"/>
    <frame tileid="691" duration="100"/>
    <frame tileid="697" duration="100"/>
    <frame tileid="703" duration="100"/>
    <frame tileid="709" duration="100"/>
   </animation>
  </tile>
  <tile id="182">
   <animation>
    <frame tileid="182" duration="100"/>
    <frame tileid="188" duration="100"/>
    <frame tileid="194" duration="100"/>
    <frame tileid="200" duration="100"/>
    <frame tileid="206" duration="100"/>
    <frame tileid="212" duration="100"/>
    <frame tileid="434" duration="100"/>
    <frame tileid="440" duration="100"/>
    <frame tileid="446" duration="100"/>
    <frame tileid="452" duration="100"/>
    <frame tileid="458" duration="100"/>
    <frame tileid="464" duration="100"/>
    <frame tileid="686" duration="100"/>
    <frame tileid="692" duration="100"/>
    <frame tileid="698" duration="100"/>
    <frame tileid="704" duration="100"/>
    <frame tileid="710" duration="100"/>
   </animation>
  </tile>
  <tile id="183">
   <animation>
    <frame tileid="183" duration="100"/>
    <frame tileid="189" duration="100"/>
    <frame tileid="195" duration="100"/>
    <frame tileid="201" duration="100"/>
    <frame tileid="207" duration="100"/>
    <frame tileid="213" duration="100"/>
    <frame tileid="435" duration="100"/>
    <frame tileid="441" duration="100"/>
    <frame tileid="447" duration="100"/>
    <frame tileid="453" duration="100"/>
    <frame tileid="459" duration="100"/>
    <frame tileid="465" duration="100"/>
    <frame tileid="687" duration="100"/>
    <frame tileid="693" duration="100"/>
    <frame tileid="699" duration="100"/>
    <frame tileid="705" duration="100"/>
    <frame tileid="711" duration="100"/>
   </animation>
  </tile>
  <tile id="184">
   <animation>
    <frame tileid="184" duration="100"/>
    <frame tileid="190" duration="100"/>
    <frame tileid="196" duration="100"/>
    <frame tileid="202" duration="100"/>
    <frame tileid="208" duration="100"/>
    <frame tileid="214" duration="100"/>
    <frame tileid="436" duration="100"/>
    <frame tileid="442" duration="100"/>
    <frame tileid="448" duration="100"/>
    <frame tileid="454" duration="100"/>
    <frame tileid="460" duration="100"/>
    <frame tileid="466" duration="100"/>
    <frame tileid="688" duration="100"/>
    <frame tileid="694" duration="100"/>
    <frame tileid="700" duration="100"/>
    <frame tileid="706" duration="100"/>
    <frame tileid="712" duration="100"/>
   </animation>
  </tile>
  <tile id="217">
   <animation>
    <frame tileid="217" duration="100"/>
    <frame tileid="223" duration="100"/>
    <frame tileid="229" duration="100"/>
    <frame tileid="235" duration="100"/>
    <frame tileid="241" duration="100"/>
    <frame tileid="247" duration="100"/>
    <frame tileid="469" duration="100"/>
    <frame tileid="475" duration="100"/>
    <frame tileid="481" duration="100"/>
    <frame tileid="487" duration="100"/>
    <frame tileid="493" duration="100"/>
    <frame tileid="499" duration="100"/>
    <frame tileid="721" duration="100"/>
    <frame tileid="727" duration="100"/>
    <frame tileid="733" duration="100"/>
    <frame tileid="739" duration="100"/>
    <frame tileid="745" duration="100"/>
   </animation>
  </tile>
  <tile id="218">
   <animation>
    <frame tileid="218" duration="100"/>
    <frame tileid="224" duration="100"/>
    <frame tileid="230" duration="100"/>
    <frame tileid="236" duration="100"/>
    <frame tileid="242" duration="100"/>
    <frame tileid="248" duration="100"/>
    <frame tileid="470" duration="100"/>
    <frame tileid="476" duration="100"/>
    <frame tileid="482" duration="100"/>
    <frame tileid="488" duration="100"/>
    <frame tileid="494" duration="100"/>
    <frame tileid="500" duration="100"/>
    <frame tileid="722" duration="100"/>
    <frame tileid="728" duration="100"/>
    <frame tileid="734" duration="100"/>
    <frame tileid="740" duration="100"/>
    <frame tileid="746" duration="100"/>
   </animation>
  </tile>
  <tile id="330"/>
  <tile id="331"/>
  <tile id="332"/>
  <tile id="333"/>
  <tile id="334"/>
  <tile id="335"/>
  <tile id="336"/>
  <tile id="337"/>
  <tile id="338"/>
  <tile id="339"/>
  <tile id="340"/>
  <tile id="341"/>
  <tile id="342"/>
  <tile id="343"/>
  <tile id="344"/>
  <tile id="345"/>
  <tile id="346"/>
  <tile id="347"/>
  <tile id="348"/>
  <tile id="349"/>
  <tile id="350"/>
  <tile id="351"/>
  <tile id="352"/>
  <tile id="353"/>
  <tile id="354"/>
  <tile id="355"/>
  <tile id="356"/>
  <tile id="357"/>
  <tile id="358"/>
  <tile id="359"/>
  <tile id="219">
   <animation>
    <frame tileid="219" duration="100"/>
    <frame tileid="225" duration="100"/>
    <frame tileid="231" duration="100"/>
    <frame tileid="237" duration="100"/>
    <frame tileid="243" duration="100"/>
    <frame tileid="249" duration="100"/>
    <frame tileid="471" duration="100"/>
    <frame tileid="477" duration="100"/>
    <frame tileid="483" duration="100"/>
    <frame tileid="489" duration="100"/>
    <frame tileid="495" duration="100"/>
    <frame tileid="501" duration="100"/>
    <frame tileid="723" duration="100"/>
    <frame tileid="729" duration="100"/>
    <frame tileid="735" duration="100"/>
    <frame tileid="741" duration="100"/>
    <frame tileid="747" duration="100"/>
   </animation>
  </tile>
  <tile id="220">
   <animation>
    <frame tileid="220" duration="100"/>
    <frame tileid="226" duration="100"/>
    <frame tileid="232" duration="100"/>
    <frame tileid="238" duration="100"/>
    <frame tileid="244" duration="100"/>
    <frame tileid="250" duration="100"/>
    <frame tileid="472" duration="100"/>
    <frame tileid="478" duration="100"/>
    <frame tileid="484" duration="100"/>
    <frame tileid="490" duration="100"/>
    <frame tileid="496" duration="100"/>
    <frame tileid="502" duration="100"/>
    <frame tileid="724" duration="100"/>
    <frame tileid="730" duration="100"/>
    <frame tileid="736" duration="100"/>
    <frame tileid="742" duration="100"/>
    <frame tileid="748" duration="100"/>
   </animation>
  </tile>
  <tile id="253">
   <animation>
    <frame tileid="253" duration="100"/>
    <frame tileid="259" duration="100"/>
    <frame tileid="265" duration="100"/>
    <frame tileid="271" duration="100"/>
    <frame tileid="277" duration="100"/>
    <frame tileid="283" duration="100"/>
    <frame tileid="505" duration="100"/>
    <frame tileid="511" duration="100"/>
    <frame tileid="517" duration="100"/>
    <frame tileid="523" duration="100"/>
    <frame tileid="529" duration="100"/>
    <frame tileid="535" duration="100"/>
    <frame tileid="757" duration="100"/>
    <frame tileid="763" duration="100"/>
    <frame tileid="769" duration="100"/>
    <frame tileid="775" duration="100"/>
    <frame tileid="781" duration="100"/>
   </animation>
  </tile>
  <tile id="254">
   <animation>
    <frame tileid="254" duration="100"/>
    <frame tileid="260" duration="100"/>
    <frame tileid="266" duration="100"/>
    <frame tileid="272" duration="100"/>
    <frame tileid="278" duration="100"/>
    <frame tileid="284" duration="100"/>
    <frame tileid="506" duration="100"/>
    <frame tileid="512" duration="100"/>
    <frame tileid="518" duration="100"/>
    <frame tileid="524" duration="100"/>
    <frame tileid="530" duration="100"/>
    <frame tileid="536" duration="100"/>
    <frame tileid="758" duration="100"/>
    <frame tileid="764" duration="100"/>
    <frame tileid="770" duration="100"/>
    <frame tileid="776" duration="100"/>
    <frame tileid="782" duration="100"/>
   </animation>
  </tile>
  <tile id="255">
   <animation>
    <frame tileid="255" duration="100"/>
    <frame tileid="261" duration="100"/>
    <frame tileid="267" duration="100"/>
    <frame tileid="273" duration="100"/>
    <frame tileid="279" duration="100"/>
    <frame tileid="285" duration="100"/>
    <frame tileid="507" duration="100"/>
    <frame tileid="513" duration="100"/>
    <frame tileid="519" duration="100"/>
    <frame tileid="525" duration="100"/>
    <frame tileid="531" duration="100"/>
    <frame tileid="537" duration="100"/>
    <frame tileid="759" duration="100"/>
    <frame tileid="765" duration="100"/>
    <frame tileid="771" duration="100"/>
    <frame tileid="777" duration="100"/>
    <frame tileid="783" duration="100"/>
   </animation>
  </tile>
  <tile id="256">
   <animation>
    <frame tileid="256" duration="100"/>
    <frame tileid="262" duration="100"/>
    <frame tileid="268" duration="100"/>
    <frame tileid="274" duration="100"/>
    <frame tileid="280" duration="100"/>
    <frame tileid="286" duration="100"/>
    <frame tileid="508" duration="100"/>
    <frame tileid="514" duration="100"/>
    <frame tileid="520" duration="100"/>
    <frame tileid="526" duration="100"/>
    <frame tileid="532" duration="100"/>
    <frame tileid="538" duration="100"/>
    <frame tileid="760" duration="100"/>
    <frame tileid="766" duration="100"/>
    <frame tileid="772" duration="100"/>
    <frame tileid="778" duration="100"/>
    <frame tileid="784" duration="100"/>
   </animation>
  </tile>
  <tile id="366"/>
  <tile id="367"/>
  <tile id="368"/>
  <tile id="369"/>
  <tile id="370"/>
  <tile id="371"/>
  <tile id="372"/>
  <tile id="373"/>
  <tile id="374"/>
  <tile id="375"/>
  <tile id="376"/>
  <tile id="377"/>
  <tile id="378"/>
  <tile id="379"/>
  <tile id="380"/>
  <tile id="381"/>
  <tile id="382"/>
  <tile id="383"/>
  <tile id="384"/>
  <tile id="385"/>
  <tile id="386"/>
  <tile id="387"/>
  <tile id="388"/>
  <tile id="389"/>
  <tile id="390"/>
  <tile id="391"/>
  <tile id="392"/>
  <tile id="393"/>
  <tile id="394"/>
  <tile id="395"/>
  <tile id="396"/>
  <tile id="397"/>
  <tile id="398"/>
  <tile id="399"/>
  <tile id="400"/>
  <tile id="401"/>
  <tile id="402"/>
  <tile id="403"/>
  <tile id="404"/>
  <tile id="405"/>
  <tile id="406"/>
  <tile id="407"/>
  <tile id="408"/>
  <tile id="409"/>
  <tile id="410"/>
  <tile id="411"/>
  <tile id="412"/>
  <tile id="413"/>
  <tile id="414"/>
  <tile id="415"/>
  <tile id="416"/>
  <tile id="417"/>
  <tile id="418"/>
  <tile id="419"/>
  <tile id="420"/>
  <tile id="421"/>
  <tile id="422"/>
  <tile id="423"/>
  <tile id="424"/>
  <tile id="425"/>
  <tile id="426"/>
  <tile id="427"/>
  <tile id="428"/>
  <tile id="429"/>
  <tile id="430"/>
  <tile id="431"/>
  <tile id="432"/>
  <tile id="433"/>
  <tile id="434"/>
  <tile id="435"/>
  <tile id="436"/>
  <tile id="437"/>
  <tile id="438"/>
  <tile id="439"/>
  <tile id="440"/>
  <tile id="441"/>
  <tile id="442"/>
  <tile id="443"/>
  <tile id="444"/>
  <tile id="445"/>
  <tile id="446"/>
  <tile id="447"/>
  <tile id="448"/>
  <tile id="449"/>
  <tile id="450"/>
  <tile id="451"/>
  <tile id="452"/>
  <tile id="453"/>
  <tile id="454"/>
  <tile id="455"/>
  <tile id="456"/>
  <tile id="457"/>
  <tile id="458"/>
  <tile id="459"/>
  <tile id="460"/>
  <tile id="461"/>
  <tile id="462"/>
  <tile id="463"/>
  <tile id="464"/>
  <tile id="465"/>
  <tile id="466"/>
  <tile id="467"/>
  <tile id="468"/>
  <tile id="469"/>
  <tile id="470"/>
  <tile id="471"/>
  <tile id="472"/>
  <tile id="473"/>
  <tile id="474"/>
  <tile id="475"/>
  <tile id="476"/>
  <tile id="477"/>
  <tile id="478"/>
  <tile id="479"/>
  <tile id="480"/>
  <tile id="481"/>
  <tile id="482"/>
  <tile id="483"/>
  <tile id="484"/>
  <tile id="485"/>
  <tile id="486"/>
  <tile id="487"/>
  <tile id="488"/>
  <tile id="489"/>
  <tile id="490"/>
  <tile id="491"/>
  <tile id="492"/>
  <tile id="493"/>
  <tile id="494"/>
  <tile id="495"/>
  <tile id="496"/>
  <tile id="497"/>
  <tile id="498"/>
  <tile id="499"/>
  <tile id="500"/>
  <tile id="501"/>
  <tile id="502"/>
  <tile id="503"/>
  <tile id="504"/>
  <tile id="505"/>
  <tile id="506"/>
  <tile id="507"/>
  <tile id="508"/>
  <tile id="509"/>
  <tile id="510"/>
  <tile id="511"/>
  <tile id="512"/>
  <tile id="513"/>
  <tile id="514"/>
  <tile id="515"/>
  <tile id="516"/>
  <tile id="517"/>
  <tile id="518"/>
  <tile id="519"/>
  <tile id="520"/>
  <tile id="521"/>
  <tile id="522"/>
  <tile id="523"/>
  <tile id="524"/>
  <tile id="525"/>
  <tile id="526"/>
  <tile id="527"/>
  <tile id="528"/>
  <tile id="529"/>
  <tile id="530"/>
  <tile id="531"/>
  <tile id="532"/>
  <tile id="533"/>
  <tile id="534"/>
  <tile id="535"/>
  <tile id="536"/>
  <tile id="537"/>
  <tile id="538"/>
  <tile id="539"/>
  <tile id="540"/>
  <tile id="541"/>
  <tile id="542"/>
  <tile id="543"/>
  <tile id="544"/>
  <tile id="545"/>
  <tile id="546"/>
  <tile id="547"/>
  <tile id="548"/>
  <tile id="549"/>
  <tile id="550"/>
  <tile id="551"/>
  <tile id="552"/>
  <tile id="553"/>
  <tile id="554"/>
  <tile id="555"/>
  <tile id="556"/>
  <tile id="557"/>
  <tile id="558"/>
  <tile id="559"/>
  <tile id="560"/>
  <tile id="561"/>
  <tile id="562"/>
  <tile id="563"/>
  <tile id="564"/>
  <tile id="565"/>
  <tile id="566"/>
  <tile id="567"/>
  <tile id="568"/>
  <tile id="569"/>
  <tile id="570"/>
  <tile id="571"/>
  <tile id="572"/>
  <tile id="573"/>
  <tile id="574"/>
  <tile id="575"/>
  <tile id="576"/>
  <tile id="577"/>
  <tile id="578"/>
  <tile id="579"/>
  <tile id="580"/>
  <tile id="581"/>
  <tile id="582"/>
  <tile id="583"/>
  <tile id="584"/>
  <tile id="585"/>
  <tile id="586"/>
  <tile id="587"/>
  <tile id="588"/>
  <tile id="589"/>
  <tile id="590"/>
  <tile id="591"/>
  <tile id="592"/>
  <tile id="593"/>
  <tile id="594"/>
  <tile id="595"/>
  <tile id="596"/>
  <tile id="597"/>
  <tile id="598"/>
  <tile id="599"/>
  <tile id="600"/>
  <tile id="601"/>
  <tile id="602"/>
  <tile id="603"/>
  <tile id="604"/>
  <tile id="605"/>
  <tile id="606"/>
  <tile id="607"/>
  <tile id="608"/>
  <tile id="609"/>
  <tile id="610"/>
  <tile id="611"/>
  <tile id="612"/>
  <tile id="613"/>
  <tile id="614"/>
  <tile id="615"/>
  <tile id="616"/>
  <tile id="617"/>
  <tile id="618"/>
  <tile id="619"/>
  <tile id="620"/>
  <tile id="621"/>
  <tile id="622"/>
  <tile id="623"/>
  <tile id="624"/>
  <tile id="625"/>
  <tile id="626"/>
  <tile id="627"/>
  <tile id="628"/>
  <tile id="629"/>
  <tile id="630"/>
  <tile id="631"/>
  <tile id="632"/>
  <tile id="633"/>
  <tile id="634"/>
  <tile id="635"/>
  <tile id="636"/>
  <tile id="637"/>
  <tile id="638"/>
  <tile id="639"/>
  <tile id="640"/>
  <tile id="641"/>
  <tile id="642"/>
  <tile id="643"/>
  <tile id="644"/>
  <tile id="645"/>
  <tile id="646"/>
  <tile id="647"/>
  <tile id="648"/>
  <tile id="649"/>
  <tile id="650"/>
  <tile id="651"/>
  <tile id="652"/>
  <tile id="653"/>
  <tile id="654"/>
  <tile id="655"/>
  <tile id="656"/>
  <tile id="657"/>
  <tile id="658"/>
  <tile id="659"/>
  <tile id="660"/>
  <tile id="661"/>
  <tile id="662"/>
  <tile id="663"/>
  <tile id="664"/>
  <tile id="665"/>
  <tile id="666"/>
  <tile id="667"/>
  <tile id="668"/>
  <tile id="669"/>
  <tile id="670"/>
  <tile id="671"/>
  <tile id="672"/>
  <tile id="673"/>
  <tile id="674"/>
  <tile id="675"/>
  <tile id="676"/>
  <tile id="677"/>
  <tile id="678"/>
  <tile id="679"/>
  <tile id="680"/>
  <tile id="681"/>
  <tile id="682"/>
  <tile id="683"/>
  <tile id="684"/>
  <tile id="685"/>
  <tile id="686"/>
  <tile id="687"/>
  <tile id="688"/>
  <tile id="689"/>
  <tile id="690"/>
  <tile id="691"/>
  <tile id="692"/>
  <tile id="693"/>
  <tile id="694"/>
  <tile id="695"/>
  <tile id="696"/>
  <tile id="697"/>
  <tile id="698"/>
  <tile id="699"/>
  <tile id="700"/>
  <tile id="701"/>
  <tile id="702"/>
  <tile id="703"/>
  <tile id="704"/>
  <tile id="705"/>
  <tile id="706"/>
  <tile id="707"/>
  <tile id="708"/>
  <tile id="709"/>
  <tile id="710"/>
  <tile id="711"/>
  <tile id="712"/>
  <tile id="713"/>
  <tile id="714"/>
  <tile id="715"/>
  <tile id="716"/>
  <tile id="717"/>
  <tile id="718"/>
  <tile id="719"/>
  <tile id="720"/>
  <tile id="721"/>
  <tile id="722"/>
  <tile id="723"/>
  <tile id="724"/>
  <tile id="725"/>
  <tile id="726"/>
  <tile id="727"/>
  <tile id="728"/>
  <tile id="729"/>
  <tile id="730"/>
  <tile id="731"/>
  <tile id="732"/>
  <tile id="733"/>
  <tile id="734"/>
  <tile id="735"/>
  <tile id="736"/>
  <tile id="737"/>
  <tile id="738"/>
  <tile id="739"/>
  <tile id="740"/>
  <tile id="741"/>
  <tile id="742"/>
  <tile id="743"/>
  <tile id="744"/>
  <tile id="745"/>
  <tile id="746"/>
  <tile id="747"/>
  <tile id="748"/>
  <tile id="749"/>
  <tile id="750"/>
  <tile id="751"/>
  <tile id="752"/>
  <tile id="753"/>
  <tile id="754"/>
  <tile id="755"/>
  <tile id="756"/>
  <tile id="757"/>
  <tile id="758"/>
  <tile id="759"/>
  <tile id="760"/>
  <tile id="761"/>
  <tile id="762"/>
  <tile id="763"/>
  <tile id="764"/>
  <tile id="765"/>
  <tile id="766"/>
  <tile id="767"/>
  <tile id="768"/>
  <tile id="769"/>
  <tile id="770"/>
  <tile id="771"/>
  <tile id="772"/>
  <tile id="773"/>
  <tile id="774"/>
  <tile id="775"/>
  <tile id="776"/>
  <tile id="777"/>
  <tile id="778"/>
  <tile id="779"/>
  <tile id="780"/>
  <tile id="781"/>
  <tile id="782"/>
  <tile id="783"/>
  <tile id="784"/>
  <tile id="785"/>
  <tile id="786"/>
  <tile id="787"/>
  <tile id="788"/>
  <tile id="789"/>
  <tile id="790"/>
  <tile id="791"/>
  <tile id="792"/>
  <tile id="793"/>
  <tile id="794"/>
  <tile id="795"/>
  <tile id="796"/>
  <tile id="797"/>
  <tile id="798"/>
  <tile id="799"/>
  <tile id="800"/>
  <tile id="801"/>
  <tile id="802"/>
  <tile id="803"/>
  <tile id="804"/>
  <tile id="805"/>
  <tile id="806"/>
  <tile id="807"/>
  <tile id="808"/>
  <tile id="809"/>
  <tile id="810"/>
  <tile id="811"/>
  <tile id="812"/>
  <tile id="813"/>
  <tile id="814"/>
  <tile id="815"/>
  <tile id="816"/>
  <tile id="817"/>
  <tile id="818"/>
  <tile id="819"/>
  <tile id="820"/>
  <tile id="821"/>
  <tile id="822"/>
  <tile id="823"/>
  <tile id="824"/>
  <tile id="825"/>
  <tile id="826"/>
  <tile id="827"/>
  <tile id="828"/>
  <tile id="829"/>
  <tile id="830"/>
  <tile id="831"/>
  <tile id="832"/>
  <tile id="833"/>
  <tile id="834"/>
  <tile id="835"/>
  <tile id="836"/>
  <tile id="837"/>
  <tile id="838"/>
  <tile id="839"/>
  <tile id="840"/>
  <tile id="841"/>
  <tile id="842"/>
  <tile id="843"/>
  <tile id="844"/>
  <tile id="845"/>
  <tile id="846"/>
  <tile id="847"/>
  <tile id="848"/>
  <tile id="849"/>
  <tile id="850"/>
  <tile id="851"/>
  <tile id="852"/>
  <tile id="853"/>
  <tile id="854"/>
  <tile id="855"/>
  <tile id="856"/>
  <tile id="857"/>
  <tile id="858"/>
  <tile id="859"/>
  <tile id="860"/>
  <tile id="861"/>
  <tile id="862"/>
  <tile id="863"/>
  <tile id="864"/>
  <tile id="865"/>
  <tile id="866"/>
  <tile id="867"/>
  <tile id="868"/>
  <tile id="869"/>
  <tile id="870"/>
  <tile id="871"/>
  <tile id="872"/>
  <tile id="873"/>
  <tile id="874"/>
  <tile id="875"/>
  <tile id="876"/>
  <tile id="877"/>
  <tile id="878"/>
  <tile id="879"/>
  <tile id="880"/>
  <tile id="881"/>
  <tile id="882"/>
  <tile id="883"/>
  <tile id="884"/>
  <tile id="885"/>
  <tile id="886"/>
  <tile id="887"/>
  <tile id="888"/>
  <tile id="889"/>
  <tile id="890"/>
  <tile id="891"/>
  <tile id="892"/>
  <tile id="893"/>
  <tile id="894"/>
  <tile id="895"/>
  <tile id="896"/>
  <tile id="897"/>
  <tile id="898"/>
  <tile id="899"/>
 </tileset>
 <tileset firstgid="1967" name="Xiddav" tilewidth="16" tileheight="16" tilecount="1140" columns="30">
  <image source=".spring_Xiddav.png" width="480" height="608"/>
 </tileset>
 <layer id="1" name="Back" width="104" height="50">
  <data encoding="csv">
107,107,107,107,164,164,95,95,107,107,107,164,95,95,95,95,95,95,95,95,95,95,95,95,164,164,164,164,164,96,96,96,96,96,164,217,182,181,133,136,197,166,164,164,164,164,164,164,164,164,164,164,96,96,96,165,181,96,96,165,172,2147483838,189,189,189,189,164,197,164,164,164,164,164,164,164,164,164,164,164,164,164,164,164,164,164,164,164,164,164,164,164,165,181,89,118,118,118,118,118,118,118,118,84,118,
164,164,164,164,164,164,164,164,164,107,107,164,95,95,95,95,95,95,95,95,95,95,164,164,164,164,164,164,164,164,164,164,164,164,217,182,200,180,133,136,197,166,164,164,164,164,164,164,164,164,164,164,164,164,164,165,181,164,164,165,172,2147483838,174,174,174,174,190,197,164,164,164,164,164,164,164,164,164,164,164,164,164,164,164,164,164,164,96,96,164,164,164,165,181,89,89,107,151,107,107,151,86,87,86,87,
146,147,146,147,146,147,115,146,146,164,164,164,164,164,95,95,95,95,95,95,95,95,164,217,146,147,146,115,146,115,146,147,146,147,182,200,180,116,135,136,197,166,164,164,164,96,164,164,164,164,164,164,164,164,164,165,164,164,164,165,172,2147483838,174,174,174,174,190,197,164,164,164,164,164,164,164,164,164,164,164,164,164,164,164,164,164,164,164,164,164,164,164,165,181,116,107,83,107,107,151,153,89,89,89,89,
163,163,163,163,163,163,163,163,199,147,146,147,81,165,164,164,164,164,164,164,164,164,217,182,200,163,163,163,163,163,163,163,163,163,163,180,116,135,84,136,197,183,146,115,146,164,164,95,95,95,95,95,96,96,96,96,96,96,217,181,172,404,1073742092,174,174,1073741980,172,197,183,146,115,81,164,164,217,146,115,147,146,146,115,146,115,147,146,146,115,146,147,146,115,182,181,133,107,107,251,151,153,89,172,172,172,172,
118,117,118,117,117,118,117,119,198,163,163,199,183,146,115,146,147,115,115,147,115,81,165,200,180,116,117,118,117,118,117,118,117,118,117,118,135,107,107,136,198,163,163,163,199,183,81,165,164,164,164,164,164,164,164,164,164,164,165,181,172,172,2147483838,174,1073741980,172,172,198,163,163,199,183,146,147,182,200,163,163,163,163,163,163,163,163,163,163,163,163,163,163,163,163,180,133,107,107,151,153,89,89,172,172,172,172,
107,107,107,107,251,107,84,134,117,119,123,198,163,163,163,163,163,163,163,163,199,183,182,181,116,135,107,84,107,107,107,107,107,107,107,107,107,107,107,134,117,118,117,119,198,199,183,147,146,147,146,147,115,147,115,182,115,147,182,181,172,172,2147483838,1073741980,172,1073741996,1073741996,116,118,119,198,163,163,163,163,180,116,117,118,117,118,118,117,118,117,118,117,118,117,118,117,118,117,135,107,107,136,89,89,172,172,172,230,172,
86,86,86,88,151,88,87,152,91,134,118,117,118,117,118,117,118,117,118,119,198,163,163,180,133,233,107,107,107,107,107,107,108,107,107,107,107,107,107,107,107,107,233,134,119,198,163,163,163,163,163,163,163,163,163,163,163,163,163,180,172,172,172,172,172,172,116,135,84,134,117,118,117,117,118,118,135,84,107,107,84,107,107,107,107,233,107,107,107,84,107,151,152,107,107,151,153,89,89,172,172,172,172,172,
172,172,172,404,172,172,89,150,152,107,108,107,107,107,107,84,107,83,107,134,117,118,117,118,135,107,107,107,107,107,107,107,107,107,107,107,107,107,90,107,107,107,107,84,134,117,118,117,118,117,118,117,118,117,117,118,118,119,89,172,172,172,172,1073741996,172,172,133,107,107,107,107,107,108,107,107,107,107,107,107,107,107,107,107,107,107,107,107,107,107,107,107,134,135,107,151,153,89,89,172,172,172,196,172,172,
172,172,172,230,172,172,172,172,150,152,107,107,107,107,107,107,91,107,107,107,107,107,107,107,107,107,107,90,107,107,107,107,83,107,107,107,107,107,107,107,107,107,107,107,108,107,107,107,107,107,107,107,84,84,107,107,151,153,89,172,172,172,1073741996,1073741996,1073741996,1073741996,133,107,107,107,107,107,107,107,107,107,107,107,107,107,107,108,107,107,107,107,107,83,107,107,107,107,85,151,153,89,172,172,172,172,172,172,172,172,
172,172,172,172,196,172,172,172,172,133,90,107,107,107,107,107,107,107,107,107,107,107,107,107,107,107,107,107,107,107,107,107,107,107,107,107,107,107,107,107,107,107,107,107,151,107,107,107,107,107,107,107,107,107,108,107,136,89,172,172,172,172,172,172,172,89,133,107,83,107,107,107,107,107,107,107,83,107,107,107,107,107,107,107,107,251,103,104,105,83,234,107,151,153,89,172,172,172,172,172,172,172,172,268,
172,172,172,172,172,172,172,172,172,133,107,107,107,107,107,369,370,107,107,107,107,107,107,107,107,107,107,107,85,107,107,107,107,107,107,107,107,107,107,85,107,107,107,107,107,107,107,107,120,121,122,251,107,107,107,107,136,172,172,172,172,172,196,1073741996,1073741996,116,135,107,107,107,107,107,84,107,234,103,104,104,105,233,107,107,107,251,103,104,301,178,302,104,105,107,136,89,89,172,172,172,172,213,172,172,268,174,
172,196,172,172,172,172,172,172,172,133,92,93,107,107,107,386,387,107,107,107,92,93,107,107,108,107,107,107,107,107,107,107,107,107,107,107,107,107,107,107,107,107,107,107,151,152,233,234,120,121,122,107,107,107,107,85,136,172,172,172,172,172,172,172,116,135,151,152,108,107,107,83,103,104,104,301,125,127,122,83,107,107,83,103,301,125,126,126,126,127,122,151,153,89,172,172,172,172,172,172,172,268,174,174,
172,172,172,172,172,172,172,213,172,133,109,110,107,107,107,107,107,107,90,107,109,110,107,107,107,107,107,107,107,107,107,107,107,107,107,107,108,107,107,107,107,107,107,91,134,135,107,107,137,138,139,107,107,107,107,107,136,172,172,172,172,172,1073741996,1073741996,133,107,134,135,107,107,107,233,120,178,125,126,336,144,122,251,85,107,84,120,177,142,352,319,145,144,122,136,89,89,172,172,172,172,172,172,268,174,174,194,
172,172,172,172,172,196,172,172,172,133,107,91,107,107,107,107,107,107,107,107,107,107,107,107,107,107,107,107,107,107,107,107,90,107,107,107,107,107,107,107,83,107,107,107,107,107,107,84,251,83,108,107,107,107,90,107,134,365,172,172,172,172,367,117,135,107,103,104,104,104,105,91,120,177,142,143,179,144,302,104,105,84,107,137,284,159,161,159,160,161,122,136,89,89,172,172,196,172,172,2147483838,174,174,174,174,
190,172,172,172,172,172,172,172,172,150,152,107,107,107,107,107,107,107,83,107,107,107,107,107,107,83,107,107,107,107,107,107,107,107,107,107,107,107,107,107,107,107,107,107,107,107,107,107,107,234,107,107,107,107,107,151,153,401,404,404,404,404,401,106,108,234,120,125,127,177,122,83,137,284,142,128,162,335,127,121,302,105,107,234,137,284,121,178,285,138,139,136,89,172,172,172,172,172,172,2147483838,174,174,174,174,
156,172,172,213,172,172,172,172,172,89,150,87,86,87,87,86,88,107,107,107,107,107,107,107,107,107,107,107,107,107,107,107,107,107,107,107,107,107,107,107,107,107,107,108,107,107,107,107,107,83,107,107,107,107,107,136,89,172,172,230,172,172,172,150,152,103,301,142,144,178,122,251,103,301,159,160,160,319,144,121,285,139,103,104,104,301,176,285,139,107,84,136,89,172,213,172,172,172,172,2147483838,174,174,174,174,
174,156,172,172,172,172,172,172,172,172,89,89,89,89,89,89,89,106,107,151,152,107,107,107,107,107,107,107,107,107,107,107,85,107,107,107,107,107,107,107,107,107,107,107,107,107,107,107,107,251,107,107,107,107,233,136,89,172,172,172,172,172,172,89,133,120,178,159,161,121,122,103,301,121,176,285,284,159,161,177,122,251,120,125,126,127,121,122,107,107,107,136,89,172,196,172,172,172,172,2147483838,174,174,174,174,
174,174,156,172,172,172,172,172,172,172,172,518,519,520,172,172,172,89,106,134,135,107,107,107,107,107,107,107,107,107,108,107,107,92,93,107,91,107,107,107,107,107,107,107,107,90,107,107,107,107,83,107,107,90,107,136,89,172,172,172,172,172,172,89,133,120,177,178,285,138,139,120,176,285,138,139,137,284,176,178,302,104,301,142,128,144,176,122,84,83,107,136,89,172,172,230,172,172,172,2147483838,174,174,174,174,
194,174,174,156,172,213,172,230,172,172,196,552,553,554,172,172,172,172,89,124,233,107,107,107,107,107,107,107,107,107,107,107,107,109,110,107,107,107,107,107,107,107,107,107,107,107,107,107,107,107,107,107,107,91,107,136,89,172,172,172,172,172,172,89,133,137,138,138,139,103,104,301,121,302,104,104,105,137,284,125,126,126,126,336,162,144,177,122,107,91,107,136,89,172,172,172,172,172,172,268,174,174,174,174,
174,174,174,174,156,189,155,155,189,155,189,552,553,536,155,213,172,172,172,89,124,86,87,87,86,87,86,86,86,86,87,87,86,87,107,107,107,107,107,107,107,83,107,107,107,107,107,151,86,86,152,107,107,107,107,136,172,172,172,172,172,172,172,89,133,83,84,107,103,301,176,125,126,126,127,176,302,105,120,159,319,143,128,179,352,161,121,122,83,107,107,136,172,172,172,172,172,172,268,174,174,174,174,174,
174,174,174,174,174,174,174,174,174,194,174,552,553,554,174,156,172,172,172,172,89,89,89,89,89,89,89,89,89,89,89,89,89,89,106,107,107,107,107,107,107,107,107,107,107,107,85,136,89,89,133,107,151,152,107,136,172,172,172,172,172,213,172,89,133,107,233,251,120,177,178,142,145,162,335,127,178,122,120,125,336,145,162,352,161,285,138,139,151,152,107,136,172,172,172,213,172,2147483838,174,174,174,174,174,174,
157,191,157,157,157,191,157,191,157,174,174,552,553,554,174,174,190,172,196,172,172,172,172,172,518,519,519,520,172,172,172,172,172,172,89,106,107,107,107,107,92,93,107,107,107,107,107,136,89,89,133,107,134,135,107,153,172,230,172,172,172,172,172,89,150,107,107,84,137,284,176,159,160,319,352,161,176,122,120,159,160,160,160,161,176,122,251,85,134,135,107,153,172,230,172,172,172,2147483838,174,174,174,174,174,174,
140,140,140,140,540,140,140,140,140,158,174,552,553,554,174,174,156,172,172,172,172,172,172,213,552,535,554,554,172,172,172,196,172,172,172,89,106,233,107,90,109,110,151,152,107,107,107,134,117,118,135,107,108,107,267,89,172,172,172,172,172,172,172,172,89,124,107,107,85,137,284,121,178,159,161,121,177,122,137,138,284,178,177,121,285,139,83,107,108,107,267,89,172,172,172,172,172,2147483838,174,174,174,194,174,174,
140,540,140,140,140,140,140,540,140,140,175,552,553,554,484,485,486,485,484,485,486,485,484,486,553,536,553,553,155,189,155,189,155,172,172,172,89,106,107,107,107,107,134,135,107,107,107,107,107,107,107,233,107,267,89,172,172,172,172,172,172,172,172,172,172,89,106,107,107,234,137,138,138,138,138,138,138,139,83,251,137,138,138,138,139,234,107,233,107,267,89,172,172,172,172,172,172,2147483838,174,174,174,174,174,72,
140,140,195,140,140,140,140,140,195,140,175,552,553,554,553,553,553,553,553,553,553,553,553,553,552,553,535,535,194,174,174,174,174,156,172,172,172,89,124,86,86,87,86,87,86,87,87,86,86,87,86,87,267,89,172,172,172,196,172,189,189,172,172,230,172,172,89,124,86,86,87,86,87,86,87,87,87,87,86,86,87,86,87,86,87,87,86,87,267,89,172,172,172,196,172,172,172,268,174,174,174,174,72,140,
140,140,140,250,140,140,250,140,140,140,175,536,553,554,400,399,400,400,399,400,400,399,400,400,552,553,553,554,174,174,174,174,174,174,173,213,172,172,172,172,172,172,172,172,172,172,172,172,172,172,172,172,172,172,172,213,172,172,268,174,174,156,172,172,213,172,172,172,172,172,172,172,172,172,172,172,172,172,172,172,172,172,172,172,172,172,518,519,520,172,172,213,172,172,172,172,268,174,174,174,174,72,140,195,
140,140,140,195,298,299,300,140,140,195,158,570,570,570,140,140,140,140,140,140,140,140,140,140,552,553,536,553,174,174,174,553,553,194,156,196,172,172,172,172,172,172,172,172,196,172,172,172,172,172,172,196,230,172,172,172,172,268,174,174,194,174,156,172,172,172,172,196,172,172,172,172,172,172,172,172,172,172,172,172,172,172,172,172,172,172,553,553,537,172,172,172,172,172,172,268,174,174,174,174,72,140,140,140,
140,140,250,1073741978,315,316,317,195,140,140,140,552,553,554,140,140,140,140,523,140,140,140,250,140,553,553,553,554,174,174,553,553,553,553,174,156,155,189,155,230,155,213,155,155,189,189,155,155,172,172,172,172,172,172,230,172,268,174,174,191,191,174,174,156,172,172,172,172,172,172,172,172,172,172,172,172,172,172,172,172,172,172,172,172,196,172,553,535,553,172,172,172,172,172,268,174,174,174,174,72,140,140,140,140,
140,140,195,154,154,154,154,250,140,140,140,552,553,554,140,140,140,140,140,140,140,140,140,140,537,553,553,537,158,553,553,553,553,553,553,174,174,174,174,174,174,174,174,174,174,174,194,174,156,155,189,155,155,189,155,268,174,174,72,140,140,158,174,174,156,189,189,189,189,189,189,189,189,189,189,189,189,189,189,189,189,189,189,189,189,189,537,554,553,189,189,189,189,268,174,174,194,174,72,140,140,140,140,140,
523,140,140,195,250,195,195,140,140,140,140,552,553,554,140,195,523,195,140,140,195,140,140,140,553,535,537,535,553,553,553,553,553,553,553,553,191,157,191,191,174,174,174,174,174,174,174,174,174,174,174,174,174,174,174,194,174,72,140,140,140,140,158,174,174,174,174,174,194,174,174,174,174,174,174,174,174,174,174,174,174,174,174,174,174,174,535,552,537,174,174,174,174,174,174,174,174,72,140,195,140,195,540,140,
140,140,140,140,140,140,140,140,140,195,140,552,553,554,140,140,140,140,140,195,140,195,140,140,552,554,553,553,553,553,553,553,553,553,553,553,140,140,195,140,158,157,191,191,157,191,191,157,157,191,191,157,157,191,191,191,72,140,140,140,140,140,140,158,191,191,157,191,191,191,191,157,191,157,191,191,191,191,191,191,157,191,157,191,191,157,553,537,553,191,191,157,191,191,157,191,72,140,140,140,488,489,140,140,
140,140,140,140,140,140,540,140,140,140,140,552,553,536,140,140,140,140,140,140,140,540,140,140,537,553,535,535,553,553,553,553,553,553,553,553,486,486,486,486,140,140,140,140,140,140,140,140,140,140,140,195,140,140,140,140,140,140,140,540,140,140,140,140,195,140,140,140,140,140,140,140,140,140,195,140,140,540,140,140,140,140,140,140,140,140,536,552,552,140,140,140,140,140,140,140,140,140,540,140,505,506,195,140,
140,140,195,140,140,140,140,140,140,140,140,552,553,554,140,140,140,140,140,140,140,140,140,140,552,536,553,535,553,553,553,553,553,553,553,553,553,553,553,553,140,140,195,140,140,140,250,140,140,140,140,140,140,140,140,195,140,140,140,140,140,195,140,140,140,140,140,140,540,140,140,140,140,140,140,140,140,140,140,140,140,140,140,140,140,140,553,553,535,140,140,140,140,140,140,140,140,195,140,523,140,540,140,140,
140,140,140,140,140,140,195,140,140,140,140,552,553,554,140,140,523,140,140,140,140,140,195,195,552,535,553,554,553,553,553,553,553,553,553,553,553,553,553,553,140,140,140,140,140,140,140,195,140,195,140,140,540,140,140,140,140,140,140,140,140,140,140,140,140,540,140,140,523,540,140,140,140,250,140,140,140,140,140,140,140,195,140,140,140,140,553,554,553,140,195,140,140,140,540,140,140,140,140,140,195,140,140,140,
140,540,140,140,140,140,140,140,523,140,140,552,553,554,140,140,140,140,195,140,523,140,140,140,552,553,535,537,553,577,578,579,580,553,553,553,553,553,553,553,485,486,484,486,486,140,140,140,140,140,140,140,523,140,140,140,140,540,140,523,140,140,140,140,140,140,140,140,140,140,140,140,140,140,140,140,140,140,540,140,140,140,140,140,140,140,535,553,537,523,140,140,140,140,140,140,140,140,140,140,140,195,140,140,
140,140,140,140,250,140,140,140,140,140,140,552,553,554,140,140,140,140,140,140,140,140,140,140,553,553,553,553,553,553,553,553,553,553,536,553,535,552,553,554,536,552,553,554,553,140,140,140,140,140,140,140,140,140,140,140,140,140,140,140,140,140,140,250,140,140,140,140,195,140,140,140,140,540,140,140,140,140,140,140,523,140,140,250,140,140,552,552,553,140,140,140,140,140,140,195,140,140,195,140,140,140,140,140,
140,140,140,140,140,140,140,140,140,140,140,553,552,553,140,140,540,140,140,140,140,140,140,140,569,556,570,570,569,570,570,573,570,556,570,570,556,569,570,571,570,569,570,570,571,140,140,140,140,540,140,140,140,140,140,140,195,140,140,140,140,140,140,140,140,140,140,140,140,140,140,140,140,140,140,140,140,140,195,488,489,195,140,140,140,140,552,553,554,140,140,195,140,140,140,140,140,140,140,140,140,140,140,140,
140,195,140,140,140,140,140,140,140,195,484,485,485,485,486,140,140,140,195,195,140,140,540,140,438,154,154,438,154,154,438,154,154,438,154,154,438,154,154,438,154,154,154,154,438,140,523,140,140,140,140,140,140,140,140,140,140,140,140,140,140,140,140,140,140,140,140,140,140,540,523,140,140,140,140,140,195,140,523,505,506,523,140,140,140,140,535,536,554,140,140,140,140,140,140,140,140,140,140,140,140,140,140,140,
140,140,140,140,523,140,540,140,140,140,553,536,553,554,553,140,140,523,140,140,140,140,140,195,140,140,140,140,140,195,140,140,140,140,195,140,140,140,140,540,140,140,140,140,140,140,140,140,540,140,140,140,195,195,140,140,140,140,140,140,140,140,140,140,140,140,523,140,140,140,140,140,140,140,140,140,140,140,195,140,540,140,484,485,486,485,486,484,486,486,486,140,140,140,250,140,140,140,523,540,140,140,140,140,
140,140,140,140,140,140,140,140,523,140,569,570,569,571,569,140,140,540,140,140,140,140,140,140,140,140,140,140,140,140,140,140,140,140,140,140,140,140,540,523,140,140,140,195,140,140,140,140,140,140,140,140,140,140,140,140,140,540,140,140,140,140,195,140,140,140,140,540,140,140,140,140,140,140,140,140,140,140,140,140,140,140,553,554,553,553,535,537,553,537,553,140,140,140,140,140,140,140,140,140,140,140,140,195,
140,140,140,140,140,140,140,140,140,140,438,154,154,154,438,140,140,140,140,140,140,140,140,140,140,540,523,140,140,140,140,140,140,523,140,140,140,140,140,140,140,140,140,140,140,140,140,140,140,140,140,140,140,140,140,140,140,523,140,140,140,140,140,140,140,140,140,540,140,140,140,140,250,140,140,140,540,140,140,140,195,140,570,570,573,570,570,569,570,570,556,140,140,140,140,140,140,140,140,140,140,195,140,140,
140,140,140,140,140,140,140,140,140,140,140,140,140,140,140,140,540,523,140,140,140,140,140,140,140,140,140,140,140,140,140,140,140,140,140,140,140,140,140,195,140,140,140,140,140,140,540,140,140,140,140,140,140,140,140,140,140,140,540,140,140,140,140,140,140,140,140,140,140,140,140,140,140,140,140,195,140,140,140,140,140,140,438,154,154,154,438,154,154,154,154,140,140,140,140,195,140,195,140,140,140,140,140,140,
140,140,250,140,140,140,195,140,140,140,140,140,140,195,140,140,140,140,140,140,140,195,140,140,140,140,140,140,140,140,195,140,140,140,140,250,140,140,140,140,140,140,140,140,140,140,140,140,195,140,140,140,140,140,140,250,140,140,140,140,140,140,140,140,140,140,140,140,140,540,140,140,140,140,140,140,140,140,140,140,140,140,140,140,523,140,140,140,195,140,523,140,140,140,140,140,140,140,140,140,140,140,140,140,
140,140,140,140,140,140,140,140,195,540,140,140,140,140,140,140,140,140,140,140,140,140,140,140,140,540,140,140,140,140,140,140,140,140,140,140,140,140,140,140,140,140,195,523,140,140,140,140,140,140,140,140,140,140,140,140,140,140,140,140,140,140,140,140,140,140,140,195,140,140,140,140,140,140,140,140,140,140,140,140,140,195,140,140,140,140,140,140,140,140,140,140,140,140,140,195,140,140,140,250,140,195,140,140,
140,140,140,140,140,140,140,540,488,489,195,140,140,140,140,140,140,140,140,140,140,140,140,140,140,140,140,140,140,140,140,140,540,140,140,140,140,140,140,523,140,540,140,488,489,540,140,140,140,140,140,140,140,140,140,140,140,140,140,140,140,140,140,140,140,140,140,140,140,195,140,140,140,140,140,140,523,540,140,140,140,140,140,140,540,140,140,140,140,140,195,140,140,140,140,140,140,140,140,140,140,140,140,140,
250,140,140,540,523,140,140,195,505,506,540,140,140,140,140,140,250,140,140,140,140,140,140,140,140,140,140,140,140,140,140,140,140,140,140,140,140,140,140,140,140,195,540,505,506,195,140,140,140,140,140,140,140,140,140,140,140,140,140,140,140,195,140,140,140,140,140,140,140,140,140,140,140,140,140,140,140,140,140,140,140,140,140,140,140,523,140,250,140,140,140,140,140,140,540,140,140,140,195,523,140,140,140,140,
140,140,140,140,140,140,140,140,195,540,140,140,140,140,140,140,140,140,140,140,140,140,140,140,195,140,140,140,140,140,140,523,140,140,140,140,140,140,140,140,140,540,140,195,140,140,140,140,140,250,140,140,140,140,140,140,140,540,140,140,140,140,140,140,140,140,140,140,140,140,140,140,140,140,140,140,140,140,140,140,195,140,140,140,140,140,140,140,195,523,140,140,140,140,140,140,140,140,140,140,140,140,195,140,
140,195,140,540,140,140,140,140,140,140,523,140,140,140,140,140,140,140,140,140,140,140,140,140,140,140,140,140,540,140,140,140,140,140,140,195,140,140,140,540,140,140,140,140,523,140,140,140,140,140,140,140,140,195,140,140,140,140,140,140,140,140,140,250,140,140,140,140,140,140,140,140,140,140,195,140,140,140,540,140,140,140,140,140,140,140,195,540,488,489,195,540,195,140,140,140,140,140,540,140,195,140,140,140,
140,140,140,140,140,140,250,140,140,140,140,140,140,195,140,140,140,140,140,523,540,140,140,140,140,140,140,140,140,140,140,140,140,140,140,140,140,140,140,140,140,140,140,140,140,140,140,140,140,140,140,140,140,140,140,140,140,523,140,140,540,140,140,140,140,140,140,140,140,140,523,140,140,140,140,140,140,140,140,140,140,140,140,195,140,140,140,523,505,506,523,140,140,140,140,140,195,140,140,140,140,140,140,140,
140,140,140,140,140,140,140,140,140,140,140,140,140,140,140,140,140,140,140,140,140,140,140,140,140,140,540,140,140,140,140,140,140,140,140,140,140,140,140,140,140,140,140,140,140,140,140,140,140,140,140,140,140,140,140,140,140,140,140,140,140,140,140,140,140,140,140,140,140,140,140,140,140,140,140,140,140,195,140,140,140,140,195,140,140,140,140,195,140,195,140,140,140,140,140,140,140,140,140,140,140,140,140,140
</data>
 </layer>
 <layer id="2" name="Back2" width="104" height="50">
  <properties>
   <property name="Draw" value="Back"/>
  </properties>
  <data encoding="csv">
0,0,0,0,0,0,0,0,0,0,0,0,0,0,0,0,0,0,0,0,0,0,0,0,0,0,0,0,0,0,0,0,0,0,0,0,0,0,0,0,0,0,0,0,0,0,0,0,0,0,0,0,0,0,0,0,0,0,0,0,0,0,0,0,0,0,0,0,0,0,0,0,0,0,0,0,0,0,0,0,0,0,0,0,0,0,0,0,0,0,0,0,0,0,0,0,0,0,0,0,0,0,0,0,
0,0,0,0,0,0,0,0,0,0,0,0,0,0,0,0,0,0,0,0,0,0,0,0,0,0,0,0,0,0,0,0,0,0,0,0,0,0,0,0,0,0,0,0,0,0,0,0,0,0,0,0,0,0,0,0,0,0,0,0,0,0,0,0,0,0,0,0,0,0,0,0,0,0,0,0,0,0,0,0,0,0,0,0,0,0,0,0,0,0,0,0,0,0,0,0,0,0,0,0,0,0,0,0,
0,0,0,0,0,0,0,0,0,0,0,0,0,0,0,0,0,0,0,0,0,0,0,0,0,0,0,0,0,0,0,0,0,0,0,0,0,0,0,0,0,0,0,0,0,0,0,0,0,0,0,0,0,0,0,0,0,0,0,0,0,0,0,0,0,0,0,0,0,0,0,0,0,0,0,0,0,0,0,0,0,0,0,0,0,0,0,0,0,0,0,0,0,0,0,0,0,0,0,0,0,0,0,0,
0,0,0,0,0,0,0,0,0,0,0,0,0,0,0,0,0,0,0,0,0,0,0,0,0,0,0,0,0,0,0,0,0,0,0,0,0,0,0,0,0,0,0,0,0,0,0,0,0,0,0,0,0,0,0,0,0,0,0,0,0,0,0,0,0,0,0,0,0,0,0,0,0,0,0,0,0,0,0,0,0,0,0,0,0,0,0,0,0,0,0,0,0,0,0,0,0,0,0,0,0,0,0,0,
0,0,0,0,0,0,0,0,0,0,0,0,0,0,0,0,0,0,0,0,0,0,0,0,0,0,0,0,0,0,0,0,0,0,0,0,0,0,0,0,0,0,0,0,0,0,0,0,0,0,0,0,0,0,0,0,0,0,0,0,0,0,0,0,0,0,0,0,0,0,0,0,0,0,0,0,0,0,0,0,0,0,0,0,0,0,0,0,0,0,0,0,0,0,0,0,0,0,0,0,0,0,0,0,
0,0,0,0,0,0,0,0,0,0,0,0,0,0,0,0,0,0,0,0,0,0,0,0,0,0,0,0,0,0,0,0,0,0,0,0,0,0,0,0,0,0,0,0,0,0,0,0,0,0,0,0,0,0,0,0,0,0,0,0,0,0,0,0,0,0,0,0,0,0,0,0,0,0,0,0,0,0,0,0,0,0,0,0,0,0,0,0,0,0,0,0,0,0,0,0,0,0,0,0,0,0,0,0,
0,0,0,0,0,0,0,0,0,0,0,0,0,0,0,0,0,0,0,0,0,0,0,0,0,0,0,0,0,0,0,0,0,0,0,0,0,0,0,0,0,0,0,0,0,0,0,0,0,0,0,0,0,0,0,0,0,0,0,0,0,0,0,0,0,0,0,0,0,0,0,0,0,0,0,0,0,0,0,0,0,0,0,0,0,0,0,0,0,0,0,0,0,0,0,0,0,0,0,0,0,0,0,0,
0,0,0,0,0,0,0,0,0,0,0,0,0,0,0,0,0,0,0,0,0,0,0,0,0,0,0,0,0,0,0,0,0,0,0,0,0,0,0,0,0,0,0,0,0,0,0,0,0,0,0,0,0,0,0,0,0,0,0,0,0,0,0,0,0,0,0,0,0,0,0,0,0,0,0,0,0,0,0,0,0,0,0,0,0,0,0,0,0,0,0,0,0,0,0,0,0,0,0,0,0,0,0,0,
0,0,0,0,0,0,0,0,0,0,0,0,0,0,0,0,0,0,0,0,0,0,0,0,0,0,0,0,0,0,0,0,0,0,0,0,0,0,0,0,0,0,0,0,0,0,732,0,0,0,0,0,0,0,0,0,0,0,0,0,0,0,0,0,0,0,0,0,0,0,0,0,0,0,0,0,0,0,0,0,0,0,0,0,0,0,0,0,0,0,0,0,0,0,0,0,0,0,0,0,0,0,0,0,
0,0,0,0,0,0,0,0,0,0,0,0,0,0,0,0,0,0,0,0,0,0,0,0,0,0,0,0,0,0,0,0,0,0,0,0,0,0,0,0,0,0,0,0,0,750,751,0,0,0,0,0,0,0,0,0,0,0,0,0,0,0,0,0,0,0,0,0,0,0,0,0,0,0,0,0,0,0,0,0,0,0,0,0,0,0,0,0,0,0,0,0,0,0,0,0,0,0,0,0,0,0,0,0,
0,0,0,0,0,0,0,0,0,0,0,0,0,0,0,0,0,0,0,0,0,0,0,0,0,0,0,0,0,0,0,0,0,0,0,0,0,0,0,0,0,0,0,0,0,769,770,771,772,773,774,0,0,0,0,0,0,0,0,0,0,0,0,0,0,0,0,0,0,0,0,0,0,0,0,0,0,0,0,0,0,0,0,0,0,0,0,0,0,0,0,0,0,0,0,0,0,0,0,0,0,0,0,0,
0,0,0,0,0,0,0,0,0,0,0,0,0,0,0,0,0,0,0,0,0,0,0,0,0,0,0,0,0,0,0,0,0,0,0,0,0,0,0,0,0,0,0,0,0,788,789,790,791,792,793,0,0,0,0,0,0,0,0,0,0,0,0,0,0,0,0,0,0,0,0,0,0,0,0,0,0,0,0,0,0,0,0,0,0,0,0,0,0,0,0,0,0,0,0,0,0,0,0,0,0,0,0,0,
0,0,0,0,0,0,0,0,0,0,0,0,0,0,0,0,0,0,0,0,0,0,0,0,0,0,0,0,0,0,0,0,0,0,0,0,0,0,0,0,0,0,0,0,0,0,0,0,0,0,0,0,0,0,0,0,0,0,0,0,0,0,0,0,0,0,0,0,0,0,0,0,0,0,0,0,0,0,0,0,0,0,0,0,0,0,0,0,0,0,0,0,0,0,0,0,0,0,0,0,0,0,0,0,
0,0,0,0,0,0,0,0,0,0,0,0,0,0,0,0,0,0,0,0,0,0,0,0,0,0,0,0,0,0,0,0,0,0,0,0,0,0,0,0,0,0,0,0,0,0,0,0,0,0,0,0,0,0,0,0,0,0,0,0,0,0,0,0,0,0,0,0,0,0,0,0,0,0,0,0,0,0,0,0,0,0,0,0,0,0,0,0,0,0,0,0,0,0,0,0,0,0,0,0,0,0,0,0,
0,0,0,0,0,0,0,0,0,0,0,0,0,0,0,0,0,0,0,0,0,0,0,0,0,0,0,0,0,0,0,0,0,0,0,0,0,0,0,0,0,0,0,0,0,0,0,0,0,0,0,0,0,0,0,0,0,0,0,0,0,0,0,0,0,0,0,0,0,0,0,0,0,0,0,0,0,0,0,0,0,0,0,0,0,0,0,0,0,0,0,0,0,0,0,0,0,0,0,0,0,0,0,0,
0,0,0,0,0,0,0,0,0,0,0,0,0,0,0,0,0,0,0,0,0,0,0,0,0,0,0,0,0,0,0,0,0,0,0,0,0,0,0,0,0,0,0,0,0,0,0,0,0,0,0,0,0,0,0,0,0,0,0,0,0,0,0,0,0,0,0,0,0,0,0,0,0,0,0,0,0,0,0,0,0,0,0,0,0,0,0,0,0,0,0,0,0,0,0,0,0,0,0,0,0,0,0,0,
0,0,0,0,0,0,0,0,0,0,0,0,0,0,0,0,0,0,0,0,0,0,0,0,0,0,0,0,0,0,0,0,0,0,0,0,0,0,0,0,0,0,0,0,0,0,0,0,0,0,0,0,0,0,0,0,0,0,0,0,0,0,0,0,0,0,0,0,0,0,0,0,0,0,0,0,0,0,0,0,0,0,0,0,0,0,0,0,0,0,0,0,0,0,0,0,0,0,0,0,0,0,0,0,
0,0,0,0,0,0,0,0,0,0,0,0,0,0,0,0,0,0,0,0,0,0,0,0,0,0,0,0,0,0,0,0,0,0,0,0,0,0,0,0,0,0,0,0,0,0,0,0,0,0,0,0,0,0,0,0,0,0,0,0,0,0,0,0,0,0,0,0,0,0,0,0,0,0,0,0,0,0,0,0,0,0,0,0,0,0,0,0,0,0,0,0,0,0,0,0,0,0,0,0,0,0,0,0,
0,0,0,0,0,0,0,0,0,0,0,0,0,0,0,0,0,0,0,0,0,0,0,0,0,0,0,0,0,0,0,0,0,0,0,0,0,0,0,0,0,0,0,0,0,0,0,0,0,0,0,0,0,0,0,0,0,0,0,0,0,0,0,0,0,0,0,0,0,0,0,0,0,0,0,0,0,0,0,0,0,0,0,0,0,0,0,0,0,0,0,0,0,0,0,0,0,0,0,0,0,0,0,0,
0,0,0,0,0,0,0,0,0,0,0,0,0,0,0,0,0,0,0,0,0,0,0,0,0,0,0,0,0,0,0,0,0,0,0,0,0,0,0,0,0,0,0,0,0,0,0,0,0,0,0,0,0,0,0,0,0,0,0,0,0,0,0,0,0,0,0,0,0,0,0,0,0,0,0,0,0,0,0,0,0,0,0,0,0,0,0,0,0,0,0,0,0,0,0,0,0,0,0,0,0,0,0,0,
0,0,0,0,0,0,0,0,0,0,0,0,0,0,0,0,0,0,0,0,0,0,0,0,0,0,0,0,0,0,0,0,0,0,0,0,0,0,0,0,0,0,0,0,0,0,0,0,0,0,0,0,0,0,0,0,0,0,0,0,0,0,0,0,0,0,0,0,0,0,0,0,0,0,0,0,0,0,0,0,0,0,0,0,0,0,0,0,0,0,0,0,0,0,0,0,0,0,0,0,0,0,0,0,
0,0,0,0,0,0,0,0,0,0,0,0,0,0,0,0,0,0,0,0,0,0,0,0,0,0,0,0,0,0,0,0,0,0,0,0,0,0,0,0,0,0,0,0,0,0,0,0,0,0,0,0,0,0,0,0,0,0,0,0,0,0,0,0,0,0,0,0,0,0,0,0,0,0,0,0,0,0,0,0,0,0,0,0,0,0,0,0,0,0,0,0,0,0,0,0,0,0,0,0,0,0,0,0,
0,0,0,0,0,0,0,0,0,0,0,0,0,0,0,0,0,0,0,0,0,0,0,0,0,0,0,0,0,0,0,0,0,0,0,0,0,0,0,0,0,0,0,0,0,0,0,0,0,0,0,0,0,0,0,0,0,0,0,0,0,0,0,0,0,0,0,0,0,0,0,0,0,0,0,0,0,0,0,0,0,0,0,0,0,0,0,0,0,0,0,0,0,0,0,0,0,0,0,0,0,0,0,0,
0,0,0,0,0,0,0,0,0,0,0,0,0,0,0,0,0,0,0,0,0,0,0,0,0,0,0,0,0,0,0,0,0,0,0,0,0,0,0,0,0,0,0,0,0,0,0,0,0,0,0,0,0,0,0,0,0,0,0,0,0,0,0,0,0,0,0,0,0,0,0,0,0,0,0,0,0,0,0,0,0,0,0,0,0,0,0,0,0,0,0,0,0,0,0,0,0,0,0,0,0,0,0,0,
0,0,0,0,0,0,0,0,0,0,0,0,0,0,0,0,0,0,0,0,0,0,0,0,0,0,0,0,0,0,0,0,0,0,0,0,0,0,0,0,0,0,0,0,0,0,0,0,0,0,0,0,0,0,0,0,0,0,0,0,0,0,0,0,0,0,0,0,0,0,0,0,0,0,0,0,0,0,0,0,0,0,0,0,0,0,0,0,0,0,0,0,0,0,0,0,0,0,0,0,0,0,0,0,
0,0,0,0,0,0,0,0,0,0,0,0,0,0,0,0,0,0,0,0,0,0,0,0,0,0,0,0,0,0,0,0,0,0,0,0,0,0,0,0,0,0,0,0,0,0,0,0,0,0,0,0,0,0,0,0,0,0,0,0,0,0,0,0,0,0,0,0,0,0,0,0,0,0,0,0,0,0,0,0,0,0,0,0,0,0,0,0,0,0,0,0,0,0,0,0,0,0,0,0,0,0,0,0,
0,0,0,0,0,0,0,0,0,0,0,0,0,0,0,0,0,0,0,0,0,0,0,0,0,0,0,0,0,0,0,0,0,0,0,0,0,0,0,0,0,0,0,0,0,0,0,0,0,0,0,0,0,0,0,0,0,0,0,0,0,0,0,0,0,0,0,0,0,0,0,0,0,0,0,0,0,0,0,0,0,0,0,0,0,0,0,0,0,0,0,0,0,0,0,0,0,0,0,0,0,0,0,0,
0,0,0,0,0,0,0,0,0,0,0,0,0,0,0,0,0,0,0,0,0,0,0,0,0,0,0,0,0,0,0,0,0,0,0,0,0,0,0,0,0,0,0,0,0,0,0,0,0,0,0,0,0,0,0,0,0,0,0,0,0,0,0,0,0,0,0,0,0,0,0,0,0,0,0,0,0,0,0,0,0,0,0,0,0,0,0,0,0,0,0,0,0,0,0,0,0,0,0,0,0,0,0,0,
0,0,0,0,0,0,0,0,0,0,0,0,0,0,0,0,0,0,0,0,0,0,0,0,0,0,0,0,0,0,0,0,0,0,0,0,0,0,0,0,0,0,0,0,0,0,0,0,0,0,0,0,0,0,0,0,0,0,0,0,0,0,0,0,0,0,0,0,0,0,0,0,0,0,0,0,0,0,0,0,0,0,0,0,0,0,0,0,0,0,0,0,0,0,0,0,0,0,0,0,0,0,0,0,
0,0,0,0,0,0,0,0,0,0,0,0,0,0,0,0,0,0,0,0,0,0,0,0,0,0,0,0,0,0,0,0,0,0,0,0,0,0,0,0,0,0,0,0,0,0,0,0,0,0,0,0,0,0,0,0,0,0,0,0,0,0,0,0,0,0,0,0,0,0,0,0,0,0,0,0,0,0,0,0,0,0,0,0,0,0,0,0,0,0,0,0,0,0,0,0,0,0,0,0,0,0,0,0,
0,0,0,0,0,0,0,0,0,0,0,0,0,0,0,0,0,0,0,0,0,0,0,0,0,0,0,0,0,0,0,0,0,0,0,0,0,0,0,0,0,0,0,0,0,0,0,0,0,0,0,0,0,0,0,0,0,0,0,0,0,0,0,0,0,0,0,0,0,0,0,0,0,0,0,0,0,0,0,0,0,0,0,0,0,0,0,0,0,0,0,0,0,0,0,0,0,0,0,0,0,0,0,0,
0,0,0,0,0,0,0,0,0,0,0,0,0,0,0,0,0,0,0,0,0,0,0,0,0,0,0,748,749,0,0,0,0,0,0,0,0,0,0,0,0,0,0,0,0,0,0,0,0,0,0,0,0,0,0,0,0,0,0,0,0,0,0,0,0,0,0,0,0,0,0,0,0,0,0,0,0,0,0,0,0,0,0,0,0,0,0,0,0,0,0,0,0,0,0,0,0,0,0,0,0,0,0,0,
0,0,0,0,0,0,0,0,0,0,0,0,0,0,0,0,0,0,0,0,0,0,0,0,0,0,0,0,768,0,0,0,0,0,0,0,0,0,0,0,0,0,0,0,0,0,0,0,0,0,0,0,0,0,0,0,0,0,0,0,0,0,0,0,0,0,0,0,0,0,0,0,0,0,0,0,0,0,0,0,0,0,0,0,0,0,0,0,0,0,0,0,0,0,0,0,0,0,0,0,0,0,0,0,
0,0,0,0,0,0,0,0,0,0,0,0,0,0,0,0,0,0,0,0,0,0,0,0,0,0,0,0,787,0,0,0,0,0,0,0,0,0,0,0,0,0,0,0,0,0,0,0,0,0,0,0,0,0,0,0,0,0,0,0,0,0,0,0,0,0,0,0,0,0,0,0,0,0,0,0,0,0,0,0,0,0,0,0,0,0,0,0,0,0,0,0,0,0,0,0,0,0,0,0,0,0,0,0,
0,0,0,0,0,0,0,0,0,0,0,0,0,0,0,0,0,0,0,0,0,0,0,0,0,0,0,805,806,807,808,809,810,811,812,813,0,0,0,0,0,0,0,0,0,0,0,0,0,0,0,0,0,0,0,0,0,0,0,0,0,0,0,0,0,0,0,0,0,0,0,0,0,0,0,0,0,0,0,0,0,0,0,0,0,0,0,0,0,0,0,0,0,0,0,0,0,0,0,0,0,0,0,0,
0,0,0,0,0,0,0,0,0,0,0,0,0,0,0,0,0,0,0,0,0,0,0,0,0,0,0,0,0,0,0,0,0,0,0,0,0,0,0,0,0,0,0,0,0,0,0,0,0,0,0,0,0,0,0,0,0,0,0,0,0,0,0,0,0,0,0,0,0,0,0,0,0,0,0,0,0,0,0,0,0,0,0,0,0,0,0,0,0,0,0,0,0,0,0,0,0,0,0,0,0,0,0,0,
0,0,0,0,0,0,0,0,0,0,0,0,0,0,0,0,0,0,0,0,0,0,0,0,0,0,0,0,0,0,0,0,0,0,0,0,0,0,0,0,0,0,0,0,0,0,0,0,0,0,0,0,0,0,0,0,0,0,0,0,0,0,0,0,0,0,0,0,0,0,0,0,0,0,0,0,0,0,0,0,0,0,0,0,0,0,0,0,0,0,0,0,0,0,0,0,0,0,0,0,0,0,0,0,
0,0,0,0,0,0,0,0,0,0,0,0,0,0,0,0,0,0,0,0,0,0,0,0,0,0,0,0,0,0,0,0,0,0,0,0,0,0,0,0,0,0,0,0,0,0,0,0,0,0,0,0,0,0,0,0,0,0,0,0,0,0,0,0,0,0,0,0,0,0,0,0,0,0,0,0,0,0,0,0,0,0,0,0,0,0,0,0,0,0,0,0,0,0,0,0,0,0,0,0,0,0,0,0,
0,0,0,0,0,0,0,0,0,0,0,0,0,0,0,0,0,0,0,0,0,0,0,0,0,0,0,0,0,0,0,0,0,0,0,0,0,0,0,0,0,0,0,0,0,0,0,0,0,0,0,0,0,0,0,0,0,0,0,0,0,0,0,0,0,0,0,0,0,0,0,0,0,0,0,0,0,0,0,0,0,0,0,0,0,0,0,0,0,0,0,0,0,0,0,0,0,0,0,0,0,0,0,0,
0,0,0,0,0,0,0,0,0,0,0,0,0,0,0,0,0,0,0,0,0,0,0,0,0,0,0,0,0,0,0,0,0,0,0,0,0,0,0,0,0,0,0,0,0,0,0,0,0,0,0,0,0,0,0,0,0,0,0,0,0,0,0,0,0,0,0,0,0,0,0,0,0,0,0,0,0,0,0,0,0,0,0,0,0,0,0,0,0,0,0,0,0,0,0,0,0,0,0,0,0,0,0,0,
0,0,0,0,0,0,0,0,0,0,0,0,0,0,0,0,0,0,0,0,0,0,0,0,0,0,0,0,0,0,0,0,0,0,0,0,0,0,0,0,0,0,0,0,0,0,0,0,0,0,0,0,0,0,0,0,0,0,0,0,0,0,0,0,0,0,0,0,0,0,0,0,0,0,0,0,0,0,0,0,0,0,0,0,0,0,0,0,0,0,0,0,0,0,0,0,0,0,0,0,0,0,0,0,
0,0,0,0,0,0,0,0,0,0,0,0,0,0,0,0,0,0,0,0,0,0,0,0,0,0,0,0,0,0,0,0,0,0,0,0,0,0,0,0,0,0,0,0,0,0,0,0,0,0,0,0,0,0,0,0,0,0,0,0,0,0,0,0,0,0,0,0,0,0,0,0,0,0,0,0,0,0,0,0,0,0,0,0,0,0,0,0,0,0,0,0,0,0,0,0,0,0,0,0,0,0,0,0,
0,0,0,0,0,0,0,0,0,0,0,0,0,0,0,0,0,0,0,0,0,0,0,0,0,0,0,0,0,0,0,0,0,0,0,0,0,0,0,0,0,0,0,0,0,0,0,0,0,0,0,0,0,0,0,0,0,0,0,0,0,0,0,0,0,0,0,0,0,0,0,0,0,0,0,0,0,0,0,0,0,0,0,0,0,0,0,0,0,0,0,0,0,0,0,0,0,0,0,0,0,0,0,0,
0,0,0,0,0,0,0,0,0,0,0,0,0,0,0,0,0,0,0,0,0,0,0,0,0,0,0,0,0,0,0,0,0,0,0,0,0,0,0,0,0,0,0,0,0,0,0,0,0,0,0,0,0,0,0,0,0,0,0,0,0,0,0,0,0,0,0,0,0,0,0,0,0,0,0,0,0,0,0,0,0,0,0,0,0,0,0,0,0,0,0,0,0,0,0,0,0,0,0,0,0,0,0,0,
0,0,0,0,0,0,0,0,0,0,0,0,0,0,0,0,0,0,0,0,0,0,0,0,0,0,0,0,0,0,0,0,0,0,0,0,0,0,0,0,0,0,0,0,0,0,0,0,0,0,0,0,0,0,0,0,0,0,0,0,0,0,0,0,0,0,0,0,0,0,0,0,0,0,0,0,0,0,0,0,0,0,0,0,0,0,0,0,0,0,0,0,0,0,0,0,0,0,0,0,0,0,0,0,
0,0,0,0,0,0,0,0,0,0,0,0,0,0,0,0,0,0,0,0,0,0,0,0,0,0,0,0,0,0,0,0,0,0,0,0,0,0,0,0,0,0,0,0,0,0,0,0,0,0,0,0,0,0,0,0,0,0,0,0,0,0,0,0,0,0,0,0,0,0,0,0,0,0,0,0,0,0,0,0,0,0,0,0,0,0,0,0,0,0,0,0,0,0,0,0,0,0,0,0,0,0,0,0,
0,0,0,0,0,0,0,0,0,0,0,0,0,0,0,0,0,0,0,0,0,0,0,0,0,0,0,0,0,0,0,0,0,0,0,0,0,0,0,0,0,0,0,0,0,0,0,0,0,0,0,0,0,0,0,0,0,0,0,0,0,0,0,0,0,0,0,0,0,0,0,0,0,0,0,0,0,0,0,0,0,0,0,0,0,0,0,0,0,0,0,0,0,0,0,0,0,0,0,0,0,0,0,0,
0,0,0,0,0,0,0,0,0,0,0,0,0,0,0,0,0,0,0,0,0,0,0,0,0,0,0,0,0,0,0,0,0,0,0,0,0,0,0,0,0,0,0,0,0,0,0,0,0,0,0,0,0,0,0,0,0,0,0,0,0,0,0,0,0,0,0,0,0,0,0,0,0,0,0,0,0,0,0,0,0,0,0,0,0,0,0,0,0,0,0,0,0,0,0,0,0,0,0,0,0,0,0,0,
0,0,0,0,0,0,0,0,0,0,0,0,0,0,0,0,0,0,0,0,0,0,0,0,0,0,0,0,0,0,0,0,0,0,0,0,0,0,0,0,0,0,0,0,0,0,0,0,0,0,0,0,0,0,0,0,0,0,0,0,0,0,0,0,0,0,0,0,0,0,0,0,0,0,0,0,0,0,0,0,0,0,0,0,0,0,0,0,0,0,0,0,0,0,0,0,0,0,0,0,0,0,0,0,
0,0,0,0,0,0,0,0,0,0,0,0,0,0,0,0,0,0,0,0,0,0,0,0,0,0,0,0,0,0,0,0,0,0,0,0,0,0,0,0,0,0,0,0,0,0,0,0,0,0,0,0,0,0,0,0,0,0,0,0,0,0,0,0,0,0,0,0,0,0,0,0,0,0,0,0,0,0,0,0,0,0,0,0,0,0,0,0,0,0,0,0,0,0,0,0,0,0,0,0,0,0,0,0
</data>
 </layer>
 <layer id="3" name="Buildings" width="104" height="50">
  <data encoding="csv">
422,422,422,422,422,422,148,149,422,422,422,422,422,148,149,148,148,149,422,422,422,422,131,132,148,131,132,148,149,131,132,131,132,131,132,148,149,0,0,0,0,216,422,422,422,422,422,422,422,422,422,422,422,422,422,422,422,422,422,422,325,0,141,0,422,0,274,132,222,131,132,422,422,422,422,422,131,132,252,131,132,252,131,132,252,131,98,422,422,422,422,422,422,422,422,422,184,185,186,187,188,422,422,422,
132,131,132,131,132,422,0,0,131,132,422,422,422,252,149,422,422,148,149,148,149,422,148,149,422,148,149,422,422,148,149,148,149,148,149,0,0,0,0,0,0,216,422,422,422,422,422,422,422,422,422,422,422,422,422,422,422,422,422,422,325,0,141,0,0,0,274,149,131,148,131,132,132,131,131,132,131,132,131,148,149,131,148,149,131,132,0,0,132,131,132,422,132,422,214,0,201,236,237,204,422,0,0,0,
149,148,149,148,149,422,231,232,148,149,131,132,422,131,132,422,422,422,131,132,351,131,132,422,422,0,422,0,0,0,0,0,0,0,269,231,232,0,0,0,0,216,148,149,148,149,131,148,149,148,149,148,149,148,149,422,149,148,149,422,325,0,141,0,0,0,274,205,148,149,148,149,131,132,148,149,148,149,148,149,422,148,149,422,148,149,0,148,149,148,149,422,0,422,422,0,218,219,220,221,0,0,0,0,
232,0,231,232,0,0,0,0,0,0,148,149,422,148,149,422,422,422,148,149,368,148,149,422,0,0,0,0,0,383,384,384,384,384,385,0,0,0,0,0,0,0,0,422,0,0,422,131,132,252,131,132,252,131,132,216,252,131,132,216,325,0,141,0,0,0,274,422,222,0,0,422,148,149,422,422,422,422,422,422,422,422,422,422,0,0,0,0,0,422,0,0,0,0,0,0,0,0,0,0,291,206,223,206,
184,185,186,187,188,0,0,0,0,422,0,231,232,422,0,0,0,0,0,0,0,0,0,0,0,0,0,0,0,0,0,0,0,0,0,0,0,0,0,0,0,231,232,0,231,232,422,148,149,215,148,149,422,148,149,0,0,148,149,0,325,0,0,0,0,0,274,422,0,231,232,422,0,0,422,184,185,186,187,188,0,0,0,0,231,232,0,231,232,0,0,231,232,0,0,0,0,0,0,0,325,141,141,141,
201,236,237,204,422,0,0,0,0,0,0,0,0,0,0,0,0,0,0,0,0,0,0,0,0,0,0,0,0,0,0,0,0,0,0,0,0,0,0,0,0,0,0,0,0,0,0,205,231,232,422,0,422,422,422,231,232,422,422,0,325,0,0,0,0,1073742081,1073742064,0,0,0,0,0,231,232,0,201,202,203,204,205,0,231,232,0,0,0,0,0,0,0,0,0,0,0,0,0,0,0,0,291,308,141,141,141,
218,219,220,221,0,0,0,0,0,0,0,0,0,0,0,0,0,0,0,0,0,0,0,0,0,0,0,0,0,0,0,0,0,0,0,0,0,0,0,0,0,0,0,231,232,0,422,422,422,422,422,422,383,384,385,0,0,0,141,0,325,141,0,0,0,274,0,0,0,0,0,0,0,0,0,218,219,220,221,0,0,0,0,0,0,0,0,0,0,0,0,0,0,0,0,0,0,0,0,325,141,141,141,141,
206,206,223,223,206,240,0,0,0,0,0,0,0,0,0,0,0,0,0,0,0,0,0,0,0,0,0,0,0,0,0,0,0,0,0,0,0,0,0,0,0,0,0,0,0,0,320,321,322,323,324,0,0,0,0,0,0,0,141,291,308,141,0,0,0,274,0,0,0,0,0,0,0,0,0,0,0,0,0,0,0,0,0,0,0,0,0,0,0,0,0,0,0,0,0,0,0,0,291,308,141,0,0,0,
141,141,141,141,141,257,223,240,0,0,0,0,0,0,0,0,0,0,0,0,0,0,0,0,0,0,0,0,0,0,0,0,0,0,0,0,0,0,0,0,0,0,0,0,0,0,337,338,339,340,341,0,0,0,0,0,0,0,141,325,0,141,0,0,1073742081,1073742064,0,0,0,0,0,0,0,0,0,0,0,0,0,0,0,0,0,0,0,0,0,0,0,0,0,0,0,0,0,0,291,206,308,141,141,0,0,0,
0,0,0,0,0,0,141,257,240,0,0,0,0,0,0,0,0,0,0,0,0,0,0,0,0,0,0,0,0,0,0,0,0,0,0,0,0,0,0,0,0,0,0,359,360,361,354,355,356,357,358,231,232,0,0,0,0,0,291,308,0,141,0,0,274,0,0,0,0,0,0,0,0,0,0,0,0,0,0,0,0,0,0,0,0,0,0,0,0,0,0,0,0,0,0,291,308,141,141,141,0,0,0,0,
0,0,0,0,0,0,141,141,274,0,0,0,0,0,0,0,0,0,0,0,0,0,0,0,0,0,0,0,0,0,0,0,0,0,0,0,0,0,0,0,0,0,0,376,377,378,371,372,373,374,375,0,231,232,0,0,0,291,308,0,0,141,0,1073742081,1073742064,0,0,0,0,0,0,0,0,0,0,0,0,0,0,0,0,0,0,0,0,0,0,0,0,0,0,0,0,0,0,325,141,141,0,0,0,0,0,0,
0,0,0,0,0,0,0,141,274,0,0,0,0,0,0,0,0,0,0,0,0,0,0,0,0,0,0,0,0,0,0,0,0,0,0,0,0,0,0,0,0,0,0,0,0,0,0,0,0,0,0,0,0,0,0,0,0,325,141,0,0,141,0,274,0,0,0,0,0,0,0,0,0,0,0,0,0,0,0,0,0,0,0,0,0,0,0,0,0,0,0,0,0,0,291,308,141,0,0,0,0,0,0,0,
0,0,0,0,0,0,0,141,274,0,0,0,0,0,0,0,0,0,0,0,0,0,0,0,0,0,0,0,0,0,0,0,0,0,0,0,0,0,0,0,0,0,0,0,0,0,0,0,0,0,0,0,0,0,0,0,0,325,141,141,141,141,1073742081,1073742064,0,0,0,0,0,0,0,0,0,0,0,0,0,0,0,0,0,0,0,0,0,0,0,0,0,0,0,0,0,0,325,141,141,0,0,0,0,0,0,0,
0,0,0,0,0,0,0,141,274,0,0,0,0,0,0,0,0,0,0,0,0,0,0,0,0,0,0,0,0,0,0,0,0,0,0,0,0,0,0,0,0,0,0,0,0,0,0,0,0,0,0,0,0,0,0,0,0,0,349,0,0,350,0,0,0,0,0,0,0,0,0,0,0,0,0,0,0,0,0,0,0,0,0,0,0,0,0,0,0,0,0,0,0,0,325,141,0,0,0,0,0,0,0,0,
0,0,0,0,0,0,0,141,274,0,0,0,0,0,0,0,0,0,0,0,0,0,0,0,0,0,0,0,0,0,0,0,0,0,0,0,0,0,0,0,0,0,0,0,0,0,0,0,0,0,0,0,0,0,0,0,0,325,141,141,141,141,274,0,0,0,0,0,0,0,0,0,0,0,0,0,0,0,0,0,0,231,232,0,0,0,0,0,0,0,0,0,0,291,308,141,0,0,0,0,0,0,0,0,
0,0,0,0,0,0,0,141,274,0,0,0,0,0,0,0,0,0,0,0,0,0,0,0,0,0,0,0,0,0,0,0,0,0,0,0,0,0,0,0,0,0,0,0,0,0,0,0,0,0,0,0,0,0,0,0,0,325,141,0,0,141,274,0,0,0,0,0,0,0,0,0,0,0,0,0,0,0,0,0,0,0,0,0,0,0,0,0,0,0,0,0,0,325,141,141,0,0,0,0,0,0,0,0,
0,0,0,0,0,0,0,141,257,240,0,0,0,0,0,0,0,0,0,0,0,0,0,0,0,0,0,0,0,0,0,0,0,0,0,0,0,0,0,0,0,0,0,0,0,0,0,0,0,0,0,0,0,0,0,0,0,325,141,0,0,141,274,0,0,0,0,0,0,0,0,0,0,0,0,0,0,0,0,0,0,0,0,0,0,0,0,0,231,232,0,0,0,325,141,0,0,0,0,0,0,0,0,0,
0,0,0,0,0,0,0,141,141,257,206,0,0,0,206,223,240,0,0,0,0,0,0,0,0,0,0,0,0,0,0,0,0,0,0,0,0,0,0,0,0,0,0,0,0,0,0,0,0,0,0,0,0,0,0,0,0,325,141,0,0,141,274,0,0,0,0,0,0,0,0,0,0,0,231,232,0,0,0,0,0,0,0,0,0,0,0,0,0,0,0,0,0,325,141,0,0,0,0,0,0,0,0,0,
0,0,0,0,0,0,0,0,141,141,500,0,0,0,504,141,257,240,0,0,0,0,0,0,0,0,0,0,0,0,0,0,0,0,0,0,0,0,0,0,0,0,0,0,0,0,0,0,0,0,0,0,0,0,0,0,0,325,141,0,0,141,274,0,0,0,0,0,0,0,0,0,0,0,0,0,0,0,0,0,0,0,0,0,0,0,0,0,0,0,0,0,0,325,141,0,0,0,0,0,0,0,0,0,
0,0,0,0,0,0,0,0,0,0,551,0,0,0,538,141,141,257,240,0,0,0,0,0,0,0,0,0,0,0,0,0,0,0,0,0,0,0,0,0,0,0,0,0,0,0,0,0,0,0,0,0,0,0,0,0,291,308,141,0,0,141,274,0,0,0,0,231,232,0,0,0,0,0,0,0,0,0,0,0,0,0,0,0,0,0,0,0,0,0,0,0,291,308,141,0,0,0,0,0,0,0,0,0,
0,0,0,0,0,0,0,0,0,0,534,0,0,0,555,0,141,141,257,240,0,0,0,0,0,0,0,0,0,0,0,0,0,0,0,0,0,0,0,0,0,0,0,0,0,0,0,0,238,239,0,0,0,0,0,0,325,141,141,0,0,141,274,0,0,0,0,0,0,0,0,0,0,0,0,0,0,0,0,0,0,0,0,0,0,0,0,0,0,0,0,0,325,141,141,0,0,0,0,0,0,0,0,0,
0,0,0,0,0,0,0,0,0,0,551,0,0,0,538,0,0,141,141,257,223,206,206,223,0,0,0,0,206,223,206,206,223,240,0,0,0,0,0,0,0,0,0,0,0,0,0,0,255,256,0,0,0,0,0,0,325,141,0,0,0,141,274,0,0,0,0,0,0,0,0,0,0,0,0,0,0,0,0,0,0,0,0,0,0,0,0,0,0,0,0,0,325,141,0,0,0,0,0,0,0,0,0,0,
0,0,0,0,0,0,0,0,0,0,551,0,0,0,555,141,141,141,141,141,141,141,141,500,0,0,0,0,504,141,141,141,141,257,240,0,0,0,0,0,0,0,0,0,0,0,0,0,0,0,0,0,0,0,0,0,325,141,0,0,0,141,257,240,0,0,0,0,0,0,0,0,0,0,0,0,0,0,0,0,0,0,0,0,0,0,0,0,0,0,0,0,325,141,0,0,0,0,0,0,0,0,0,0,
0,0,0,0,0,0,0,0,0,0,551,0,0,0,0,0,0,0,0,0,0,0,0,0,0,0,0,0,555,0,0,0,141,141,257,240,0,0,0,0,0,0,0,0,0,0,0,0,0,0,0,0,0,0,0,291,308,141,0,0,0,141,141,257,240,0,0,0,0,0,0,0,0,0,0,0,0,0,0,0,0,0,0,0,0,0,0,0,0,0,0,291,308,141,0,0,0,0,0,0,0,0,0,0,
0,0,0,0,0,0,0,0,0,0,534,0,0,0,0,382,0,348,382,0,0,382,0,0,0,0,0,0,555,0,0,0,0,141,141,257,240,0,0,0,0,0,0,0,0,0,0,0,0,0,0,0,0,0,291,308,141,141,0,0,0,0,141,141,257,240,0,0,0,0,0,0,0,0,0,0,0,0,0,0,0,0,0,0,0,0,0,0,0,0,291,308,141,141,0,0,0,0,0,0,0,0,0,0,
0,0,0,0,0,0,0,0,0,0,551,0,0,0,591,586,587,587,586,587,587,586,587,590,0,0,0,0,555,0,0,0,0,0,141,141,257,223,223,206,223,206,223,206,206,223,206,223,206,223,206,223,206,223,308,141,141,0,0,0,0,0,0,141,141,257,223,223,206,223,206,223,206,206,223,206,223,223,206,223,206,223,206,206,223,206,0,0,0,223,308,141,141,0,0,0,0,0,0,0,0,0,0,0,
0,0,0,0,0,0,0,0,0,0,568,0,0,0,572,0,0,0,0,0,0,0,0,551,0,0,0,0,555,0,0,0,0,0,0,141,141,141,141,141,141,141,141,141,141,141,141,141,141,141,141,141,141,141,141,141,0,0,0,0,0,0,0,0,141,141,141,141,141,141,141,141,141,141,141,141,141,141,141,141,141,141,141,141,141,500,0,0,0,504,141,141,0,0,0,0,0,0,0,0,0,0,0,0,
0,0,0,0,0,0,0,0,0,0,551,0,0,0,538,0,0,0,0,0,0,0,0,534,0,0,0,0,555,0,0,0,0,0,0,0,0,0,0,0,0,0,0,0,0,0,0,0,0,0,0,0,0,0,0,0,0,0,0,0,0,0,0,0,0,0,0,0,0,0,0,0,0,0,0,0,0,0,0,0,0,0,0,0,0,551,0,0,0,555,0,0,0,0,0,0,0,0,0,0,0,0,0,0,
0,0,0,0,0,0,0,0,0,0,534,0,0,0,555,0,0,0,0,0,0,0,0,551,0,0,0,0,555,0,0,0,0,0,0,0,0,0,0,0,0,0,0,0,0,0,0,0,0,0,0,0,0,0,0,0,0,0,0,0,0,0,0,0,0,0,0,0,0,0,0,0,0,0,0,0,0,0,0,0,0,0,0,0,0,551,0,0,0,555,0,0,0,0,0,0,0,0,0,0,0,0,0,0,
0,0,0,0,0,0,0,0,0,0,551,0,0,0,538,0,0,0,0,0,0,0,0,551,0,0,0,395,538,0,0,0,0,0,0,0,0,0,0,0,0,0,0,0,0,0,0,0,0,0,0,0,0,0,0,0,0,0,0,0,0,0,0,0,0,0,0,0,0,0,0,0,0,0,0,0,0,0,0,0,0,0,0,0,0,551,0,0,0,538,0,0,0,0,0,0,0,0,0,0,0,0,0,0,
0,0,0,0,0,0,0,0,0,0,551,0,0,0,555,0,0,0,0,0,0,0,0,551,0,0,0,348,555,0,0,0,0,0,0,141,141,141,141,141,141,0,0,0,0,0,0,0,0,0,0,0,0,0,0,0,0,0,0,0,0,0,0,0,0,0,0,0,0,0,0,0,0,0,0,0,0,0,0,0,0,0,0,0,0,534,0,0,0,555,0,0,0,0,0,0,0,0,0,0,0,0,0,0,
0,0,0,0,0,0,0,0,0,0,534,0,0,0,555,0,0,0,0,0,0,0,0,534,0,0,0,382,525,526,527,528,529,530,531,532,348,0,0,0,487,0,0,0,0,0,0,0,0,0,0,0,0,0,0,0,0,0,0,0,0,0,0,0,0,0,0,0,0,0,0,0,0,0,0,0,0,0,0,0,0,0,0,0,0,551,0,0,0,555,0,0,0,0,0,0,0,0,0,0,0,0,0,0,
0,0,0,0,0,0,0,0,0,0,551,0,0,0,538,0,0,0,0,0,0,0,0,551,0,0,0,395,542,543,544,545,546,547,548,549,395,0,0,0,555,0,0,0,0,0,0,0,0,0,0,0,0,0,0,0,0,0,0,0,0,0,0,0,0,0,0,0,0,0,0,0,0,0,0,0,0,0,0,0,0,0,0,0,0,551,0,0,0,538,0,0,0,0,0,0,0,0,0,0,0,0,0,0,
0,0,0,0,0,0,0,0,0,0,551,0,0,0,555,0,0,0,0,0,0,0,0,551,0,0,0,348,559,560,561,562,563,564,565,566,567,539,0,0,572,435,436,437,449,0,0,0,0,0,0,0,0,0,0,0,0,0,0,0,0,0,0,0,0,0,0,0,0,0,0,0,0,0,0,0,0,0,0,0,0,0,0,0,0,534,0,0,0,555,0,0,0,0,0,0,0,0,0,0,0,0,0,0,
0,0,0,0,0,0,0,0,0,0,534,0,0,0,538,0,0,0,0,0,0,0,0,551,0,0,0,0,576,0,0,0,0,581,582,583,584,0,0,0,0,383,384,385,466,487,0,0,0,0,0,0,0,0,0,0,0,0,0,0,0,0,0,0,0,0,0,0,0,0,0,0,0,0,0,0,0,0,0,0,0,0,0,0,0,551,0,0,0,538,0,0,0,0,0,0,0,0,0,0,0,0,0,0,
0,0,0,0,0,0,0,0,0,0,551,0,0,0,555,0,0,0,0,0,0,0,0,534,0,0,0,0,0,0,0,0,0,0,0,0,0,0,0,0,0,0,0,0,0,504,0,0,0,0,0,0,0,0,0,0,0,0,0,0,0,0,0,0,0,0,0,0,0,0,0,0,0,0,0,0,0,0,0,0,0,0,0,0,0,551,0,0,0,555,0,0,0,0,0,0,0,0,0,0,0,0,0,0,
0,0,0,0,0,0,0,0,0,0,551,0,0,0,555,0,0,0,0,0,0,0,0,568,382,0,0,382,0,0,382,0,0,382,0,0,382,395,0,382,0,0,0,0,382,572,0,0,0,0,0,0,0,0,0,0,0,0,0,0,0,0,0,0,0,0,0,0,0,0,0,0,0,0,0,0,0,0,0,0,0,0,0,0,0,534,0,0,348,555,432,0,0,0,0,0,0,0,0,0,0,0,0,0,
0,0,0,0,0,0,0,0,0,483,0,0,0,0,0,487,0,0,0,0,0,0,0,585,586,587,587,586,587,587,586,587,587,586,587,587,586,587,587,588,587,587,587,587,588,589,0,0,0,0,0,0,0,0,0,0,0,0,0,0,0,0,0,0,0,0,0,0,0,0,0,0,0,0,0,0,0,0,0,0,0,0,141,141,141,551,0,0,382,572,449,0,0,0,0,0,0,0,0,0,0,0,0,0,
0,0,0,0,0,0,0,0,0,551,395,0,0,0,0,538,0,0,0,0,0,0,0,0,0,0,0,0,0,0,0,0,0,0,0,0,0,0,0,0,0,0,0,0,0,0,0,0,0,0,0,0,0,0,0,0,0,0,0,0,0,0,0,0,0,0,0,0,0,0,0,0,0,0,0,0,0,0,0,0,0,483,0,0,0,0,0,0,395,348,466,504,0,0,0,0,0,0,0,0,0,0,0,0,
0,0,0,0,0,0,0,0,0,568,0,0,0,0,0,572,0,0,0,0,0,0,0,0,0,0,0,0,0,0,0,0,0,0,0,0,0,0,0,0,0,0,0,0,0,0,0,0,0,0,0,0,0,0,0,0,0,0,0,0,0,0,0,0,0,0,0,0,0,0,0,0,0,0,0,0,0,0,0,0,0,551,0,0,0,0,0,0,0,0,0,555,0,0,0,0,0,0,0,0,0,0,0,0,
0,0,0,0,0,0,0,0,0,585,586,587,587,587,588,589,0,0,0,0,0,0,0,0,0,0,0,0,0,0,0,0,0,0,0,0,0,0,0,0,0,0,0,0,0,0,0,0,0,0,0,0,0,0,0,0,0,0,0,0,0,0,0,0,0,0,0,0,0,0,0,0,0,0,0,0,0,0,0,0,0,568,382,0,0,0,0,0,0,382,0,572,0,0,0,0,0,0,0,0,0,0,0,0,
0,0,0,0,0,0,0,0,0,0,0,0,0,0,0,0,0,0,0,0,0,0,0,0,0,0,0,0,0,0,0,0,0,0,0,0,0,0,0,0,0,0,0,0,0,0,0,0,0,0,0,0,0,0,0,0,0,0,0,0,0,0,0,0,0,0,0,0,0,0,0,0,0,0,0,0,0,0,0,0,0,585,586,587,587,587,586,587,587,588,587,589,0,0,0,0,0,0,0,0,0,0,0,0,
0,0,0,0,0,0,0,0,0,0,0,0,0,0,0,0,0,0,0,0,0,0,0,0,0,0,0,0,0,0,0,0,0,0,0,0,0,0,0,0,0,0,0,0,0,0,0,0,0,0,0,0,0,0,0,0,0,0,0,0,0,0,0,0,0,0,0,0,0,0,0,0,0,0,0,0,0,0,0,0,0,0,0,0,0,0,0,0,0,0,0,0,0,0,0,0,0,0,0,0,0,0,0,0,
0,0,0,0,0,0,0,0,0,0,0,0,0,0,0,0,0,0,0,0,0,0,0,0,0,0,0,0,0,0,0,0,0,0,0,0,0,0,0,0,0,0,0,0,0,0,0,0,0,0,0,0,0,0,0,0,0,0,0,0,0,0,0,0,0,0,0,0,0,0,0,0,0,0,0,0,0,0,0,0,0,0,0,0,0,0,0,0,0,0,0,0,0,0,0,0,0,0,0,0,0,0,0,0,
0,0,0,0,0,0,0,0,0,0,0,0,0,0,0,0,0,0,0,0,0,0,0,0,0,0,0,0,0,0,0,0,0,0,0,0,0,0,0,0,0,0,0,0,0,0,0,0,0,0,0,0,0,0,0,0,0,0,0,0,0,0,0,0,0,0,0,0,0,0,0,0,0,0,0,0,0,0,0,0,0,0,0,0,0,0,0,0,0,0,0,0,0,0,0,0,0,0,0,0,0,0,0,0,
0,0,0,0,0,0,0,0,0,0,0,0,0,0,0,0,0,0,0,0,0,0,0,0,0,0,0,0,0,0,0,0,0,0,0,0,0,0,0,0,0,0,0,0,0,0,0,0,0,0,0,0,0,0,0,0,0,0,0,0,0,0,0,0,0,0,0,0,0,0,0,0,0,0,0,0,0,0,0,0,0,0,0,0,0,0,0,0,0,0,0,0,0,0,0,0,0,0,0,0,0,0,0,0,
0,0,0,0,0,0,0,0,0,0,0,0,0,0,0,0,0,0,0,0,0,0,0,0,0,0,0,0,0,0,0,0,0,0,0,0,0,0,0,0,0,0,0,0,0,0,0,0,0,0,0,0,0,0,0,0,0,0,0,0,0,0,0,0,0,0,0,0,0,0,0,0,0,0,0,0,0,0,0,0,0,0,0,0,0,0,0,0,0,0,0,0,0,0,0,0,0,0,0,0,0,0,0,0,
0,0,0,0,0,0,0,0,0,0,0,0,0,0,0,0,0,0,0,0,0,0,0,0,0,0,0,0,0,0,0,0,0,0,0,0,0,0,0,0,0,0,0,0,0,0,0,0,0,0,0,0,0,0,0,0,0,0,0,0,0,0,0,0,0,0,0,0,0,0,0,0,0,0,0,0,0,0,0,0,0,0,0,0,0,0,0,0,0,0,0,0,0,0,0,0,0,0,0,0,0,0,0,0,
0,0,0,0,0,0,0,0,0,0,0,0,0,0,0,0,0,0,0,0,0,0,0,0,0,0,0,0,0,0,0,0,0,0,0,0,0,0,0,0,0,0,0,0,0,0,0,0,0,0,0,0,0,0,0,0,0,0,0,0,0,0,0,0,0,0,0,0,0,0,0,0,0,0,0,0,0,0,0,0,0,0,0,0,0,0,0,0,0,0,0,0,0,0,0,0,0,0,0,0,0,0,0,0,
0,0,0,0,0,0,0,0,0,0,0,0,0,0,0,0,0,0,0,0,0,0,0,0,0,0,0,0,0,0,0,0,0,0,0,0,0,0,0,0,0,0,0,0,0,0,0,0,0,0,0,0,0,0,0,0,0,0,0,0,0,0,0,0,0,0,0,0,0,0,0,0,0,0,0,0,0,0,0,0,0,0,0,0,0,0,0,0,0,0,0,0,0,0,0,0,0,0,0,0,0,0,0,0
</data>
 </layer>
 <layer id="4" name="Buildings2" width="104" height="50">
  <properties>
   <property name="Draw" value="Buildings"/>
  </properties>
  <data encoding="csv">
0,0,0,0,0,0,0,0,0,0,0,0,0,0,0,0,0,0,0,0,0,0,0,0,0,0,0,0,0,0,0,0,0,0,0,0,0,0,0,0,0,0,0,0,0,0,0,0,0,0,0,0,0,0,0,0,0,0,0,0,0,0,0,0,0,0,0,0,0,0,0,0,0,0,0,0,0,0,0,0,0,0,0,0,0,0,0,0,0,0,0,0,0,0,0,0,0,0,0,0,0,0,0,0,
0,0,0,0,0,0,0,0,0,0,0,0,0,0,0,0,0,0,0,0,0,0,0,0,0,0,0,0,0,0,0,0,0,0,0,0,0,0,0,0,0,0,0,0,0,0,0,0,0,0,0,0,0,0,0,0,0,0,0,0,0,0,0,0,0,0,0,0,0,0,0,0,0,0,0,0,0,0,0,0,0,0,0,0,0,0,0,0,0,0,0,0,0,0,0,0,0,0,0,0,0,0,0,0,
0,0,0,0,0,0,0,0,0,0,0,0,0,0,0,0,0,0,0,0,0,0,0,0,0,0,0,0,0,0,0,0,0,0,0,0,0,0,0,0,0,0,0,0,0,0,0,0,0,0,0,0,0,0,0,0,0,0,0,0,0,0,0,0,0,0,0,0,0,0,0,0,0,0,0,0,0,0,0,0,0,0,0,0,0,0,0,0,0,0,0,0,0,0,0,0,0,0,0,0,0,0,0,0,
0,0,0,0,0,0,0,0,0,0,0,0,0,0,0,0,0,0,0,0,0,0,0,0,0,0,0,0,0,0,0,0,0,0,0,0,0,0,0,0,0,0,0,0,0,0,0,0,0,0,0,0,0,0,0,0,0,0,0,0,0,0,0,0,0,0,0,0,0,0,0,0,0,0,0,0,0,0,0,0,0,0,0,0,0,0,0,0,0,0,0,0,0,0,0,0,0,0,0,0,0,0,0,0,
0,0,0,0,0,0,0,0,0,0,0,0,0,0,0,0,0,0,0,0,0,0,0,0,0,0,0,0,0,0,0,0,0,0,0,0,0,0,0,0,0,0,0,0,0,0,0,0,0,0,0,0,0,0,0,0,0,0,0,0,0,0,0,0,0,0,0,0,0,0,0,0,0,0,0,0,0,0,0,0,0,0,0,0,0,0,0,0,0,0,0,0,0,0,0,0,0,0,0,0,0,0,0,0,
0,0,0,0,0,0,0,0,0,0,0,0,0,0,0,0,0,0,0,0,0,0,0,0,0,0,0,0,0,0,0,0,0,0,0,0,0,0,0,0,0,0,0,0,0,0,0,0,0,0,0,0,0,0,0,0,0,0,0,0,0,0,0,0,0,0,0,0,0,0,0,0,0,0,0,0,0,0,0,0,0,0,0,0,0,0,0,0,0,0,0,0,0,0,0,0,0,0,0,0,0,0,0,0,
0,0,0,0,0,0,0,0,0,0,0,0,0,0,0,0,0,0,0,0,0,0,0,0,0,0,0,0,0,0,0,0,0,0,0,0,0,0,0,0,0,0,0,0,0,0,0,0,0,0,0,0,0,0,0,0,0,0,0,0,0,0,0,0,0,0,0,0,0,0,0,0,0,0,0,0,0,0,0,0,0,0,0,0,0,0,0,0,0,0,0,0,0,0,0,0,0,0,0,0,0,0,0,0,
0,0,0,0,0,0,0,0,0,0,0,0,0,0,0,0,0,0,0,0,0,0,0,0,0,0,0,0,0,0,0,0,0,0,0,0,0,0,0,0,0,0,0,0,0,0,0,0,0,0,0,0,0,0,0,0,0,0,0,0,0,0,0,0,0,0,0,0,0,0,0,0,0,0,0,0,0,0,0,0,0,0,0,0,0,0,0,0,0,0,0,0,0,0,0,0,0,0,0,0,0,0,0,0,
0,0,0,0,0,0,0,0,0,0,0,0,0,0,0,0,0,0,0,0,0,0,0,0,0,0,0,0,0,0,0,0,0,0,0,0,0,0,0,0,0,0,0,0,0,0,0,0,0,0,0,0,0,0,0,0,0,0,0,0,0,0,0,0,0,0,0,0,0,0,0,0,0,0,0,0,0,0,0,0,0,0,0,0,0,0,0,0,0,0,0,0,0,0,0,0,0,0,0,0,0,0,0,0,
0,0,0,0,0,0,0,0,0,0,0,0,0,0,0,0,0,0,0,0,0,0,0,0,0,0,0,0,0,0,0,0,0,0,0,0,0,0,0,0,0,0,0,0,0,0,0,0,0,0,0,0,0,0,0,0,0,0,0,0,0,0,0,0,0,0,0,0,0,0,0,0,0,0,0,0,0,0,0,0,0,0,0,0,0,0,0,0,0,0,0,0,0,0,0,0,0,0,0,0,0,0,0,0,
0,0,0,0,0,0,0,0,0,0,0,0,0,0,0,0,0,0,0,0,0,0,0,0,0,0,0,0,0,0,0,0,0,0,0,0,0,0,0,0,0,0,0,0,0,0,752,753,753,753,754,0,0,0,0,0,0,0,0,0,0,0,0,0,0,0,0,0,0,0,0,0,0,0,0,0,0,0,0,0,0,0,0,0,0,0,0,0,0,0,0,0,0,0,0,0,0,0,0,0,0,0,0,0,
0,0,0,0,0,0,0,0,0,0,0,0,0,0,0,0,0,0,0,0,0,0,0,0,0,0,0,0,0,0,0,0,0,0,0,0,0,0,0,0,0,0,0,0,0,0,0,0,0,0,0,0,0,0,0,0,0,0,0,0,0,0,0,0,0,0,0,0,0,0,0,0,0,0,0,0,0,0,0,0,0,0,0,0,0,0,0,0,0,0,0,0,0,0,0,0,0,0,0,0,0,0,0,0,
0,0,0,0,0,0,0,0,0,0,0,0,0,0,0,0,0,0,0,0,0,0,0,0,0,0,0,0,0,0,0,0,0,0,0,0,0,0,0,0,0,0,0,0,0,0,0,0,0,0,0,0,0,0,0,0,0,0,0,0,0,0,0,0,0,0,0,0,0,0,0,0,0,0,0,0,0,0,0,0,0,0,0,0,0,0,0,0,0,0,0,0,0,0,0,0,0,0,0,0,0,0,0,0,
0,0,0,0,0,0,0,0,0,0,0,0,0,0,0,0,0,0,0,0,0,0,0,0,0,0,0,0,0,0,0,0,0,0,0,0,0,0,0,0,0,0,0,0,0,0,0,0,0,0,0,0,0,0,0,0,0,0,0,0,0,0,0,0,0,0,0,0,0,0,0,0,0,0,0,0,0,0,0,0,0,0,0,0,0,0,0,0,0,0,0,0,0,0,0,0,0,0,0,0,0,0,0,0,
0,0,0,0,0,0,0,0,0,0,0,0,0,0,0,0,0,0,0,0,0,0,0,0,0,0,0,0,0,0,0,0,0,0,0,0,0,0,0,0,0,0,0,0,0,0,0,0,0,0,0,0,0,0,0,0,0,0,0,0,0,0,0,0,0,0,0,0,0,0,0,0,0,0,0,0,0,0,0,0,0,0,0,0,0,0,0,0,0,0,0,0,0,0,0,0,0,0,0,0,0,0,0,0,
0,0,0,0,0,0,0,0,0,0,0,0,0,0,0,0,0,0,0,0,0,0,0,0,0,0,0,0,0,0,0,0,0,0,0,0,0,0,0,0,0,0,0,0,0,0,0,0,0,0,0,0,0,0,0,0,0,0,0,0,0,0,0,0,0,0,0,0,0,0,0,0,0,0,0,0,0,0,0,0,0,0,0,0,0,0,0,0,0,0,0,0,0,0,0,0,0,0,0,0,0,0,0,0,
0,0,0,0,0,0,0,0,0,0,0,0,0,0,0,0,0,0,0,0,0,0,0,0,0,0,0,0,0,0,0,0,0,0,0,0,0,0,0,0,0,0,0,0,0,0,0,0,0,0,0,0,0,0,0,0,0,0,0,0,0,0,0,0,0,0,0,0,0,0,0,0,0,0,0,0,0,0,0,0,0,0,0,0,0,0,0,0,0,0,0,0,0,0,0,0,0,0,0,0,0,0,0,0,
0,0,0,0,0,0,0,0,0,0,0,0,0,0,0,0,0,0,0,0,0,0,0,0,0,0,0,0,0,0,0,0,0,0,0,0,0,0,0,0,0,0,0,0,0,0,0,0,0,0,0,0,0,0,0,0,0,0,0,0,0,0,0,0,0,0,0,0,0,0,0,0,0,0,0,0,0,0,0,0,0,0,0,0,0,0,0,0,0,0,0,0,0,0,0,0,0,0,0,0,0,0,0,0,
0,0,0,0,0,0,0,0,0,0,0,0,0,0,0,0,0,0,0,0,0,0,0,0,0,0,0,0,0,0,0,0,0,0,0,0,0,0,0,0,0,0,0,0,0,0,0,0,0,0,0,0,0,0,0,0,0,0,0,0,0,0,0,0,0,0,0,0,0,0,0,0,0,0,0,0,0,0,0,0,0,0,0,0,0,0,0,0,0,0,0,0,0,0,0,0,0,0,0,0,0,0,0,0,
0,0,0,0,0,0,0,0,0,0,0,0,0,0,0,0,0,0,0,0,0,0,0,0,0,0,0,0,0,0,0,0,0,0,0,0,0,0,0,0,0,0,0,0,0,0,0,0,0,0,0,0,0,0,0,0,0,0,0,0,0,0,0,0,0,0,0,0,0,0,0,0,0,0,0,0,0,0,0,0,0,0,0,0,0,0,0,0,0,0,0,0,0,0,0,0,0,0,0,0,0,0,0,0,
0,0,0,0,0,0,0,0,0,0,0,0,0,0,0,0,0,0,0,0,0,0,0,0,0,0,0,0,0,0,0,0,0,0,0,0,0,0,0,0,0,0,0,0,0,0,0,0,0,0,0,0,0,0,0,0,0,0,0,0,0,0,0,0,0,0,0,0,0,0,0,0,0,0,0,0,0,0,0,0,0,0,0,0,0,0,0,0,0,0,0,0,0,0,0,0,0,0,0,0,0,0,0,0,
0,0,0,0,0,0,0,0,0,0,0,0,0,0,0,0,0,0,0,0,0,0,0,0,0,0,0,0,0,0,0,0,0,0,0,0,0,0,0,0,0,0,0,0,0,0,0,0,0,0,0,0,0,0,0,0,0,0,0,0,0,0,0,0,0,0,0,0,0,0,0,0,0,0,0,0,0,0,0,0,0,0,0,0,0,0,0,0,0,0,0,0,0,0,0,0,0,0,0,0,0,0,0,0,
0,0,0,0,0,0,0,0,0,0,0,0,0,0,0,0,0,0,0,0,0,0,0,0,0,0,0,0,0,0,0,0,0,0,0,0,0,0,0,0,0,0,0,0,0,0,0,0,0,0,0,0,0,0,0,0,0,0,0,0,0,0,0,0,0,0,0,0,0,0,0,0,0,0,0,0,0,0,0,0,0,0,0,0,0,0,0,0,0,0,0,0,0,0,0,0,0,0,0,0,0,0,0,0,
0,0,0,0,0,0,0,0,0,0,0,0,0,0,0,0,0,0,0,0,0,0,0,0,0,0,0,0,0,0,0,0,0,0,0,0,0,0,0,0,0,0,0,0,0,0,0,0,0,0,0,0,0,0,0,0,0,0,0,0,0,0,0,0,0,0,0,0,0,0,0,0,0,0,0,0,0,0,0,0,0,0,0,0,0,0,0,0,0,0,0,0,0,0,0,0,0,0,0,0,0,0,0,0,
0,0,0,0,0,0,0,0,0,0,0,0,0,0,0,0,0,0,0,0,0,0,0,0,0,0,0,0,0,0,0,0,0,0,0,0,0,0,0,0,0,0,0,0,0,0,0,0,0,0,0,0,0,0,0,0,0,0,0,0,0,0,0,0,0,0,0,0,0,0,0,0,0,0,0,0,0,0,0,0,0,0,0,0,0,0,0,0,0,0,0,0,0,0,0,0,0,0,0,0,0,0,0,0,
0,0,0,0,0,0,0,0,0,0,0,0,0,0,0,0,0,0,0,0,0,0,0,0,0,0,0,0,0,0,0,0,0,0,0,0,0,0,0,0,0,0,0,0,0,0,0,0,0,0,0,0,0,0,0,0,0,0,0,0,0,0,0,0,0,0,0,0,0,0,0,0,0,0,0,0,0,0,0,0,0,0,0,0,0,0,0,0,0,0,0,0,0,0,0,0,0,0,0,0,0,0,0,0,
0,0,0,0,0,0,0,0,0,0,0,0,0,0,0,0,0,0,0,0,0,0,0,0,0,0,0,0,0,0,0,0,0,0,0,0,0,0,0,0,0,0,0,0,0,0,0,0,0,0,0,0,0,0,0,0,0,0,0,0,0,0,0,0,0,0,0,0,0,0,0,0,0,0,0,0,0,0,0,0,0,0,0,0,0,0,0,0,0,0,0,0,0,0,0,0,0,0,0,0,0,0,0,0,
0,0,0,0,0,0,0,0,0,0,0,0,0,0,0,0,0,0,0,0,0,0,0,0,0,0,0,0,0,0,0,0,0,0,0,0,0,0,0,0,0,0,0,0,0,0,0,0,0,0,0,0,0,0,0,0,0,0,0,0,0,0,0,0,0,0,0,0,0,0,0,0,0,0,0,0,0,0,0,0,0,0,0,0,0,0,0,0,0,0,0,0,0,0,0,0,0,0,0,0,0,0,0,0,
0,0,0,0,0,0,0,0,0,0,0,0,0,0,0,0,0,0,0,0,0,0,0,0,0,0,0,0,0,0,0,0,0,0,0,0,0,0,0,0,0,0,0,0,0,0,0,0,0,0,0,0,0,0,0,0,0,0,0,0,0,0,0,0,0,0,0,0,0,0,0,0,0,0,0,0,0,0,0,0,0,0,0,0,0,0,0,0,0,0,0,0,0,0,0,0,0,0,0,0,0,0,0,0,
0,0,0,0,0,0,0,0,0,0,0,0,0,0,0,0,0,0,0,0,0,0,0,0,0,0,0,0,0,0,0,0,0,0,0,0,0,0,0,0,0,0,0,0,0,0,0,0,0,0,0,0,0,0,0,0,0,0,0,0,0,0,0,0,0,0,0,0,0,0,0,0,0,0,0,0,0,0,0,0,0,0,0,0,0,0,0,0,0,0,0,0,0,0,0,0,0,0,0,0,0,0,0,0,
0,0,0,0,0,0,0,0,0,0,0,0,0,0,0,0,0,0,0,0,0,0,0,0,0,0,0,0,0,0,0,0,0,0,0,0,0,0,0,0,0,0,0,0,0,0,0,0,0,0,0,0,0,0,0,0,0,0,0,0,0,0,0,0,0,0,0,0,0,0,0,0,0,0,0,0,0,0,0,0,0,0,0,0,0,0,0,0,0,0,0,0,0,0,0,0,0,0,0,0,0,0,0,0,
0,0,0,0,0,0,0,0,0,0,0,0,0,0,0,0,0,0,0,0,0,0,0,0,0,0,0,748,749,0,0,0,0,0,0,0,0,0,0,0,0,0,0,0,0,0,0,0,0,0,0,0,0,0,0,0,0,0,0,0,0,0,0,0,0,0,0,0,0,0,0,0,0,0,0,0,0,0,0,0,0,0,0,0,0,0,0,0,0,0,0,0,0,0,0,0,0,0,0,0,0,0,0,0,
0,0,0,0,0,0,0,0,0,0,0,0,0,0,0,0,0,0,0,0,0,0,0,0,0,0,0,767,768,0,0,0,0,0,0,0,0,0,0,0,0,0,0,0,0,0,0,0,0,0,0,0,0,0,0,0,0,0,0,0,0,0,0,0,0,0,0,0,0,0,0,0,0,0,0,0,0,0,0,0,0,0,0,0,0,0,0,0,0,0,0,0,0,0,0,0,0,0,0,0,0,0,0,0,
0,0,0,0,0,0,0,0,0,0,0,0,0,0,0,0,0,0,0,0,0,0,0,0,0,0,0,786,787,0,0,0,0,0,0,0,0,0,0,0,0,0,0,0,0,0,0,0,0,0,0,0,0,0,0,0,0,0,0,0,0,0,0,0,0,0,0,0,0,0,0,0,0,0,0,0,0,0,0,0,0,0,0,0,0,0,0,0,0,0,0,0,0,0,0,0,0,0,0,0,0,0,0,0,
0,0,0,0,0,0,0,0,0,0,0,0,0,0,0,0,0,0,0,0,0,0,0,0,0,0,0,0,806,0,0,0,0,811,812,813,0,0,0,0,0,0,0,0,0,0,0,0,0,0,0,0,0,0,0,0,0,0,0,0,0,0,0,0,0,0,0,0,0,0,0,0,0,0,0,0,0,0,0,0,0,0,0,0,0,0,0,0,0,0,0,0,0,0,0,0,0,0,0,0,0,0,0,0,
0,0,0,0,0,0,0,0,0,0,0,0,0,0,0,0,0,0,0,0,0,0,0,0,0,0,0,0,0,0,0,0,0,0,0,0,0,0,0,0,0,0,0,0,0,0,0,0,0,0,0,0,0,0,0,0,0,0,0,0,0,0,0,0,0,0,0,0,0,0,0,0,0,0,0,0,0,0,0,0,0,0,0,0,0,0,0,0,0,0,0,0,0,0,0,0,0,0,0,0,0,0,0,0,
0,0,0,0,0,0,0,0,0,0,0,0,0,0,0,0,0,0,0,0,0,0,0,0,0,0,0,0,0,0,0,0,0,0,0,0,0,0,0,0,0,0,0,0,0,0,0,0,0,0,0,0,0,0,0,0,0,0,0,0,0,0,0,0,0,0,0,0,0,0,0,0,0,0,0,0,0,0,0,0,0,0,0,0,0,0,0,0,0,0,0,0,0,0,0,0,0,0,0,0,0,0,0,0,
0,0,0,0,0,0,0,0,0,0,0,0,0,0,0,0,0,0,0,0,0,0,0,0,0,0,0,0,0,0,0,0,0,0,0,0,0,0,0,0,0,0,0,0,0,0,0,0,0,0,0,0,0,0,0,0,0,0,0,0,0,0,0,0,0,0,0,0,0,0,0,0,0,0,0,0,0,0,0,0,0,0,0,0,0,0,0,0,0,0,0,0,0,0,0,0,0,0,0,0,0,0,0,0,
0,0,0,0,0,0,0,0,0,0,0,0,0,0,0,0,0,0,0,0,0,0,0,0,0,0,0,0,0,0,0,0,0,0,0,0,0,0,0,0,0,0,0,0,0,0,0,0,0,0,0,0,0,0,0,0,0,0,0,0,0,0,0,0,0,0,0,0,0,0,0,0,0,0,0,0,0,0,0,0,0,0,0,0,0,0,0,0,0,0,0,0,0,0,0,0,0,0,0,0,0,0,0,0,
0,0,0,0,0,0,0,0,0,0,0,0,0,0,0,0,0,0,0,0,0,0,0,0,0,0,0,0,0,0,0,0,0,0,0,0,0,0,0,0,0,0,0,0,0,0,0,0,0,0,0,0,0,0,0,0,0,0,0,0,0,0,0,0,0,0,0,0,0,0,0,0,0,0,0,0,0,0,0,0,0,0,0,0,0,0,0,0,0,0,0,0,0,0,0,0,0,0,0,0,0,0,0,0,
0,0,0,0,0,0,0,0,0,0,0,0,0,0,0,0,0,0,0,0,0,0,0,0,0,0,0,0,0,0,0,0,0,0,0,0,0,0,0,0,0,0,0,0,0,0,0,0,0,0,0,0,0,0,0,0,0,0,0,0,0,0,0,0,0,0,0,0,0,0,0,0,0,0,0,0,0,0,0,0,0,0,0,0,0,0,0,0,0,0,0,0,0,0,0,0,0,0,0,0,0,0,0,0,
0,0,0,0,0,0,0,0,0,0,0,0,0,0,0,0,0,0,0,0,0,0,0,0,0,0,0,0,0,0,0,0,0,0,0,0,0,0,0,0,0,0,0,0,0,0,0,0,0,0,0,0,0,0,0,0,0,0,0,0,0,0,0,0,0,0,0,0,0,0,0,0,0,0,0,0,0,0,0,0,0,0,0,0,0,0,0,0,0,0,0,0,0,0,0,0,0,0,0,0,0,0,0,0,
0,0,0,0,0,0,0,0,0,0,0,0,0,0,0,0,0,0,0,0,0,0,0,0,0,0,0,0,0,0,0,0,0,0,0,0,0,0,0,0,0,0,0,0,0,0,0,0,0,0,0,0,0,0,0,0,0,0,0,0,0,0,0,0,0,0,0,0,0,0,0,0,0,0,0,0,0,0,0,0,0,0,0,0,0,0,0,0,0,0,0,0,0,0,0,0,0,0,0,0,0,0,0,0,
0,0,0,0,0,0,0,0,0,0,0,0,0,0,0,0,0,0,0,0,0,0,0,0,0,0,0,0,0,0,0,0,0,0,0,0,0,0,0,0,0,0,0,0,0,0,0,0,0,0,0,0,0,0,0,0,0,0,0,0,0,0,0,0,0,0,0,0,0,0,0,0,0,0,0,0,0,0,0,0,0,0,0,0,0,0,0,0,0,0,0,0,0,0,0,0,0,0,0,0,0,0,0,0,
0,0,0,0,0,0,0,0,0,0,0,0,0,0,0,0,0,0,0,0,0,0,0,0,0,0,0,0,0,0,0,0,0,0,0,0,0,0,0,0,0,0,0,0,0,0,0,0,0,0,0,0,0,0,0,0,0,0,0,0,0,0,0,0,0,0,0,0,0,0,0,0,0,0,0,0,0,0,0,0,0,0,0,0,0,0,0,0,0,0,0,0,0,0,0,0,0,0,0,0,0,0,0,0,
0,0,0,0,0,0,0,0,0,0,0,0,0,0,0,0,0,0,0,0,0,0,0,0,0,0,0,0,0,0,0,0,0,0,0,0,0,0,0,0,0,0,0,0,0,0,0,0,0,0,0,0,0,0,0,0,0,0,0,0,0,0,0,0,0,0,0,0,0,0,0,0,0,0,0,0,0,0,0,0,0,0,0,0,0,0,0,0,0,0,0,0,0,0,0,0,0,0,0,0,0,0,0,0,
0,0,0,0,0,0,0,0,0,0,0,0,0,0,0,0,0,0,0,0,0,0,0,0,0,0,0,0,0,0,0,0,0,0,0,0,0,0,0,0,0,0,0,0,0,0,0,0,0,0,0,0,0,0,0,0,0,0,0,0,0,0,0,0,0,0,0,0,0,0,0,0,0,0,0,0,0,0,0,0,0,0,0,0,0,0,0,0,0,0,0,0,0,0,0,0,0,0,0,0,0,0,0,0,
0,0,0,0,0,0,0,0,0,0,0,0,0,0,0,0,0,0,0,0,0,0,0,0,0,0,0,0,0,0,0,0,0,0,0,0,0,0,0,0,0,0,0,0,0,0,0,0,0,0,0,0,0,0,0,0,0,0,0,0,0,0,0,0,0,0,0,0,0,0,0,0,0,0,0,0,0,0,0,0,0,0,0,0,0,0,0,0,0,0,0,0,0,0,0,0,0,0,0,0,0,0,0,0,
0,0,0,0,0,0,0,0,0,0,0,0,0,0,0,0,0,0,0,0,0,0,0,0,0,0,0,0,0,0,0,0,0,0,0,0,0,0,0,0,0,0,0,0,0,0,0,0,0,0,0,0,0,0,0,0,0,0,0,0,0,0,0,0,0,0,0,0,0,0,0,0,0,0,0,0,0,0,0,0,0,0,0,0,0,0,0,0,0,0,0,0,0,0,0,0,0,0,0,0,0,0,0,0,
0,0,0,0,0,0,0,0,0,0,0,0,0,0,0,0,0,0,0,0,0,0,0,0,0,0,0,0,0,0,0,0,0,0,0,0,0,0,0,0,0,0,0,0,0,0,0,0,0,0,0,0,0,0,0,0,0,0,0,0,0,0,0,0,0,0,0,0,0,0,0,0,0,0,0,0,0,0,0,0,0,0,0,0,0,0,0,0,0,0,0,0,0,0,0,0,0,0,0,0,0,0,0,0
</data>
 </layer>
 <layer id="5" name="Front" width="104" height="50">
  <data encoding="csv">
95,96,98,98,98,97,114,111,98,96,98,98,97,94,98,98,96,98,98,96,98,114,96,98,98,98,96,98,96,98,98,98,96,98,98,114,0,0,0,0,0,94,98,95,98,95,95,96,95,98,95,95,96,98,98,96,98,95,95,98,98,1356,1357,1357,1358,1359,98,98,96,96,95,98,95,98,95,96,98,95,96,95,98,96,98,95,96,95,98,95,98,95,96,98,96,98,96,98,129,130,129,130,129,130,129,130,
112,113,129,130,112,114,214,215,111,98,98,98,98,111,98,96,98,96,98,98,95,98,96,98,112,113,129,130,112,113,129,130,112,113,114,214,215,0,0,0,0,94,98,98,95,98,95,98,96,95,95,98,95,95,96,98,95,98,96,98,97,1392,1393,1393,1394,1395,111,98,98,98,95,96,98,95,95,98,96,95,98,95,96,98,96,95,98,97,0,94,95,98,96,96,96,96,98,114,0,0,0,0,0,0,0,0,
215,0,214,215,0,0,0,0,0,111,112,113,114,112,113,129,130,129,130,129,0,129,130,114,0,0,0,0,0,0,0,0,0,0,0,0,0,0,0,0,0,111,112,129,130,113,98,98,98,96,98,98,98,95,98,95,98,98,98,95,97,1428,1429,1429,1430,1431,0,111,112,112,112,98,95,98,95,112,113,129,130,112,129,112,113,129,130,114,0,111,129,130,129,130,129,130,114,0,0,0,0,0,0,0,0,0,
0,0,0,0,0,0,0,0,0,0,0,214,215,0,0,0,0,0,0,0,0,0,0,0,0,0,0,0,0,0,0,0,0,0,0,0,0,0,0,0,0,214,215,0,214,215,111,112,129,130,129,130,112,113,112,130,113,112,112,130,114,0,0,0,0,0,0,0,0,214,215,111,129,130,114,0,0,0,0,0,0,0,0,0,214,215,0,214,215,0,0,214,215,0,0,0,0,0,0,0,0,0,0,0,
0,0,0,0,0,0,0,0,0,0,0,0,0,0,0,0,0,0,0,0,0,0,0,0,0,0,0,0,0,0,0,0,0,0,0,0,0,0,0,0,0,0,0,0,0,0,269,270,271,272,273,0,0,0,0,214,215,0,0,0,0,0,0,0,0,0,0,0,0,0,0,0,214,215,0,0,0,0,0,0,0,214,215,0,0,0,0,0,0,0,0,0,0,0,0,0,0,0,0,0,0,0,0,0,
0,0,0,0,0,0,0,0,0,0,0,0,0,0,0,0,0,0,0,0,0,0,0,0,0,0,0,0,0,0,0,0,0,0,0,0,0,0,0,0,0,0,0,214,215,0,286,287,288,289,290,0,0,0,0,0,0,0,0,0,0,0,0,0,0,0,0,0,0,0,0,0,0,0,0,0,0,0,0,0,0,0,0,0,0,0,0,0,0,0,0,0,0,0,0,0,0,0,0,0,0,0,0,0,
0,0,0,0,0,0,0,0,0,0,0,0,0,0,0,0,0,0,0,0,0,0,0,0,0,0,0,0,0,0,0,0,0,0,0,0,0,0,0,0,0,0,0,0,0,0,303,304,305,306,307,0,0,0,0,0,0,0,0,0,0,0,0,0,0,0,0,0,0,0,0,0,0,0,0,0,0,0,0,0,0,0,0,0,0,0,0,0,0,0,0,0,0,0,0,0,0,0,0,0,0,0,0,0,
0,0,0,0,0,0,0,0,0,0,0,0,0,0,0,0,0,0,0,0,0,0,0,0,0,0,0,0,0,0,0,0,0,0,0,0,0,0,0,0,0,0,0,0,0,0,320,321,322,323,324,0,0,0,0,0,0,0,0,0,0,0,0,0,0,0,0,0,0,0,0,0,0,0,0,0,0,0,0,0,0,0,0,0,0,0,0,0,0,0,0,0,0,0,0,0,0,0,0,0,0,0,0,0,
0,0,0,0,0,0,0,0,0,0,0,0,0,0,0,0,0,0,0,0,0,0,0,0,0,0,0,0,0,0,0,0,0,0,0,0,0,0,0,0,0,0,0,0,0,0,0,0,0,0,0,214,215,0,0,0,0,0,0,0,0,0,0,0,0,0,0,0,0,0,0,0,0,0,0,0,0,0,0,0,0,0,0,0,0,0,0,0,0,0,0,0,0,0,0,0,0,0,0,0,0,0,0,0,
0,0,0,0,0,0,0,0,0,0,0,0,0,0,0,0,0,0,0,0,0,0,0,0,0,0,0,0,0,0,0,0,0,0,0,0,0,0,0,0,0,0,0,0,0,0,0,0,0,0,0,0,214,215,0,0,0,0,0,0,0,0,0,0,0,0,0,0,0,0,0,0,0,0,0,0,0,0,0,0,0,0,0,0,0,0,0,0,0,0,0,0,0,0,0,0,0,0,0,0,0,0,0,0,
0,0,0,0,0,0,0,0,0,0,0,0,0,0,0,0,0,0,0,0,0,0,0,0,0,0,0,0,0,0,0,0,0,0,0,0,0,0,0,0,0,0,0,0,0,0,0,0,0,0,0,0,0,0,0,0,0,0,0,0,0,0,0,0,0,0,0,0,0,0,0,0,0,0,0,0,0,0,0,0,0,0,0,0,0,0,0,0,0,0,0,0,0,0,0,0,0,0,0,0,0,0,0,0,
0,0,0,0,0,0,0,0,0,0,0,0,0,0,0,0,0,0,0,0,0,0,0,0,0,0,0,0,0,0,0,0,0,0,0,0,0,0,0,0,0,0,0,0,0,0,0,0,0,0,0,0,0,0,0,0,0,0,0,0,0,0,0,0,0,0,0,0,0,0,0,0,0,0,0,0,0,0,0,0,0,0,0,0,0,0,0,0,0,0,0,0,0,0,0,0,0,0,0,0,0,0,0,0,
0,0,0,0,0,0,0,0,0,0,0,0,0,0,0,0,0,0,0,0,0,0,0,0,0,0,0,0,0,0,0,0,0,0,0,0,0,0,0,0,0,0,0,0,0,0,0,0,0,0,0,0,0,0,0,0,0,0,0,0,0,0,0,0,0,0,0,0,0,0,0,0,0,0,0,0,0,0,0,0,0,0,0,0,0,0,0,0,0,0,0,0,0,0,0,0,0,0,0,0,0,0,0,0,
0,0,0,0,0,0,0,0,0,0,0,0,0,0,0,0,0,0,0,0,0,0,0,0,0,0,0,0,0,0,0,0,0,0,0,0,0,0,0,0,0,0,0,0,0,0,0,0,0,0,0,0,0,0,0,0,0,0,0,0,0,0,0,0,0,0,0,0,0,0,0,0,0,0,0,0,0,0,0,0,0,214,215,0,0,0,0,0,0,0,0,0,0,0,0,0,0,0,0,0,0,0,0,0,
0,0,0,0,0,0,0,0,0,0,0,0,0,0,0,0,0,0,0,0,0,0,0,0,0,0,0,0,0,0,0,0,0,0,0,0,0,0,0,0,0,0,0,0,0,0,0,0,0,0,0,0,0,0,0,0,0,0,0,0,0,0,0,0,0,0,0,0,0,0,0,0,0,0,0,0,0,0,0,0,0,0,0,0,0,0,0,0,0,0,0,0,0,0,0,0,0,0,0,0,0,0,0,0,
0,0,0,0,0,0,0,0,0,0,0,0,0,0,0,0,0,0,0,0,0,0,0,0,0,0,0,0,0,0,0,0,0,0,0,0,0,0,0,0,0,0,0,0,0,0,0,0,0,0,0,0,0,0,0,0,0,0,0,0,0,0,0,0,0,0,0,0,0,0,0,0,0,0,0,0,0,0,0,0,0,0,0,0,0,0,0,0,214,215,0,0,0,0,0,0,0,0,0,0,0,0,0,0,
0,0,0,0,0,0,0,0,0,0,0,0,0,0,0,0,0,0,0,0,0,0,0,0,0,0,0,0,0,0,0,0,0,0,0,0,0,0,0,0,0,0,0,0,0,0,0,0,0,0,0,0,0,0,0,0,0,0,0,0,0,0,0,0,0,0,0,0,0,0,0,0,0,0,214,215,0,0,0,0,0,0,0,0,0,0,0,0,0,0,0,0,0,0,0,0,0,0,0,0,0,0,0,0,
0,0,0,0,0,0,0,0,0,0,0,0,0,0,0,0,0,0,0,0,0,0,0,0,0,0,0,0,0,0,0,0,0,0,0,0,0,0,0,0,0,0,0,0,0,0,0,0,0,0,0,0,0,0,0,0,0,0,0,0,0,0,0,0,0,0,0,0,0,0,0,0,0,0,0,0,0,0,0,0,0,0,0,0,0,0,0,0,0,0,0,0,0,0,0,0,0,0,0,0,0,0,0,0,
0,0,0,0,0,0,0,0,0,0,0,0,0,0,0,0,0,0,0,0,0,0,0,0,0,0,0,0,0,0,0,0,0,0,0,0,0,0,0,0,0,0,0,0,0,0,0,0,0,0,0,0,0,0,0,0,0,0,0,0,0,0,0,0,0,0,0,214,215,0,0,0,0,0,0,0,0,0,0,0,0,0,0,0,0,0,0,0,0,0,0,0,0,0,0,0,0,0,0,0,0,0,0,0,
0,0,0,0,0,0,0,0,0,0,0,0,0,0,0,0,0,0,0,0,0,0,0,0,0,0,0,0,0,0,0,0,0,0,0,0,0,0,0,0,0,0,0,0,0,0,0,0,0,0,0,0,0,0,0,0,0,0,0,0,0,0,0,0,0,0,0,0,0,0,0,0,0,0,0,0,0,0,0,0,0,0,0,0,0,0,0,0,0,0,0,0,0,0,0,0,0,0,0,0,0,0,0,0,
0,0,0,0,0,0,0,0,0,0,0,0,0,0,0,0,0,0,0,0,0,0,0,0,0,0,0,0,0,0,0,0,0,0,0,0,0,0,0,0,0,0,0,0,0,0,0,0,0,0,0,0,0,0,0,0,0,0,0,0,0,0,0,0,0,0,0,0,0,0,0,0,0,0,0,0,0,0,0,0,0,0,0,0,0,0,0,0,0,0,0,0,0,0,0,0,0,0,0,0,0,0,0,0,
0,0,0,0,0,0,0,0,0,0,0,0,0,0,0,0,0,0,0,0,0,0,0,0,0,0,0,0,0,0,0,0,0,0,0,0,0,0,0,0,0,0,0,0,0,0,0,0,0,0,0,0,0,0,0,0,0,0,0,0,0,0,0,0,0,0,0,0,0,0,0,0,0,0,0,0,0,0,0,0,0,0,0,0,0,0,0,0,0,0,0,0,0,0,0,0,0,0,0,0,0,0,0,0,
0,0,0,0,0,0,0,0,0,0,0,0,0,0,0,0,0,0,0,0,0,0,0,0,0,0,0,0,0,0,0,0,0,0,0,0,0,0,0,0,0,0,0,0,0,0,0,0,0,0,0,0,0,0,0,0,0,0,0,0,0,0,0,0,0,0,0,0,0,0,0,0,0,0,0,0,0,0,0,0,0,0,0,0,0,0,0,0,0,0,0,0,0,0,0,0,0,0,0,0,0,0,0,0,
0,0,0,0,0,0,0,0,0,0,0,0,0,0,0,0,0,0,0,0,0,0,0,0,0,0,0,0,0,0,0,0,0,0,0,0,0,0,0,0,0,0,0,0,0,0,0,0,0,0,0,0,0,0,0,0,0,0,0,0,0,0,0,0,0,0,0,0,0,0,0,0,0,0,0,0,0,0,0,0,0,0,0,0,0,0,0,0,0,0,0,0,0,0,0,0,0,0,0,0,0,0,0,0,
0,0,0,0,247,248,249,0,0,0,0,0,0,0,0,0,0,0,0,0,0,0,0,0,0,0,0,0,0,0,0,0,0,0,0,0,0,0,0,0,0,0,0,0,0,0,0,0,0,0,0,0,0,0,0,0,0,0,0,0,0,0,0,0,0,0,0,0,0,0,0,0,0,0,0,0,0,0,0,0,0,0,0,0,0,0,0,0,0,0,0,0,0,0,0,0,0,0,0,0,0,0,0,0,
0,0,0,0,264,265,266,0,0,0,0,0,0,0,0,0,0,0,0,0,0,0,0,0,0,0,0,0,423,424,425,426,427,428,429,430,431,0,0,0,0,0,0,0,0,0,0,0,0,0,0,0,0,0,0,0,0,0,0,0,0,0,0,0,0,0,0,0,0,0,0,0,0,0,0,0,0,0,0,0,0,0,0,0,0,0,0,0,0,0,0,0,0,0,0,0,0,0,0,0,0,0,0,0,
0,0,0,0,281,282,283,0,0,0,0,0,0,0,0,0,0,0,0,0,0,0,0,0,0,0,0,0,440,441,442,443,444,445,446,447,448,0,0,0,0,0,0,0,0,0,0,0,0,0,0,0,0,0,0,0,0,0,0,0,0,0,0,0,0,0,0,0,0,0,0,0,0,0,0,0,0,0,0,0,0,0,0,0,0,0,0,0,0,0,0,0,0,0,0,0,0,0,0,0,0,0,0,0,
0,0,0,0,0,0,0,0,0,0,0,0,0,0,0,0,0,0,0,0,0,0,0,0,0,0,0,0,457,458,459,460,461,462,463,464,465,0,0,0,0,0,0,0,0,0,0,0,0,0,0,0,0,0,0,0,0,0,0,0,0,0,0,0,0,0,0,0,0,0,0,0,0,0,0,0,0,0,0,0,0,0,0,0,0,0,0,0,0,0,0,0,0,0,0,0,0,0,0,0,0,0,0,0,
0,0,0,0,0,0,0,0,0,0,0,0,0,0,0,0,0,0,0,0,0,0,0,0,0,0,0,473,474,475,476,477,478,479,480,481,482,0,0,0,0,0,0,0,0,0,0,0,0,0,0,0,0,0,0,0,0,0,0,0,0,0,0,0,0,0,0,0,0,0,0,0,0,0,0,0,0,0,0,0,0,0,0,0,0,0,0,0,0,0,0,0,0,0,0,0,0,0,0,0,0,0,0,0,
0,0,0,0,0,0,0,0,0,0,0,0,0,0,0,0,0,0,0,0,0,0,0,0,0,0,0,490,491,492,493,494,495,496,497,498,499,0,0,0,0,0,0,0,0,0,0,0,0,0,0,0,0,0,0,0,0,0,0,0,0,0,0,0,0,0,0,0,0,0,0,0,0,0,0,0,0,0,0,0,0,0,0,0,0,0,0,0,0,0,0,0,0,0,0,0,0,0,0,0,0,0,0,0,
0,0,0,0,0,0,0,0,0,0,0,0,0,0,0,0,0,0,0,0,0,0,0,0,0,0,0,507,508,509,510,511,512,513,514,515,516,0,0,0,0,0,0,0,0,0,0,0,0,0,0,0,0,0,0,0,0,0,0,0,0,0,0,0,0,0,0,0,0,0,0,0,0,0,0,0,0,0,0,0,0,0,0,0,0,0,0,0,0,0,0,0,0,0,0,0,0,0,0,0,0,0,0,0,
0,0,0,0,0,0,0,0,0,0,0,0,0,0,0,0,0,0,0,0,0,0,0,0,0,0,0,524,525,0,0,0,0,0,0,532,533,0,0,0,0,0,0,0,434,0,0,0,0,0,0,0,0,0,0,0,0,0,0,0,0,0,0,0,0,0,0,0,0,0,0,0,0,0,0,0,0,0,0,0,0,0,0,0,0,0,0,0,0,0,0,0,0,0,0,0,0,0,0,0,0,0,0,0,
0,0,0,0,0,0,0,0,0,0,0,0,0,0,0,0,0,0,0,0,0,0,0,0,0,0,0,541,0,0,0,0,0,0,0,0,550,522,0,0,0,0,0,0,432,0,0,0,0,0,0,0,0,0,0,0,0,0,0,0,0,0,0,0,0,0,0,0,0,0,0,0,0,0,0,0,0,0,0,0,0,0,0,0,0,0,0,0,0,0,0,0,0,0,0,0,0,0,0,0,0,0,0,0,
0,0,0,0,0,0,0,0,0,0,0,0,0,0,0,0,0,0,0,0,0,0,0,0,0,0,0,0,0,0,0,0,0,0,0,0,0,0,0,0,0,0,0,0,0,0,0,0,0,0,0,0,0,0,0,0,0,0,0,0,0,0,0,0,0,0,0,0,0,0,0,0,0,0,0,0,0,0,0,0,0,0,0,0,0,0,0,0,0,0,0,0,0,0,0,0,0,0,0,0,0,0,0,0,
0,0,0,0,0,0,0,0,0,0,0,0,0,0,0,0,0,0,0,0,0,0,0,0,0,0,0,0,0,0,0,0,0,0,0,0,0,0,0,0,0,0,0,0,0,0,0,0,0,0,0,0,0,0,0,0,0,0,0,0,0,0,0,0,0,0,0,0,0,0,0,0,0,0,0,0,0,0,0,0,0,0,0,0,0,0,0,0,0,0,0,0,0,0,0,0,0,0,0,0,0,0,0,0,
0,0,0,0,0,0,0,0,0,0,0,0,0,0,0,0,0,0,0,0,0,0,0,0,0,0,0,0,0,0,0,0,0,0,0,0,0,0,0,0,0,0,0,0,0,0,0,0,0,0,0,0,0,0,0,0,0,0,0,0,0,0,0,0,0,0,0,0,0,0,0,0,0,0,0,0,0,0,0,0,0,0,0,0,0,0,0,0,0,0,434,0,0,0,0,0,0,0,0,0,0,0,0,0,
0,0,0,0,0,0,0,0,0,0,0,0,0,0,0,0,0,0,0,0,0,0,0,0,0,0,0,0,0,0,0,0,0,0,0,0,0,0,0,0,0,0,0,0,0,0,0,0,0,0,0,0,0,0,0,0,0,0,0,0,0,0,0,0,0,0,0,0,0,0,0,0,0,0,0,0,0,0,0,0,0,0,0,0,0,0,0,0,0,0,432,0,0,0,0,0,0,0,0,0,0,0,0,0,
0,0,0,0,0,0,0,0,0,0,0,0,0,0,0,0,0,0,0,0,0,0,0,0,0,0,0,0,0,0,0,0,0,0,0,0,0,0,0,0,0,0,0,0,0,0,0,0,0,0,0,0,0,0,0,0,0,0,0,0,0,0,0,0,0,0,0,0,0,0,0,0,0,0,0,0,0,0,0,0,0,0,0,0,0,0,0,0,0,0,0,0,0,0,0,0,0,0,0,0,0,0,0,0,
0,0,0,0,0,0,0,0,0,0,0,0,0,0,0,0,0,0,0,0,0,0,0,0,0,0,0,0,0,0,0,0,0,0,0,0,0,0,0,0,0,0,0,0,0,0,0,0,0,0,0,0,0,0,0,0,0,0,0,0,0,0,0,0,0,0,0,0,0,0,0,0,0,0,0,0,0,0,0,0,0,0,0,0,0,0,0,0,0,0,0,0,0,0,0,0,0,0,0,0,0,0,0,0,
0,0,0,0,0,0,0,0,0,0,0,0,0,0,0,0,0,0,0,0,0,0,0,0,0,0,0,0,0,0,0,0,0,0,0,0,0,0,0,0,0,0,0,0,0,0,0,0,0,0,0,0,0,0,0,0,0,0,0,0,0,0,0,0,0,0,0,0,0,0,0,0,0,0,0,0,0,0,0,0,0,0,0,0,0,0,0,0,0,0,0,0,0,0,0,0,0,0,0,0,0,0,0,0,
0,0,0,0,0,0,0,0,0,0,0,0,0,0,0,0,0,0,0,0,0,0,0,0,0,0,0,0,0,0,0,0,0,0,0,0,0,0,0,0,0,0,0,0,0,0,0,0,0,0,0,0,0,0,0,0,0,0,0,0,0,0,0,0,0,0,0,0,0,0,0,0,0,0,0,0,0,0,0,0,0,0,0,0,0,0,0,0,0,0,0,0,0,0,0,0,0,0,0,0,0,0,0,0,
0,0,0,0,0,0,0,0,0,0,0,0,0,0,0,0,0,0,0,0,0,0,0,0,0,0,0,0,0,0,0,0,0,0,0,0,0,0,0,0,0,0,0,0,0,0,0,0,0,0,0,0,0,0,0,0,0,0,0,0,0,0,0,0,0,0,0,0,0,0,0,0,0,0,0,0,0,0,0,0,0,0,0,0,0,0,0,0,0,0,0,0,0,0,0,0,0,0,0,0,0,0,0,0,
0,0,0,0,0,0,0,0,0,0,0,0,0,0,0,0,0,0,0,0,0,0,0,0,0,0,0,0,0,0,0,0,0,0,0,0,0,0,0,0,0,0,0,0,0,0,0,0,0,0,0,0,0,0,0,0,0,0,0,0,0,0,0,0,0,0,0,0,0,0,0,0,0,0,0,0,0,0,0,0,0,0,0,0,0,0,0,0,0,0,0,0,0,0,0,0,0,0,0,0,0,0,0,0,
0,0,0,0,0,0,0,0,0,0,0,0,0,0,0,0,0,0,0,0,0,0,0,0,0,0,0,0,0,0,0,0,0,0,0,0,0,0,0,0,0,0,0,0,0,0,0,0,0,0,0,0,0,0,0,0,0,0,0,0,0,0,0,0,0,0,0,0,0,0,0,0,0,0,0,0,0,0,0,0,0,0,0,0,0,0,0,0,0,0,0,0,0,0,0,0,0,0,0,0,0,0,0,0,
0,0,0,0,0,0,0,0,0,0,0,0,0,0,0,0,0,0,0,0,0,0,0,0,0,0,0,0,0,0,0,0,0,0,0,0,0,0,0,0,0,0,0,0,0,0,0,0,0,0,0,0,0,0,0,0,0,0,0,0,0,0,0,0,0,0,0,0,0,0,0,0,0,0,0,0,0,0,0,0,0,0,0,0,0,0,0,0,0,0,0,0,0,0,0,0,0,0,0,0,0,0,0,0,
0,0,0,0,0,0,0,0,0,0,0,0,0,0,0,0,0,0,0,0,0,0,0,0,0,0,0,0,0,0,0,0,0,0,0,0,0,0,0,0,0,0,0,0,0,0,0,0,0,0,0,0,0,0,0,0,0,0,0,0,0,0,0,0,0,0,0,0,0,0,0,0,0,0,0,0,0,0,0,0,0,0,0,0,0,0,0,0,0,0,0,0,0,0,0,0,0,0,0,0,0,0,0,0,
0,0,0,0,0,0,0,0,0,0,0,0,0,0,0,0,0,0,0,0,0,0,0,0,0,0,0,0,0,0,0,0,0,0,0,0,0,0,0,0,0,0,0,0,0,0,0,0,0,0,0,0,0,0,0,0,0,0,0,0,0,0,0,0,0,0,0,0,0,0,0,0,0,0,0,0,0,0,0,0,0,0,0,0,0,0,0,0,0,0,0,0,0,0,0,0,0,0,0,0,0,0,0,0,
0,0,0,0,0,0,0,0,0,0,0,0,0,0,0,0,0,0,0,0,0,0,0,0,0,0,0,0,0,0,0,0,0,0,0,0,0,0,0,0,0,0,0,0,0,0,0,0,0,0,0,0,0,0,0,0,0,0,0,0,0,0,0,0,0,0,0,0,0,0,0,0,0,0,0,0,0,0,0,0,0,0,0,0,0,0,0,0,0,0,0,0,0,0,0,0,0,0,0,0,0,0,0,0,
0,0,0,0,0,0,0,0,0,0,0,0,0,0,0,0,0,0,0,0,0,0,0,0,0,0,0,0,0,0,0,0,0,0,0,0,0,0,0,0,0,0,0,0,0,0,0,0,0,0,0,0,0,0,0,0,0,0,0,0,0,0,0,0,0,0,0,0,0,0,0,0,0,0,0,0,0,0,0,0,0,0,0,0,0,0,0,0,0,0,0,0,0,0,0,0,0,0,0,0,0,0,0,0,
0,0,0,0,0,0,0,0,0,0,0,0,0,0,0,0,0,0,0,0,0,0,0,0,0,0,0,0,0,0,0,0,0,0,0,0,0,0,0,0,0,0,0,0,0,0,0,0,0,0,0,0,0,0,0,0,0,0,0,0,0,0,0,0,0,0,0,0,0,0,0,0,0,0,0,0,0,0,0,0,0,0,0,0,0,0,0,0,0,0,0,0,0,0,0,0,0,0,0,0,0,0,0,0
</data>
 </layer>
 <layer id="6" name="Paths" width="104" height="50">
  <data encoding="csv">
0,0,0,0,0,0,0,0,0,0,0,0,0,0,0,0,0,0,0,0,0,0,0,0,0,0,0,0,0,0,0,0,0,0,0,0,0,0,7,0,0,0,0,0,0,0,0,0,0,0,0,0,0,0,0,0,0,0,0,0,0,0,0,0,0,0,0,0,0,0,0,0,0,0,0,0,0,0,0,0,0,0,0,0,0,0,0,0,0,0,0,0,0,0,0,0,0,0,0,0,0,0,0,0,
0,0,0,0,0,0,0,0,0,0,0,0,0,0,0,0,0,0,0,0,0,0,0,0,0,0,0,0,0,0,0,0,0,0,0,0,0,0,7,0,0,0,0,0,0,0,0,0,0,0,0,0,0,0,0,0,0,0,0,0,0,0,0,0,0,0,0,0,0,0,0,0,0,0,0,0,0,0,0,0,0,0,0,0,0,0,0,0,0,0,0,0,0,0,0,0,0,0,0,0,0,0,0,0,
0,0,0,0,0,0,0,0,0,0,0,0,0,0,0,0,0,0,0,0,0,0,0,0,0,0,0,0,0,0,0,0,0,0,0,0,0,0,7,0,0,0,0,0,0,0,0,0,0,0,0,0,0,0,0,0,0,0,0,0,0,0,0,0,0,0,0,0,0,0,0,0,0,0,0,0,0,0,0,0,0,0,0,0,0,0,0,0,0,0,0,0,0,0,0,0,0,0,0,0,0,0,0,0,
0,0,0,0,0,0,0,0,0,0,0,0,0,0,0,0,0,0,0,0,0,0,0,0,0,0,0,0,0,0,0,0,0,0,0,0,0,0,7,0,0,0,0,0,0,0,0,0,0,0,0,0,0,0,0,0,0,0,0,0,0,0,0,0,0,0,0,0,0,0,0,0,0,0,0,0,0,0,0,0,0,0,0,0,0,0,0,0,0,0,0,0,0,0,0,0,0,0,0,0,0,0,0,0,
0,0,0,0,0,0,0,0,0,0,0,0,0,0,0,0,0,0,0,0,0,0,0,0,0,0,8,0,0,0,0,0,0,0,0,0,0,0,7,0,0,0,0,0,0,0,0,0,0,0,0,0,0,0,0,0,0,0,0,0,0,0,0,0,0,0,0,0,0,0,0,0,0,0,0,0,0,0,0,0,0,0,0,0,0,0,0,0,0,0,0,0,0,0,0,0,0,0,0,0,0,0,0,0,
0,0,0,0,0,0,0,0,0,0,0,0,0,0,0,0,0,0,0,0,0,0,0,0,0,0,7,0,0,0,0,0,0,0,0,0,0,0,7,0,0,0,0,0,0,0,0,0,0,0,0,0,0,0,0,0,0,0,0,0,0,0,0,0,0,0,0,0,0,0,0,0,0,0,0,0,0,0,0,0,0,0,0,0,0,0,0,0,0,0,0,0,0,0,0,0,0,0,0,0,0,0,0,0,
0,0,0,0,0,0,0,0,0,0,0,0,0,0,0,0,0,0,0,0,0,0,0,0,0,2,5,6,6,6,6,6,5,6,6,6,6,6,5,0,0,0,0,0,0,0,0,0,0,0,0,0,0,0,0,0,0,0,0,0,0,0,0,0,0,0,0,0,0,0,0,0,0,0,0,0,0,0,0,0,0,0,0,0,0,0,0,0,0,0,0,0,0,0,0,0,0,0,0,0,0,0,0,0,
0,0,0,0,0,0,0,0,0,0,0,0,0,0,0,0,0,0,0,0,0,0,0,0,0,7,7,0,0,0,0,0,7,0,0,0,0,0,7,0,0,0,0,0,0,0,0,0,0,0,0,0,0,0,0,0,0,0,0,0,0,0,0,0,0,0,0,0,0,0,0,0,0,0,0,0,0,0,0,0,0,0,0,0,0,0,0,0,0,0,0,0,0,0,0,0,0,0,0,0,0,0,0,0,
0,0,0,0,0,0,0,0,0,0,0,0,0,0,0,0,0,0,0,0,0,0,0,0,0,7,7,0,0,0,0,0,7,0,0,0,0,0,7,0,0,0,0,0,0,0,0,0,0,0,0,0,0,0,0,0,0,0,0,0,0,0,0,0,0,0,0,0,0,0,0,0,0,0,0,0,0,0,0,0,0,0,0,0,0,0,0,0,0,0,0,0,0,0,0,0,0,0,0,0,0,0,0,0,
0,0,0,0,0,0,0,0,0,0,0,0,0,0,0,0,0,0,0,0,0,0,0,0,0,7,7,0,0,0,0,0,7,0,0,0,0,0,7,0,0,0,0,0,0,0,0,0,0,0,0,0,0,0,0,0,0,0,0,0,0,0,0,0,0,0,0,0,0,0,0,0,0,0,0,0,0,0,0,0,0,0,0,0,0,0,0,0,0,0,0,0,0,0,0,0,0,0,0,0,0,0,0,0,
0,0,0,0,0,0,0,0,0,0,2,6,6,6,6,6,6,6,6,6,6,6,6,6,6,4,7,0,0,0,0,0,8,0,0,0,0,0,7,0,0,0,0,0,0,0,0,0,0,0,0,0,0,0,0,0,0,0,0,0,0,0,0,0,0,0,0,0,0,0,0,0,0,0,0,0,0,0,0,0,0,0,0,0,0,0,0,0,0,0,0,0,0,0,0,0,0,0,0,0,0,0,0,0,
0,0,0,0,0,0,0,0,0,0,7,0,0,0,0,0,0,0,0,0,0,0,0,0,0,0,7,0,0,0,0,0,0,0,0,0,0,0,7,0,0,0,0,0,0,0,0,0,0,7,0,0,0,0,0,0,0,0,0,0,0,0,0,0,0,0,0,0,0,0,0,0,0,0,0,0,0,0,0,0,0,0,0,0,0,0,0,0,0,0,0,0,0,0,0,0,0,0,0,0,0,0,0,0,
0,0,0,0,0,0,0,0,0,0,7,0,0,0,0,0,0,0,0,0,0,0,0,0,0,0,7,0,0,0,0,0,0,0,0,0,2,6,5,6,6,6,6,6,6,6,6,6,6,5,0,0,0,0,0,0,0,0,0,0,0,0,0,0,0,0,0,0,0,0,0,0,0,0,0,0,0,0,0,0,0,0,0,0,0,0,0,0,0,0,0,0,0,0,0,0,0,0,0,0,0,0,0,0,
0,0,0,0,0,0,0,0,0,0,8,0,0,0,0,0,0,0,0,0,0,0,0,0,0,0,7,0,0,0,0,0,0,0,0,0,7,0,7,0,0,0,0,0,0,0,0,0,0,7,0,0,0,0,0,0,0,0,0,0,0,0,0,0,0,0,0,0,0,0,0,0,0,0,0,0,0,0,0,0,0,0,0,0,0,0,0,0,0,0,0,0,0,0,0,0,0,0,0,0,0,0,0,0,
0,0,0,0,0,0,0,0,0,0,0,0,0,0,0,0,0,0,0,0,0,0,0,0,0,0,7,0,0,0,0,0,0,0,0,0,7,0,7,0,0,0,0,0,0,0,0,0,0,7,0,0,0,0,0,0,0,0,0,0,0,0,0,0,0,0,0,0,0,0,0,0,0,0,0,0,0,0,0,0,0,0,0,0,0,0,0,0,0,0,0,0,0,0,0,0,0,0,0,0,0,0,0,0,
0,0,0,0,0,0,0,0,0,0,0,0,0,0,0,0,0,0,0,0,0,0,0,0,0,0,7,0,0,0,0,0,0,0,0,0,7,0,7,0,0,0,0,0,0,0,0,0,0,7,0,0,0,0,0,0,0,0,0,0,0,0,0,0,0,0,0,0,0,0,0,0,0,0,0,0,0,0,0,0,0,0,0,0,0,0,0,0,0,0,0,0,0,0,0,0,0,0,0,0,0,0,0,0,
0,0,0,0,0,0,0,0,0,0,0,0,0,0,0,0,0,0,0,0,0,0,0,0,0,0,7,0,0,0,0,0,0,0,0,0,7,0,7,0,0,0,0,0,0,0,0,0,0,7,0,0,0,0,0,0,0,0,0,0,0,0,0,0,0,0,0,0,0,0,0,0,0,0,0,0,0,0,0,0,0,0,0,0,0,0,0,0,0,0,0,0,0,0,0,0,0,0,0,0,0,0,0,0,
0,0,0,0,0,0,0,0,0,0,0,0,0,0,0,0,0,0,0,0,0,0,0,0,0,0,7,0,0,0,0,0,0,0,0,0,7,0,7,0,0,0,0,0,0,0,0,0,0,7,0,0,0,0,0,0,0,0,0,0,0,0,0,0,0,0,0,0,0,0,0,0,0,0,0,0,0,0,0,0,0,0,0,0,0,0,0,0,0,0,0,0,0,0,0,0,0,0,0,0,0,0,0,0,
0,0,0,0,0,0,0,0,0,0,0,0,0,0,0,0,0,0,0,0,0,0,0,0,0,0,7,0,0,0,0,0,0,0,0,0,7,0,7,0,0,0,0,0,0,0,0,0,0,7,0,0,0,0,0,0,0,0,0,0,0,0,0,0,0,0,0,0,0,0,0,0,0,0,0,0,0,0,0,0,0,0,0,0,0,0,0,0,0,0,0,0,0,0,0,0,0,0,0,0,0,0,0,0,
0,0,0,0,0,0,0,0,0,0,0,0,0,0,0,0,0,0,0,0,0,0,0,0,0,0,7,0,0,0,0,0,0,0,0,0,7,0,7,0,0,0,0,0,0,0,0,0,0,1,6,6,6,3,0,0,0,0,0,0,0,0,0,0,0,0,0,0,0,0,0,0,0,0,0,0,0,0,0,0,0,0,0,0,0,0,0,0,0,0,0,0,0,0,0,0,0,0,0,0,0,0,0,0,
0,0,0,0,0,0,0,0,0,0,0,0,0,0,0,0,0,0,0,0,0,0,0,0,0,0,7,0,0,0,0,0,0,0,0,0,7,0,7,0,0,0,0,0,0,0,0,0,0,0,0,0,0,7,0,0,0,0,0,0,0,0,0,0,0,0,0,0,0,0,0,0,0,0,0,0,0,0,0,0,0,0,0,0,0,0,0,0,0,0,0,0,0,0,0,0,0,0,0,0,0,0,0,0,
0,0,0,0,0,0,0,0,0,0,0,0,0,0,0,0,0,0,0,0,0,0,0,0,0,0,7,0,0,0,0,0,0,0,0,0,7,0,7,0,0,0,0,0,0,0,0,0,0,0,0,0,0,7,0,0,0,0,0,0,0,0,0,0,0,0,0,0,0,0,0,0,0,0,0,0,0,0,0,0,0,0,0,0,0,0,0,0,0,0,0,0,0,0,0,0,0,0,0,0,0,0,0,0,
0,0,0,0,0,0,0,0,0,0,0,8,3,0,0,0,0,0,0,0,0,0,0,0,0,0,7,8,0,0,0,0,0,0,0,0,7,0,7,0,0,0,0,0,0,0,0,0,0,0,0,0,0,7,0,0,0,0,0,0,0,0,0,0,0,0,0,0,0,0,0,0,0,0,0,0,0,0,0,0,0,0,0,0,0,0,0,0,0,0,0,0,0,0,0,0,0,0,0,0,0,0,0,0,
0,0,0,0,0,0,0,0,0,0,0,2,5,6,6,6,6,6,6,5,6,6,6,6,6,6,5,5,0,0,0,0,0,0,0,0,8,0,7,0,0,0,0,0,0,0,0,0,0,0,0,0,0,7,0,0,0,0,0,0,0,0,0,0,0,0,0,0,0,0,0,0,0,0,0,0,0,0,0,0,0,0,0,0,0,0,0,0,0,0,0,0,0,0,0,0,0,0,0,0,0,0,0,0,
0,0,0,0,0,0,0,0,0,0,0,8,7,0,0,0,0,0,0,8,0,0,0,0,0,0,7,8,0,0,0,0,0,0,0,0,0,0,8,0,0,0,0,0,0,0,0,0,0,0,0,0,0,8,0,0,0,0,0,0,0,0,0,0,0,0,0,0,0,0,0,0,0,0,0,0,0,0,0,0,0,0,0,0,0,0,0,0,0,0,0,0,0,0,0,0,0,0,0,0,0,0,0,0,
0,0,0,0,0,0,0,0,0,0,0,0,7,0,0,0,0,0,0,0,0,0,0,0,0,0,7,0,0,0,0,0,0,0,0,0,0,0,0,0,0,0,0,0,0,0,0,0,0,0,0,0,0,0,0,0,0,0,0,0,0,0,0,0,0,0,0,0,0,0,0,0,0,0,0,0,0,0,0,0,0,0,0,0,0,0,0,0,0,0,0,0,0,0,0,0,0,0,0,0,0,0,0,0,
0,0,0,0,0,0,0,0,0,0,0,0,7,0,0,0,0,0,0,0,0,0,0,0,0,0,7,0,0,0,0,0,0,0,0,0,0,0,0,0,0,0,0,0,0,0,0,0,0,0,0,0,0,0,0,0,0,0,0,0,0,0,0,0,0,0,0,0,0,0,0,0,0,0,0,0,0,0,0,0,0,0,0,0,0,0,0,0,0,0,0,0,0,0,0,0,0,0,0,0,0,0,0,0,
0,0,0,0,0,0,0,0,0,0,0,0,7,0,0,0,0,0,0,0,0,0,0,0,0,0,7,0,0,0,0,0,0,0,0,0,0,0,0,0,0,0,0,0,0,0,0,0,0,0,0,0,0,0,0,0,0,0,0,0,0,0,0,0,0,0,0,0,0,0,0,0,0,0,0,0,0,0,0,0,0,0,0,0,0,0,0,0,0,0,0,0,0,0,0,0,0,0,0,0,0,0,0,0,
0,0,0,0,0,0,0,0,0,0,0,0,7,0,0,0,0,0,0,0,0,0,0,0,0,0,7,0,0,0,0,0,0,0,0,0,0,0,0,0,0,0,0,0,0,0,0,0,0,0,0,0,0,0,0,0,0,0,0,0,0,0,0,0,0,0,0,0,0,0,0,0,0,0,0,0,0,0,0,0,0,0,0,0,0,0,0,0,0,0,0,0,0,0,0,0,0,0,0,0,0,0,0,0,
0,0,0,0,0,0,0,0,0,0,0,0,7,0,0,0,0,0,0,0,0,0,0,0,0,0,7,0,0,0,0,0,0,0,0,0,0,0,0,0,0,0,0,0,0,0,0,0,0,0,0,0,0,0,0,0,0,0,0,0,0,0,0,0,0,0,0,0,0,0,0,0,0,0,0,0,0,0,0,0,0,0,0,0,0,0,0,0,0,0,0,0,0,0,0,0,0,0,0,0,0,0,0,0,
0,0,0,0,0,0,0,0,0,0,0,0,7,0,0,0,0,0,0,0,0,0,0,0,0,0,7,0,0,0,0,0,0,0,0,0,0,0,0,0,0,0,0,0,0,0,0,0,0,0,0,0,0,0,0,0,0,0,0,0,0,0,0,0,0,0,0,0,0,0,0,0,0,0,0,0,0,0,0,0,0,0,0,0,0,0,0,0,0,0,0,0,0,0,0,0,0,0,0,0,0,0,0,0,
0,0,0,0,0,0,0,0,0,0,0,0,7,0,0,0,0,0,0,0,0,0,0,0,0,0,7,0,0,0,0,0,0,0,0,0,0,0,0,0,0,0,0,0,0,0,0,0,0,0,0,0,0,0,0,0,0,0,0,0,0,0,0,0,0,0,0,0,0,0,0,0,0,0,0,0,0,0,0,0,0,0,0,0,0,0,0,0,0,0,0,0,0,0,0,0,0,0,0,0,0,0,0,0,
0,0,0,0,0,0,0,0,0,0,0,0,7,0,0,0,0,0,0,0,0,0,0,0,0,0,7,0,0,0,0,0,0,0,0,0,0,0,0,0,0,0,0,0,0,0,0,0,0,0,0,0,0,0,0,0,0,0,0,0,0,0,0,0,0,0,0,0,0,0,0,0,0,0,0,0,0,0,0,0,0,0,0,0,0,0,0,0,0,0,0,0,0,0,0,0,0,0,0,0,0,0,0,0,
0,0,0,0,0,0,0,0,0,0,0,0,7,0,0,0,0,0,0,0,0,0,0,0,0,0,7,0,0,0,0,0,0,0,0,0,0,0,8,0,0,0,0,0,0,0,0,0,0,0,0,0,0,0,0,0,0,0,0,0,0,0,0,0,0,0,0,0,0,0,0,0,0,0,0,0,0,0,0,0,0,0,0,0,0,0,0,0,0,0,0,0,0,0,0,0,0,0,0,0,0,0,0,0,
0,0,0,0,0,0,0,0,0,0,0,0,7,0,0,0,0,0,0,0,0,0,0,0,0,0,7,0,0,0,7,0,0,0,0,0,0,0,7,0,0,0,0,0,0,0,0,0,0,0,0,0,0,0,0,0,0,0,0,0,0,0,0,0,0,0,0,0,0,0,0,0,0,0,0,0,0,0,0,0,0,0,0,0,0,0,0,0,0,0,0,0,0,0,0,0,0,0,0,0,0,0,0,0,
0,0,0,0,0,0,0,0,0,0,0,0,7,0,0,0,0,0,0,0,0,0,0,0,8,6,5,6,6,6,5,6,6,6,6,6,6,6,5,6,6,6,5,6,8,0,0,0,0,0,0,0,0,0,0,0,0,0,0,0,0,0,0,0,0,0,0,0,0,0,0,0,0,0,0,0,0,0,0,0,0,0,0,0,0,0,0,0,0,0,0,0,0,0,0,0,0,0,0,0,0,0,0,0,
0,0,0,0,0,0,0,0,0,0,0,0,7,0,0,0,0,0,0,0,0,0,0,0,0,0,8,0,0,0,0,0,0,0,0,0,0,0,0,0,0,0,8,0,0,0,0,0,0,0,0,0,0,0,0,0,0,0,0,0,0,0,0,0,0,0,0,0,0,0,0,0,0,0,0,0,0,0,0,0,0,0,0,0,0,0,0,0,0,0,0,0,0,0,0,0,0,0,0,0,0,0,0,0,
0,0,0,0,0,0,0,0,0,0,0,0,7,0,0,0,0,0,0,0,0,0,0,0,0,0,0,0,0,0,0,0,0,0,0,0,0,0,0,0,0,0,0,0,0,0,0,0,0,0,0,0,0,0,0,0,0,0,0,0,0,0,0,0,0,0,0,0,0,0,0,0,0,0,0,0,0,0,0,0,0,0,0,0,0,0,0,0,0,0,0,0,0,0,0,0,0,0,0,0,0,0,0,0,
0,0,0,0,0,0,0,0,0,0,0,0,7,0,0,0,0,0,0,0,0,0,0,0,0,0,0,0,0,0,0,0,0,0,0,0,0,0,0,0,0,0,0,0,0,0,0,0,0,0,0,0,0,0,0,0,0,0,0,0,0,0,0,0,0,0,0,0,0,0,0,0,0,0,0,0,0,0,0,0,0,0,0,0,0,0,0,0,0,0,0,0,0,0,0,0,0,0,0,0,0,0,0,0,
0,0,0,0,0,0,0,0,0,0,0,0,8,0,0,0,0,0,0,0,0,0,0,0,0,0,0,0,0,0,0,0,0,0,0,0,0,0,0,0,0,0,0,0,0,0,0,0,0,0,0,0,0,0,0,0,0,0,0,0,0,0,0,0,0,0,0,0,0,0,0,0,0,0,0,0,0,0,0,0,0,0,0,0,0,0,0,0,0,0,0,0,0,0,0,0,0,0,0,0,0,0,0,0,
0,0,0,0,0,0,0,0,0,0,0,0,0,0,0,0,0,0,0,0,0,0,0,0,0,0,0,0,0,0,0,0,0,0,0,0,0,0,0,0,0,0,0,0,0,0,0,0,0,0,0,0,0,0,0,0,0,0,0,0,0,0,0,0,0,0,0,0,0,0,0,0,0,0,0,0,0,0,0,0,0,0,0,0,0,0,0,0,0,0,0,0,0,0,0,0,0,0,0,0,0,0,0,0,
0,0,0,0,0,0,0,0,0,0,0,0,0,0,0,0,0,0,0,0,0,0,0,0,0,0,0,0,0,0,0,0,0,0,0,0,0,0,0,0,0,0,0,0,0,0,0,0,0,0,0,0,0,0,0,0,0,0,0,0,0,0,0,0,0,0,0,0,0,0,0,0,0,0,0,0,0,0,0,0,0,0,0,0,0,0,0,0,0,0,0,0,0,0,0,0,0,0,0,0,0,0,0,0,
0,0,0,0,0,0,0,0,0,0,0,0,0,0,0,0,0,0,0,0,0,0,0,0,0,0,0,0,0,0,0,0,0,0,0,0,0,0,0,0,0,0,0,0,0,0,0,0,0,0,0,0,0,0,0,0,0,0,0,0,0,0,0,0,0,0,0,0,0,0,0,0,0,0,0,0,0,0,0,0,0,0,0,0,0,0,0,0,0,0,0,0,0,0,0,0,0,0,0,0,0,0,0,0,
0,0,0,0,0,0,0,0,0,0,0,0,0,0,0,0,0,0,0,0,0,0,0,0,0,0,0,0,0,0,0,0,0,0,0,0,0,0,0,0,0,0,0,0,0,0,0,0,0,0,0,0,0,0,0,0,0,0,0,0,0,0,0,0,0,0,0,0,0,0,0,0,0,0,0,0,0,0,0,0,0,0,0,0,0,0,0,0,0,0,0,0,0,0,0,0,0,0,0,0,0,0,0,0,
0,0,0,0,0,0,0,0,0,0,0,0,0,0,0,0,0,0,0,0,0,0,0,0,0,0,0,0,0,0,0,0,0,0,0,0,0,0,0,0,0,0,0,0,0,0,0,0,0,0,0,0,0,0,0,0,0,0,0,0,0,0,0,0,0,0,0,0,0,0,0,0,0,0,0,0,0,0,0,0,0,0,0,0,0,0,0,0,0,0,0,0,0,0,0,0,0,0,0,0,0,0,0,0,
0,0,0,0,0,0,0,0,0,0,0,0,0,0,0,0,0,0,0,0,0,0,0,0,0,0,0,0,0,0,0,0,0,0,0,0,0,0,0,0,0,0,0,0,0,0,0,0,0,0,0,0,0,0,0,0,0,0,0,0,0,0,0,0,0,0,0,0,0,0,0,0,0,0,0,0,0,0,0,0,0,0,0,0,0,0,0,0,0,0,0,0,0,0,0,0,0,0,0,0,0,0,0,0,
0,0,0,0,0,0,0,0,0,0,0,0,0,0,0,0,0,0,0,0,0,0,0,0,0,0,0,0,0,0,0,0,0,0,0,0,0,0,0,0,0,0,0,0,0,0,0,0,0,0,0,0,0,0,0,0,0,0,0,0,0,0,0,0,0,0,0,0,0,0,0,0,0,0,0,0,0,0,0,0,0,0,0,0,0,0,0,0,0,0,0,0,0,0,0,0,0,0,0,0,0,0,0,0,
0,0,0,0,0,0,0,0,0,0,0,0,0,0,0,0,0,0,0,0,0,0,0,0,0,0,0,0,0,0,0,0,0,0,0,0,0,0,0,0,0,0,0,0,0,0,0,0,0,0,0,0,0,0,0,0,0,0,0,0,0,0,0,0,0,0,0,0,0,0,0,0,0,0,0,0,0,0,0,0,0,0,0,0,0,0,0,0,0,0,0,0,0,0,0,0,0,0,0,0,0,0,0,0,
0,0,0,0,0,0,0,0,0,0,0,0,0,0,0,0,0,0,0,0,0,0,0,0,0,0,0,0,0,0,0,0,0,0,0,0,0,0,0,0,0,0,0,0,0,0,0,0,0,0,0,0,0,0,0,0,0,0,0,0,0,0,0,0,0,0,0,0,0,0,0,0,0,0,0,0,0,0,0,0,0,0,0,0,0,0,0,0,0,0,0,0,0,0,0,0,0,0,0,0,0,0,0,0,
0,0,0,0,0,0,0,0,0,0,0,0,0,0,0,0,0,0,0,0,0,0,0,0,0,0,0,0,0,0,0,0,0,0,0,0,0,0,0,0,0,0,0,0,0,0,0,0,0,0,0,0,0,0,0,0,0,0,0,0,0,0,0,0,0,0,0,0,0,0,0,0,0,0,0,0,0,0,0,0,0,0,0,0,0,0,0,0,0,0,0,0,0,0,0,0,0,0,0,0,0,0,0,0
</data>
 </layer>
 <layer id="7" name="AlwaysFront" width="104" height="50">
  <data encoding="csv">
0,0,0,0,0,0,0,0,0,0,0,0,0,0,0,0,0,0,0,0,0,0,0,0,0,0,0,0,0,0,0,0,0,0,0,0,0,0,0,0,0,0,0,0,0,0,0,0,0,0,0,0,0,0,98,0,0,0,0,98,0,114,1891,1891,1892,111,0,98,96,96,95,0,0,0,0,0,0,0,0,0,0,0,0,0,0,0,0,0,0,0,0,0,0,0,0,0,0,0,0,0,0,0,0,0,
0,0,0,0,0,0,0,0,0,0,0,0,0,0,0,0,0,0,0,0,0,0,0,0,0,0,0,0,0,0,0,0,0,0,0,0,0,0,0,0,0,0,0,0,0,0,0,0,0,0,0,0,0,0,0,0,0,0,0,0,0,1926,1927,1927,1928,1929,0,98,98,98,95,0,0,0,0,0,0,0,0,0,0,0,0,0,0,0,0,0,0,0,0,0,0,0,0,0,0,0,0,0,0,0,0,0,
0,0,0,0,0,0,0,0,0,0,0,0,0,0,0,0,0,0,0,0,0,0,0,0,0,0,0,0,0,0,0,0,0,0,0,0,0,0,0,0,0,0,0,0,0,0,0,0,0,0,0,0,0,0,0,0,98,0,0,0,0,1962,1963,1963,1964,1965,0,111,112,112,112,0,0,0,0,0,0,0,0,0,0,0,0,0,0,0,0,0,0,0,0,0,0,0,0,0,0,0,0,0,0,0,0,0,
0,0,0,0,0,0,0,0,0,0,0,0,0,0,0,0,0,0,0,0,0,0,0,0,0,0,0,0,0,0,0,0,0,0,0,0,0,0,0,0,0,0,0,0,0,0,0,0,0,0,0,0,0,0,0,0,0,0,0,0,0,0,0,0,0,0,0,0,0,0,0,0,0,0,0,0,0,0,0,0,0,0,0,0,0,0,0,0,0,0,0,0,0,0,0,0,0,0,0,0,0,0,0,0,
0,0,0,0,0,0,0,0,0,0,0,0,0,0,0,0,0,0,0,0,0,0,0,0,0,0,0,0,0,0,0,0,0,0,0,0,0,0,0,0,0,0,0,0,0,0,0,0,0,0,0,0,0,0,0,0,0,0,0,0,0,0,0,0,0,0,0,0,0,0,0,0,0,0,0,0,0,0,0,0,0,0,0,0,0,0,0,0,0,0,0,0,0,0,0,0,0,0,0,0,0,0,0,0,
0,0,0,0,0,0,0,0,0,0,0,0,0,0,0,0,0,0,0,0,0,0,0,0,0,0,0,0,0,0,0,0,0,0,0,0,0,0,0,0,0,0,0,0,0,0,0,0,0,0,0,0,0,0,0,0,0,0,0,0,0,0,0,0,0,0,0,0,0,0,0,0,0,0,0,0,0,0,0,0,0,0,0,0,0,0,0,0,0,0,0,0,0,0,0,0,0,0,0,0,0,0,0,0,
0,0,0,0,0,0,0,0,0,0,0,0,0,0,0,0,0,0,0,0,0,0,0,0,0,0,0,0,0,0,0,0,0,0,0,0,0,0,0,0,0,0,0,0,0,0,0,0,0,0,0,0,0,0,0,0,0,0,0,0,0,0,0,0,0,0,0,0,0,0,0,0,0,0,0,0,0,0,0,0,0,0,0,0,0,0,0,0,0,0,0,0,0,0,0,0,0,0,0,0,0,0,0,0,
0,0,0,0,0,0,0,0,0,0,0,0,0,0,0,0,0,0,0,0,0,0,0,0,0,0,0,0,0,0,0,0,0,0,0,0,0,0,0,0,0,0,0,0,0,0,0,0,0,0,0,0,0,0,0,0,0,0,0,0,0,0,0,0,0,0,0,0,0,0,0,0,0,0,0,0,0,0,0,0,0,0,0,0,0,0,0,0,0,0,0,0,0,0,0,0,0,0,0,0,0,0,0,0,
0,0,0,0,0,0,0,0,0,0,0,0,0,0,0,0,0,0,0,0,0,0,0,0,0,0,0,0,0,0,0,0,0,0,0,0,0,0,0,0,0,0,0,0,0,0,0,0,0,0,0,0,0,0,0,0,0,0,0,0,0,0,0,0,0,0,0,0,0,0,0,0,0,0,0,0,0,0,0,0,0,0,0,0,0,0,0,0,0,0,0,0,0,0,0,0,0,0,0,0,0,0,0,0,
0,0,0,0,0,0,0,0,0,0,0,0,0,0,0,0,0,0,0,0,0,0,0,0,0,0,0,0,0,0,0,0,0,0,0,0,0,0,0,0,0,0,0,0,0,0,0,0,0,0,0,0,0,0,0,0,0,0,0,0,0,0,0,0,0,0,0,0,0,0,0,0,0,0,0,0,0,0,0,0,0,0,0,0,0,0,0,0,0,0,0,0,0,0,0,0,0,0,0,0,0,0,0,0,
0,0,0,0,0,0,0,0,0,0,0,0,0,0,0,0,0,0,0,0,0,0,0,0,0,0,0,0,0,0,0,0,0,0,0,0,0,0,0,0,0,0,0,0,0,0,0,0,0,0,0,0,0,0,0,0,0,0,0,0,0,0,0,0,0,0,0,0,0,0,0,0,0,0,0,0,0,0,0,0,0,0,0,0,0,0,0,0,0,0,0,0,0,0,0,0,0,0,0,0,0,0,0,0,
0,0,0,0,0,0,0,0,0,0,0,0,0,0,0,0,0,0,0,0,0,0,0,0,0,0,0,0,0,0,0,0,0,0,0,0,0,0,0,0,0,0,0,0,0,0,0,0,0,0,0,0,0,0,0,0,0,0,0,0,0,0,0,0,0,0,0,0,0,0,0,0,0,0,0,0,0,0,0,0,0,0,0,0,0,0,0,0,0,0,0,0,0,0,0,0,0,0,0,0,0,0,0,0,
0,0,0,0,0,0,0,0,0,0,0,0,0,0,0,0,0,0,0,0,0,0,0,0,0,0,0,0,0,0,0,0,0,0,0,0,0,0,0,0,0,0,0,0,0,0,0,0,0,0,0,0,0,0,0,0,0,0,0,0,0,0,0,0,0,0,0,0,0,0,0,0,0,0,0,0,0,0,0,0,0,0,0,0,0,0,0,0,0,0,0,0,0,0,0,0,0,0,0,0,0,0,0,0,
0,0,0,0,0,0,0,0,0,0,0,0,0,0,0,0,0,0,0,0,0,0,0,0,0,0,0,0,0,0,0,0,0,0,0,0,0,0,0,0,0,0,0,0,0,0,0,0,0,0,0,0,0,0,0,0,0,0,0,0,0,0,0,0,0,0,0,0,0,0,0,0,0,0,0,0,0,0,0,0,0,0,0,0,0,0,0,0,0,0,0,0,0,0,0,0,0,0,0,0,0,0,0,0,
0,0,0,0,0,0,0,0,0,0,0,0,0,0,0,0,0,0,0,0,0,0,0,0,0,0,0,0,0,0,0,0,0,0,0,0,0,0,0,0,0,0,0,0,0,0,0,0,0,0,0,0,0,0,0,0,0,0,0,0,0,0,0,0,0,0,0,0,0,0,0,0,0,0,0,0,0,0,0,0,0,0,0,0,0,0,0,0,0,0,0,0,0,0,0,0,0,0,0,0,0,0,0,0,
0,0,0,0,0,0,0,0,0,0,0,0,0,0,0,0,0,0,0,0,0,0,0,0,0,0,0,0,0,0,0,0,0,0,0,0,0,0,0,0,0,0,0,0,0,0,0,0,0,0,0,0,0,0,0,0,0,0,0,0,0,0,0,0,0,0,0,0,0,0,0,0,0,0,0,0,0,0,0,0,0,0,0,0,0,0,0,0,0,0,0,0,0,0,0,0,0,0,0,0,0,0,0,0,
0,0,0,0,0,0,0,0,0,0,0,0,0,0,0,0,0,0,0,0,0,0,0,0,0,0,0,0,0,0,0,0,0,0,0,0,0,0,0,0,0,0,0,0,0,0,0,0,0,0,0,0,0,0,0,0,0,0,0,0,0,0,0,0,0,0,0,0,0,0,0,0,0,0,0,0,0,0,0,0,0,0,0,0,0,0,0,0,0,0,0,0,0,0,0,0,0,0,0,0,0,0,0,0,
0,0,0,0,0,0,0,0,0,0,0,0,0,0,0,0,0,0,0,0,0,0,0,0,0,0,0,0,0,0,0,0,0,0,0,0,0,0,0,0,0,0,0,0,0,0,0,0,0,0,0,0,0,0,0,0,0,0,0,0,0,0,0,0,0,0,0,0,0,0,0,0,0,0,0,0,0,0,0,0,0,0,0,0,0,0,0,0,0,0,0,0,0,0,0,0,0,0,0,0,0,0,0,0,
0,0,0,0,0,0,0,0,0,0,0,0,0,0,0,0,0,0,0,0,0,0,0,0,0,0,0,0,0,0,0,0,0,0,0,0,0,0,0,0,0,0,0,0,0,0,0,0,0,0,0,0,0,0,0,0,0,0,0,0,0,0,0,0,0,0,0,0,0,0,0,0,0,0,0,0,0,0,0,0,0,0,0,0,0,0,0,0,0,0,0,0,0,0,0,0,0,0,0,0,0,0,0,0,
0,0,0,0,0,0,0,0,0,0,0,0,0,0,0,0,0,0,0,0,0,0,0,0,0,0,0,0,0,0,0,0,0,0,0,0,0,0,0,0,0,0,0,0,0,0,0,0,0,0,0,0,0,0,0,0,0,0,0,0,0,0,0,0,0,0,0,0,0,0,0,0,0,0,0,0,0,0,0,0,0,0,0,0,0,0,0,0,0,0,0,0,0,0,0,0,0,0,0,0,0,0,0,0,
0,0,0,0,0,0,0,0,0,0,0,0,0,0,0,0,0,0,0,0,0,0,0,0,0,0,0,0,0,0,0,0,0,0,0,0,0,0,0,0,0,0,0,0,0,0,0,0,0,0,0,0,0,0,0,0,0,0,0,0,0,0,0,0,0,0,0,0,0,0,0,0,0,0,0,0,0,0,0,0,0,0,0,0,0,0,0,0,0,0,0,0,0,0,0,0,0,0,0,0,0,0,0,0,
0,0,0,0,0,0,0,0,0,0,0,0,0,0,0,0,0,0,0,0,0,0,0,0,0,0,0,0,0,0,0,0,0,0,0,0,0,0,0,0,0,0,0,0,0,0,0,0,0,0,0,0,0,0,0,0,0,0,0,0,0,0,0,0,0,0,0,0,0,0,0,0,0,0,0,0,0,0,0,0,0,0,0,0,0,0,0,0,0,0,0,0,0,0,0,0,0,0,0,0,0,0,0,0,
0,0,0,0,0,0,0,0,0,0,0,0,0,0,0,0,0,0,0,0,0,0,0,0,0,0,0,0,0,0,0,0,0,0,0,0,0,0,0,0,0,0,0,0,0,0,0,0,0,0,0,0,0,0,0,0,0,0,0,0,0,0,0,0,0,0,0,0,0,0,0,0,0,0,0,0,0,0,0,0,0,0,0,0,0,0,0,0,0,0,0,0,0,0,0,0,0,0,0,0,0,0,0,0,
0,0,0,0,0,0,0,0,0,0,0,0,0,0,0,0,0,0,0,0,0,0,0,0,0,0,0,0,0,0,0,0,0,0,0,0,0,0,0,0,0,0,0,0,0,0,0,0,0,0,0,0,0,0,0,0,0,0,0,0,0,0,0,0,0,0,0,0,0,0,0,0,0,0,0,0,0,0,0,0,0,0,0,0,0,0,0,0,0,0,0,0,0,0,0,0,0,0,0,0,0,0,0,0,
0,0,0,0,0,0,0,0,0,0,0,0,0,0,0,0,0,0,0,0,0,0,0,0,0,0,0,0,0,0,0,0,0,0,0,0,0,0,0,0,0,0,0,0,0,0,0,0,0,0,0,0,0,0,0,0,0,0,0,0,0,0,0,0,0,0,0,0,0,0,0,0,0,0,0,0,0,0,0,0,0,0,0,0,0,0,0,0,0,0,0,0,0,0,0,0,0,0,0,0,0,0,0,0,
0,0,0,0,0,0,0,0,0,0,0,0,0,0,0,0,0,0,0,0,0,0,0,0,0,0,0,0,0,0,0,0,0,0,0,0,0,0,0,0,0,0,0,0,0,0,0,0,0,0,0,0,0,0,0,0,0,0,0,0,0,0,0,0,0,0,0,0,0,0,0,0,0,0,0,0,0,0,0,0,0,0,0,0,0,0,0,0,0,0,0,0,0,0,0,0,0,0,0,0,0,0,0,0,
0,0,0,0,0,0,0,0,0,0,0,0,0,0,0,0,0,0,0,0,0,0,0,0,0,0,0,0,0,0,0,0,0,0,0,0,0,0,0,0,0,0,0,0,0,0,0,0,0,0,0,0,0,0,0,0,0,0,0,0,0,0,0,0,0,0,0,0,0,0,0,0,0,0,0,0,0,0,0,0,0,0,0,0,0,0,0,0,0,0,0,0,0,0,0,0,0,0,0,0,0,0,0,0,
0,0,0,0,0,0,0,0,0,0,0,0,0,0,0,0,0,0,0,0,0,0,0,0,0,0,0,0,0,0,0,0,0,0,0,0,0,0,0,0,0,0,0,0,0,0,0,0,0,0,0,0,0,0,0,0,0,0,0,0,0,0,0,0,0,0,0,0,0,0,0,0,0,0,0,0,0,0,0,0,0,0,0,0,0,0,0,0,0,0,0,0,0,0,0,0,0,0,0,0,0,0,0,0,
0,0,0,0,0,0,0,0,0,0,0,0,0,0,0,0,0,0,0,0,0,0,0,0,0,0,0,0,0,0,0,0,0,0,0,0,0,0,0,0,0,0,0,0,0,0,0,0,0,0,0,0,0,0,0,0,0,0,0,0,0,0,0,0,0,0,0,0,0,0,0,0,0,0,0,0,0,0,0,0,0,0,0,0,0,0,0,0,0,0,0,0,0,0,0,0,0,0,0,0,0,0,0,0,
0,0,0,0,0,0,0,0,0,0,0,0,0,0,0,0,0,0,0,0,0,0,0,0,0,0,0,0,0,0,0,0,0,0,0,0,0,0,0,0,0,0,0,0,0,0,0,0,0,0,0,0,0,0,0,0,0,0,0,0,0,0,0,0,0,0,0,0,0,0,0,0,0,0,0,0,0,0,0,0,0,0,0,0,0,0,0,0,0,0,0,0,0,0,0,0,0,0,0,0,0,0,0,0,
0,0,0,0,0,0,0,0,0,0,0,0,0,0,0,0,0,0,0,0,0,0,0,0,0,0,0,0,0,0,0,0,0,0,0,0,0,0,0,0,0,0,0,0,0,0,0,0,0,0,0,0,0,0,0,0,0,0,0,0,0,0,0,0,0,0,0,0,0,0,0,0,0,0,0,0,0,0,0,0,0,0,0,0,0,0,0,0,0,0,0,0,0,0,0,0,0,0,0,0,0,0,0,0,
0,0,0,0,0,0,0,0,0,0,0,0,0,0,0,0,0,0,0,0,0,0,0,0,0,0,0,0,0,0,0,0,0,0,0,0,0,0,0,0,0,0,0,0,0,0,0,0,0,0,0,0,0,0,0,0,0,0,0,0,0,0,0,0,0,0,0,0,0,0,0,0,0,0,0,0,0,0,0,0,0,0,0,0,0,0,0,0,0,0,0,0,0,0,0,0,0,0,0,0,0,0,0,0,
0,0,0,0,0,0,0,0,0,0,0,0,0,0,0,0,0,0,0,0,0,0,0,0,0,0,0,0,0,0,0,0,0,0,0,0,0,0,0,0,0,0,0,0,0,0,0,0,0,0,0,0,0,0,0,0,0,0,0,0,0,0,0,0,0,0,0,0,0,0,0,0,0,0,0,0,0,0,0,0,0,0,0,0,0,0,0,0,0,0,0,0,0,0,0,0,0,0,0,0,0,0,0,0,
0,0,0,0,0,0,0,0,0,0,0,0,0,0,0,0,0,0,0,0,0,0,0,0,0,0,0,0,0,0,0,0,0,0,0,0,0,0,0,0,0,0,0,0,0,0,0,0,0,0,0,0,0,0,0,0,0,0,0,0,0,0,0,0,0,0,0,0,0,0,0,0,0,0,0,0,0,0,0,0,0,0,0,0,0,0,0,0,0,0,0,0,0,0,0,0,0,0,0,0,0,0,0,0,
0,0,0,0,0,0,0,0,0,0,0,0,0,0,0,0,0,0,0,0,0,0,0,0,0,0,0,0,0,0,0,0,0,0,0,0,0,0,0,0,0,0,0,0,0,0,0,0,0,0,0,0,0,0,0,0,0,0,0,0,0,0,0,0,0,0,0,0,0,0,0,0,0,0,0,0,0,0,0,0,0,0,0,0,0,0,0,0,0,0,0,0,0,0,0,0,0,0,0,0,0,0,0,0,
0,0,0,0,0,0,0,0,0,0,0,0,0,0,0,0,0,0,0,0,0,0,0,0,0,0,0,0,0,0,0,0,0,0,0,0,0,0,0,0,0,0,0,0,0,0,0,0,0,0,0,0,0,0,0,0,0,0,0,0,0,0,0,0,0,0,0,0,0,0,0,0,0,0,0,0,0,0,0,0,0,0,0,0,0,0,0,0,0,0,0,0,0,0,0,0,0,0,0,0,0,0,0,0,
0,0,0,0,0,0,0,0,0,0,0,0,0,0,0,0,0,0,0,0,0,0,0,0,0,0,0,0,0,0,0,0,0,0,0,0,0,0,0,0,0,0,0,0,0,0,0,0,0,0,0,0,0,0,0,0,0,0,0,0,0,0,0,0,0,0,0,0,0,0,0,0,0,0,0,0,0,0,0,0,0,0,0,0,0,0,0,0,0,0,0,0,0,0,0,0,0,0,0,0,0,0,0,0,
0,0,0,0,0,0,0,0,0,0,0,0,0,0,0,0,0,0,0,0,0,0,0,0,0,0,0,0,0,0,0,0,0,0,0,0,0,0,0,0,0,0,0,0,0,0,0,0,0,0,0,0,0,0,0,0,0,0,0,0,0,0,0,0,0,0,0,0,0,0,0,0,0,0,0,0,0,0,0,0,0,0,0,0,0,0,0,0,0,0,0,0,0,0,0,0,0,0,0,0,0,0,0,0,
0,0,0,0,0,0,0,0,0,0,0,0,0,0,0,0,0,0,0,0,0,0,0,0,0,0,0,0,0,0,0,0,0,0,0,0,0,0,0,0,0,0,0,0,0,0,0,0,0,0,0,0,0,0,0,0,0,0,0,0,0,0,0,0,0,0,0,0,0,0,0,0,0,0,0,0,0,0,0,0,0,0,0,0,0,0,0,0,0,0,0,0,0,0,0,0,0,0,0,0,0,0,0,0,
0,0,0,0,0,0,0,0,0,0,0,0,0,0,0,0,0,0,0,0,0,0,0,0,0,0,0,0,0,0,0,0,0,0,0,0,0,0,0,0,0,0,0,0,0,0,0,0,0,0,0,0,0,0,0,0,0,0,0,0,0,0,0,0,0,0,0,0,0,0,0,0,0,0,0,0,0,0,0,0,0,0,0,0,0,0,0,0,0,0,0,0,0,0,0,0,0,0,0,0,0,0,0,0,
0,0,0,0,0,0,0,0,0,0,0,0,0,0,0,0,0,0,0,0,0,0,0,0,0,0,0,0,0,0,0,0,0,0,0,0,0,0,0,0,0,0,0,0,0,0,0,0,0,0,0,0,0,0,0,0,0,0,0,0,0,0,0,0,0,0,0,0,0,0,0,0,0,0,0,0,0,0,0,0,0,0,0,0,0,0,0,0,0,0,0,0,0,0,0,0,0,0,0,0,0,0,0,0,
0,0,0,0,0,0,0,0,0,0,0,0,0,0,0,0,0,0,0,0,0,0,0,0,0,0,0,0,0,0,0,0,0,0,0,0,0,0,0,0,0,0,0,0,0,0,0,0,0,0,0,0,0,0,0,0,0,0,0,0,0,0,0,0,0,0,0,0,0,0,0,0,0,0,0,0,0,0,0,0,0,0,0,0,0,0,0,0,0,0,0,0,0,0,0,0,0,0,0,0,0,0,0,0,
0,0,0,0,0,0,0,0,0,0,0,0,0,0,0,0,0,0,0,0,0,0,0,0,0,0,0,0,0,0,0,0,0,0,0,0,0,0,0,0,0,0,0,0,0,0,0,0,0,0,0,0,0,0,0,0,0,0,0,0,0,0,0,0,0,0,0,0,0,0,0,0,0,0,0,0,0,0,0,0,0,0,0,0,0,0,0,0,0,0,0,0,0,0,0,0,0,0,0,0,0,0,0,0,
0,0,0,0,0,0,0,0,0,0,0,0,0,0,0,0,0,0,0,0,0,0,0,0,0,0,0,0,0,0,0,0,0,0,0,0,0,0,0,0,0,0,0,0,0,0,0,0,0,0,0,0,0,0,0,0,0,0,0,0,0,0,0,0,0,0,0,0,0,0,0,0,0,0,0,0,0,0,0,0,0,0,0,0,0,0,0,0,0,0,0,0,0,0,0,0,0,0,0,0,0,0,0,0,
0,0,0,0,0,0,0,0,0,0,0,0,0,0,0,0,0,0,0,0,0,0,0,0,0,0,0,0,0,0,0,0,0,0,0,0,0,0,0,0,0,0,0,0,0,0,0,0,0,0,0,0,0,0,0,0,0,0,0,0,0,0,0,0,0,0,0,0,0,0,0,0,0,0,0,0,0,0,0,0,0,0,0,0,0,0,0,0,0,0,0,0,0,0,0,0,0,0,0,0,0,0,0,0,
0,0,0,0,0,0,0,0,0,0,0,0,0,0,0,0,0,0,0,0,0,0,0,0,0,0,0,0,0,0,0,0,0,0,0,0,0,0,0,0,0,0,0,0,0,0,0,0,0,0,0,0,0,0,0,0,0,0,0,0,0,0,0,0,0,0,0,0,0,0,0,0,0,0,0,0,0,0,0,0,0,0,0,0,0,0,0,0,0,0,0,0,0,0,0,0,0,0,0,0,0,0,0,0,
0,0,0,0,0,0,0,0,0,0,0,0,0,0,0,0,0,0,0,0,0,0,0,0,0,0,0,0,0,0,0,0,0,0,0,0,0,0,0,0,0,0,0,0,0,0,0,0,0,0,0,0,0,0,0,0,0,0,0,0,0,0,0,0,0,0,0,0,0,0,0,0,0,0,0,0,0,0,0,0,0,0,0,0,0,0,0,0,0,0,0,0,0,0,0,0,0,0,0,0,0,0,0,0,
0,0,0,0,0,0,0,0,0,0,0,0,0,0,0,0,0,0,0,0,0,0,0,0,0,0,0,0,0,0,0,0,0,0,0,0,0,0,0,0,0,0,0,0,0,0,0,0,0,0,0,0,0,0,0,0,0,0,0,0,0,0,0,0,0,0,0,0,0,0,0,0,0,0,0,0,0,0,0,0,0,0,0,0,0,0,0,0,0,0,0,0,0,0,0,0,0,0,0,0,0,0,0,0,
0,0,0,0,0,0,0,0,0,0,0,0,0,0,0,0,0,0,0,0,0,0,0,0,0,0,0,0,0,0,0,0,0,0,0,0,0,0,0,0,0,0,0,0,0,0,0,0,0,0,0,0,0,0,0,0,0,0,0,0,0,0,0,0,0,0,0,0,0,0,0,0,0,0,0,0,0,0,0,0,0,0,0,0,0,0,0,0,0,0,0,0,0,0,0,0,0,0,0,0,0,0,0,0,
0,0,0,0,0,0,0,0,0,0,0,0,0,0,0,0,0,0,0,0,0,0,0,0,0,0,0,0,0,0,0,0,0,0,0,0,0,0,0,0,0,0,0,0,0,0,0,0,0,0,0,0,0,0,0,0,0,0,0,0,0,0,0,0,0,0,0,0,0,0,0,0,0,0,0,0,0,0,0,0,0,0,0,0,0,0,0,0,0,0,0,0,0,0,0,0,0,0,0,0,0,0,0,0
</data>
 </layer>
 <objectgroup id="8" name="Back">
  <object id="1" name="TileData" x="320" y="64" width="16" height="16">
   <properties>
    <property name="NoSpawn" value="All"/>
   </properties>
  </object>
 </objectgroup>
 <objectgroup id="9" name="Back2"/>
 <objectgroup id="10" name="Buildings">
  <object id="2" name="TileData" x="784" y="160" width="16" height="16">
   <properties>
    <property name="Action" value="LockedDoorWarp 3 9 ElliottHouse 1000 1800 Elliott 500"/>
   </properties>
  </object>
  <object id="3" name="TileData" x="928" y="208" width="16" height="16">
   <properties>
    <property name="Action" value="BrokenBeachBridge"/>
   </properties>
  </object>
  <object id="4" name="TileData" x="480" y="528" width="16" height="16">
   <properties>
    <property name="Action" value="LockedDoorWarp 5 9 FishShop 900 1700"/>
   </properties>
  </object>
  <object id="5" name="TileData" x="592" y="528" width="16" height="16">
   <properties>
    <property name="Action" value="DropBox WillyBarrel"/>
   </properties>
  </object>
 </objectgroup>
 <objectgroup id="11" name="Buildings2"/>
 <objectgroup id="12" name="Front"/>
 <objectgroup id="13" name="Paths"/>
 <objectgroup id="14" name="AlwaysFront"/>
</map>
